%
(CASE_OP_2_OFFENDING_FILE)
(T2  D=0.1875 CR=0. - ZMIN=0.8778 - FLAT END MILL)
(T5  D=0.375 CR=0. - ZMIN=0.89 - FLAT END MILL)
(T7  D=0.5 CR=0. - ZMIN=1.05 - FLAT END MILL)
(T21  D=0.25 CR=0. TAPER=45DEG - ZMIN=1.01 - CHAMFER MILL)
(T23  D=2.4803 CR=0.015 - ZMIN=1.05 - FACE MILL)
(T29  D=0.166 CR=0. TAPER=135DEG - ZMIN=0.9656 - DRILL)
G90 G94 G17 G91.1
G20
G53 G0 Z0.
(FACE5)
T23 M6
S3500 M3
G54
M8
G0 X6.1072 Y-0.99
G43 Z2.14 H23
G0 Z2.128
G18 G3 X5.8592 Z1.88 I-0.248 K0. F14.
G1 X4.495
X-0.005
G3 X-0.253 Z2.128 I0. K0.248
G0 Z2.14
G17
G53 G0 Z0.
(FACE5 2)
G55
G0 X6.1072 Y-0.99
G43 Z2.14 H23
G0 Z2.128
G18 G3 X5.8592 Z1.88 I-0.248 K0. F14.
G1 X4.495
X-0.005
G3 X-0.253 Z2.128 I0. K0.248
G0 Z2.14
G17
M5
G53 G0 Z0.
(ADAPTIVE1 2)
M9
M1
T7 M6
S6000 M3
G55
M8
G0 X-0.0541 Y-2.5603
G43 Z2.08 H7
G0 Z1.1601
G1 Z1.1101 F135.
X-0.054 Y-2.56 Z1.1045
X-0.0537 Y-2.5591 Z1.099
X-0.0534 Y-2.5576 Z1.0936
X-0.0528 Y-2.5555 Z1.0884
X-0.0522 Y-2.5529 Z1.0835
X-0.0513 Y-2.5498 Z1.0789
X-0.0504 Y-2.5461 Z1.0747
X-0.0494 Y-2.5421 Z1.071
X-0.0482 Y-2.5377 Z1.0678
X-0.047 Y-2.5329 Z1.0651
X-0.0457 Y-2.5279 Z1.0629
X-0.0444 Y-2.5227 Z1.0614
X-0.043 Y-2.5173 Z1.0604
X-0.0416 Y-2.5119 Z1.0601
G3 X-0.0025 Y-2.2397 I-1.2366 J0.3167
G1 Y-2.2364
X-0.0443 Y-2.2051
X-0.0803 Y-2.1671
G2 X-0.1677 Y-1.9789 I0.3702 J0.2861
X-0.1986 Y-1.6673 I1.4128 J0.2978
X-0.2024 Y-1.249 I14.304 J0.3376
G1 X-0.2025 Y-1.0398
Y-0.3078
Y-0.0986
X-0.1918 Y-0.0474
X-0.1704 Y0.0003
X-0.1403 Y0.043
X-0.1033 Y0.08
G2 X0.0833 Y0.1706 I0.2873 J-0.3538
X0.3424 Y0.2019 I0.2743 J-1.1833
X0.8129 Y0.2074 I0.381 J-12.518
G1 X1.0221 Y0.2075
X1.4404
X3.4275
G2 X3.5479 Y0.208 I0.0748 J-3.8352
G1 X3.6001 Y0.2104
G3 X4.0184 Y0.2076 I0.3517 J21.5778
G1 X4.2276 Y0.2075
X4.3844
X4.4357 Y0.1973
X4.4836 Y0.1762
X4.5265 Y0.1464
X4.5637 Y0.1096
G2 X4.6551 Y-0.0766 I-0.35 J-0.2875
X4.6868 Y-0.3356 I-1.1698 J-0.2745
X4.6924 Y-0.8643 I-14.1053 J-0.4128
X4.6986 Y-0.9975 I-1.2835 J-0.127
X4.6939 Y-1.241 I-9.8319 J0.0702
G3 X4.6926 Y-1.5548 I32.3155 J-0.2886
G1 X4.6925 Y-1.764
Y-1.8685
X4.6848 Y-1.9203
X4.6659 Y-1.969
X4.6377 Y-2.013
X4.6022 Y-2.0514
X4.5611 Y-2.0839
G2 X4.3675 Y-2.1594 I-0.2815 J0.4358
X4.0552 Y-2.1844 I-0.2945 J1.7123
X3.5438 Y-2.1875 I-0.3888 J22.3515
X3.382 Y-2.1882 I-0.0887 J1.6636
G1 X3.1205 Y-2.1876
X2.9113 Y-2.1875
X1.4995
X0.2445
X0.1922 Y-2.1864
X0.1411 Y-2.1754
X0.0928 Y-2.1554
X0.0485 Y-2.1275
X0.0091 Y-2.0932
G2 X-0.0964 Y-1.9146 I0.3321 J0.3166
X-0.1446 Y-1.6056 I1.0551 J0.323
X-0.1517 Y-1.0828 I9.7271 J0.3932
G1 X-0.1525 Y-0.9259
Y-0.3507
Y-0.2462
X-0.1485 Y-0.194
X-0.136 Y-0.1432
X-0.1154 Y-0.0952
X-0.0875 Y-0.0509
G2 X0.0753 Y0.0771 I0.3319 J-0.2547
X0.3277 Y0.1404 I0.3157 J-0.7229
X0.7456 Y0.156 I0.353 J-3.8667
X1.007 Y0.1574 I0.2058 J-13.8963
G1 X1.2162 Y0.1575
X2.2097
X3.1359
X3.147 Y0.158
X3.158 Y0.1594
G3 X3.2631 Y0.1863 I-3.1505 J12.5157
G2 X3.436 Y0.208 I0.3329 J-1.9578
G1 X3.4414 Y0.2085
X3.4468 Y0.2096
X3.452 Y0.2113
X3.4653 Y0.2169
X3.4732 Y0.2201 F354.
G2 X3.5182 Y0.2168 I0.0192 J-0.0461
G1 X3.5185 Y0.2167
G3 X3.5479 Y0.208 I0.0318 J0.0536 F135.
G1 X3.5628 Y0.2064
X3.5778 Y0.2053
X3.5928 Y0.2046
X3.6078 Y0.2044
G2 X3.818 Y0.172 I-0.5469 J-4.245
G3 X4.225 Y0.1587 I0.3277 J3.8165
G1 X4.2773 Y0.156
X4.3286 Y0.1457
X4.3775 Y0.1271
X4.4228 Y0.101
G2 X4.556 Y-0.0574 I-0.2348 J-0.3327
X4.6238 Y-0.3086 I-0.6794 J-0.3181
X4.6403 Y-0.616 I-2.847 J-0.3073
G3 X4.667 Y-0.7131 I7.1298 J1.9082
G2 X4.6926 Y-0.8643 I-1.8841 J-0.3969
G1 X4.6929 Y-0.8647
G2 X4.7 Y-0.8894 I-0.2794 J-0.0938
G1 X4.7009 Y-0.8941
X4.7014 Y-0.8993 F354.
X4.705 Y-0.9964
Y-0.9981
Y-0.9999
X4.7049 Y-1.0016
X4.7043 Y-1.0064 F135.
G2 X4.6991 Y-1.0315 I-0.2908 J0.0478
G1 X4.699 Y-1.0319
G2 X4.6766 Y-1.2221 I-1.497 J0.0798
G3 X4.6475 Y-1.4639 I1.0473 J-0.2487
X4.6432 Y-1.7253 I6.3968 J-0.2368
G1 X4.6401 Y-1.7775
X4.6289 Y-1.8286
X4.6095 Y-1.8772
X4.5827 Y-1.922
G2 X4.4226 Y-2.0533 I-0.3332 J0.2433
X4.1709 Y-2.1194 I-0.3172 J0.6954
X3.8583 Y-2.1356 I-0.3117 J2.9983
X3.6079 Y-2.1845 I-0.3886 J1.3234
G1 X3.5438 Y-2.1877
X3.5433 Y-2.1878
G2 X3.5325 Y-2.1901 I-0.032 J0.1222
G1 X3.5291 Y-2.1906
X3.5257 Y-2.1908
X3.5173 Y-2.1911
X3.5046 Y-2.1915
X3.5012
X3.4977 Y-2.1912
G2 X3.4868 Y-2.1895 I0.0136 J0.1256
G1 X3.4865
G2 X3.338 Y-2.1789 I0.1297 J2.8733
G3 X2.9162 Y-2.14 I-0.376 J-1.7681
X2.6024 Y-2.1376 I-0.2483 J-12.1376
G1 X2.3932 Y-2.1375
X1.2428
X0.3539
X0.3016 Y-2.136
G2 X0.11 Y-2.0593 I0.0309 J0.3545
X-0.0162 Y-1.8947 I0.2827 J0.3475
X-0.0822 Y-1.6429 I0.7392 J0.3284
X-0.1006 Y-1.2252 I3.5181 J0.3641
X-0.1024 Y-0.8069 I23.565 J0.314
G1 X-0.1025 Y-0.3886
X-0.1021 Y-0.3363
G2 X0.0262 Y-0.0594 I0.3792 J-0.0076
X0.2066 Y0.0438 I0.3424 J-0.3893
X0.5147 Y0.0969 I0.343 J-1.0695
X0.9852 Y0.1065 I0.3799 J-7.0523
G1 X1.0898 Y0.1073
X1.2466 Y0.1074
X1.6127 Y0.1075
X2.993
X3.0096 Y0.1086
X3.0259 Y0.1117
G2 X3.1282 Y0.1505 I1.7907 J-4.5742
G1 X3.1439 Y0.155
X3.1582 Y0.1589
X3.1689 Y0.1617
X3.17 Y0.1623
X3.1707 Y0.1632 Z1.0602
G2 X3.1853 Y0.1877 Z1.0609 I0.2919 J-0.1572
X3.2141 Y0.2255 Z1.0621 I0.2773 J-0.1817 F354.
X3.2645 Y0.2719 I0.2485 J-0.2195
X3.2924 Y0.2817 I0.0299 J-0.0401
G1 X3.6102 Y0.2945
G2 X3.6388 Y0.2869 I0.002 J-0.05
X3.6925 Y0.2449 I-0.1761 J-0.2809
X3.7243 Y0.2096 Z1.0609 I-0.2299 J-0.2389
X3.741 Y0.1861 Z1.0602 I-0.2617 J-0.2035 F135.
G1 X3.7417 Y0.1853 Z1.0601
X3.7427 Y0.1849
X3.9369 Y0.1329
G3 X4.1328 Y0.1131 I0.2406 J1.4004
G1 X4.185 Y0.1089
G2 X4.4141 Y-0.0066 I-0.0474 J-0.3792
X4.5229 Y-0.1836 I-0.3665 J-0.3471
X4.5787 Y-0.4611 I-0.962 J-0.3381
G1 X4.5831 Y-0.475
G2 X4.637 Y-0.6081 I-1.356 J-0.6266
G1 X4.6455 Y-0.6389
X4.6461 Y-0.64
X4.6471 Y-0.6407 Z1.0602
G2 X4.672 Y-0.6544 Z1.0609 I-0.1549 J-0.3111
X4.7109 Y-0.6818 Z1.0621 I-0.1799 J-0.2974 F354.
X4.764 Y-0.7353 I-0.2188 J-0.27
X4.7749 Y-0.7645 I-0.0391 J-0.0311
G1 X4.7884 Y-1.1168
G2 X4.7798 Y-1.1468 I-0.05 J-0.0019
X4.731 Y-1.2042 I-0.2877 J0.195
X4.6944 Y-1.2345 Z1.0609 I-0.2389 J0.2524
X4.6705 Y-1.2501 Z1.0602 I-0.2022 J0.2827 F135.
G1 X4.6696 Y-1.2509 Z1.0601
X4.6691 Y-1.2519
G2 X4.6248 Y-1.4075 I-1.1221 J0.2359
G3 X4.5976 Y-1.6456 I1.2435 J-0.2622
G1 X4.5913 Y-1.6975
G2 X4.4654 Y-1.9212 I-0.3795 J0.0664
X4.2847 Y-2.0239 I-0.3429 J0.3931
X4.0144 Y-2.075 I-0.3396 J1.0561
G3 X3.9424 Y-2.1054 I0.2622 J-0.7196
G1 X3.8328 Y-2.1419
X3.8319 Y-2.1423
X3.8313 Y-2.143 Z1.0602
G2 X3.8142 Y-2.1665 Z1.0609 I-0.2977 J0.1988
X3.7823 Y-2.2017 Z1.0621 I-0.2807 J0.2222 F354.
X3.692 Y-2.2653 I-0.2488 J0.2574
X3.6716 Y-2.2704 I-0.0221 J0.0448
G1 X3.4178 Y-2.279
G2 X3.3971 Y-2.2752 I-0.0017 J0.05
X3.3025 Y-2.2178 I0.1365 J0.3309
X3.2683 Y-2.1847 Z1.0609 I0.231 J0.2735
X3.2499 Y-2.1626 Z1.0602 I0.2652 J0.2404 F135.
G1 X3.2491 Y-2.1619 Z1.0601
X3.2481 Y-2.1615
G2 X3.1283 Y-2.1288 I0.1096 J0.6367
G3 X2.9123 Y-2.0955 I-0.2435 J-0.8637
X2.3895 Y-2.0883 I-0.391 J-9.3624
G1 X2.2326 Y-2.0875
X1.5528
X1.1345
X0.4547
X0.4025 Y-2.0863
G2 X0.1255 Y-1.9561 I0.0186 J0.3991
X0.0026 Y-1.728 I0.4165 J0.3716
X-0.0429 Y-1.4183 I1.2689 J0.3447
X-0.0516 Y-0.8433 I10.0571 J0.4391
X-0.0519 Y-0.4249 I24.3322 J0.229
X0.0011 Y-0.2246 I0.4303 J-0.0067
X0.1442 Y-0.0745 I0.3821 J-0.2211
X0.3864 Y0.0198 I0.3619 J-0.5715
X0.7504 Y0.0526 I0.3609 J-1.9667
X1.3779 Y0.0574 I0.4846 J-22.1166
G1 X1.7962 Y0.0575
X2.8844
G3 X2.9632 Y0.0829 I-0.0024 J0.1424
G1 X2.9933 Y0.0971
X3.0083 Y0.1035
X3.0417 Y0.117
X3.0425 Y0.1175
X3.0431 Y0.1183 Z1.0602
G2 X3.0583 Y0.1429 Z1.0609 I0.427 J-0.2461
X3.0864 Y0.1814 Z1.0621 I0.4118 J-0.2708 F354.
X3.1872 Y0.2757 I0.3838 J-0.3093
X3.214 Y0.2847 I0.0287 J-0.0409
G1 X3.6947 Y0.3028
G2 X3.7221 Y0.2958 I0.0019 J-0.05
X3.8296 Y0.2094 I-0.2519 J-0.4237
X3.8605 Y0.1732 Z1.0609 I-0.3594 J-0.3373
X3.8776 Y0.1496 Z1.0601 I-0.3903 J-0.3011 F135.
G1 X3.8782 Y0.149
X3.8789 Y0.1485
G3 X4.0206 Y0.094 I0.9335 J2.2173
G1 X4.042 Y0.0892
X4.093 Y0.0778
G2 X4.2858 Y0.0004 I-0.0843 J-0.4891
X4.4489 Y-0.2002 I-0.2897 J-0.4021
G1 X4.4692 Y-0.2483
X4.4858 Y-0.2979
G3 X4.5222 Y-0.3646 I0.2794 J0.1092
G2 X4.5882 Y-0.4885 I-0.6453 J-0.4239
G1 Y-0.4886
G3 X4.6092 Y-0.5105 Z1.0609 I0.0449 J0.0219
X4.655 Y-0.5117 Z1.0621 I0.024 J0.0439 F354.
X4.6776 Y-0.4437 I-0.0218 J0.045
G1 X4.522 Y-0.0647
X4.4454 Y0.0353
X4.3721 Y0.0984
X4.3036 Y0.1401
X4.0274 Y0.2231
G3 X3.9468 Y0.1714 I-0.0187 J-0.0594
X3.9587 Y0.1265 Z1.0609 I0.0618 J-0.0077
X3.9769 Y0.1101 Z1.0603 I0.05 J0.0372 F135.
G1 X3.9825 Y0.1072 Z1.0601
G2 X4.0574 Y0.0711 I-0.191 J-0.4929
G1 X4.1323 Y0.0289
G2 X4.275 Y-0.0746 I-0.3171 J-0.5874
G1 X4.2793 Y-0.0774 Z1.0602
X4.2839 Y-0.0798 Z1.0604
X4.2887 Y-0.0816 Z1.0605
X4.2937 Y-0.083 Z1.0606
X4.2988 Y-0.0838 Z1.0608
X4.3039 Y-0.0842 Z1.0609
G3 X4.345 Y-0.0638 Z1.0621 I0.0008 J0.05 F354.
X4.3343 Y0.0061 I-0.0403 J0.0296
G1 X4.205 Y0.1012
G3 X4.1348 Y0.0901 I-0.0296 J-0.0403
X4.1281 Y0.0448 Z1.0609 I0.0406 J-0.0292
X4.1462 Y0.0203 Z1.0601 I0.0473 J0.0162 F135.
G2 X4.287 Y-0.0844 I-0.8612 J-1.305
X4.4022 Y-0.1995 I-1.1817 J-1.2982
X4.4997 Y-0.3272 I-1.1491 J-0.9779
G1 X4.5001 Y-0.328
X4.5008 Y-0.3287 Z1.0602
G2 X4.5277 Y-0.3395 Z1.0609 I-0.2064 J-0.5568
X4.5706 Y-0.3599 Z1.0621 I-0.2333 J-0.5461 F354.
X4.7167 Y-0.4681 I-0.2763 J-0.5256
X4.7307 Y-0.4968 I-0.0356 J-0.0351
G1 X4.8162 Y-1.1487
G2 X4.81 Y-1.18 I-0.0496 J-0.0065
X4.6969 Y-1.3221 I-0.5156 J0.2945
X4.6606 Y-1.3529 Z1.0609 I-0.4025 J0.4366
X4.6372 Y-1.3703 Z1.0601 I-0.3662 J0.4674 F135.
G1 X4.6366 Y-1.3709
X4.6362 Y-1.3717
G3 X4.5809 Y-1.5195 I4.8941 J-1.9137
G1 X4.5756 Y-1.5401
X4.5635 Y-1.5909
G2 X4.4844 Y-1.783 I-0.4884 J0.0887
X4.2828 Y-1.9449 I-0.401 J0.2931
G1 X4.2346 Y-1.965
X4.1849 Y-1.9814
X4.1719 Y-1.9856
G3 X4.1026 Y-2.0277 I0.1655 J-0.3512
G2 X3.9862 Y-2.0856 I-0.903 J1.667
G1 X3.9854 Y-2.0862
X3.9849 Y-2.087 Z1.0602
G2 X3.9713 Y-2.1126 Z1.0609 I-0.4396 J0.2171
X3.9458 Y-2.1527 Z1.0621 I-0.426 J0.2427 F354.
X3.8519 Y-2.2524 I-0.4005 J0.2829
X3.8232 Y-2.2633 I-0.0313 J0.039
G1 X3.3084 Y-2.2894
G2 X3.2787 Y-2.2814 I-0.0025 J0.0499
X3.1753 Y-2.1916 I0.2665 J0.4116
X3.1458 Y-2.1542 Z1.0609 I0.37 J0.3217
X3.1298 Y-2.1302 Z1.0602 I0.3994 J0.2844 F135.
G1 X3.1291 Y-2.1294 Z1.0601
X3.1282 Y-2.1289
G2 X3.0031 Y-2.0824 I0.365 J1.1726
G3 X2.8041 Y-2.0481 I-0.2381 J-0.7881
X2.3337 Y-2.0385 I-0.3692 J-6.5245
G1 X2.2291 Y-2.0376
X2.0722 Y-2.0375
X1.5493
X0.5558
X0.5035 Y-2.0367
G2 X0.3017 Y-1.9882 I0.0043 J0.4619
X0.1176 Y-1.8075 I0.2166 J0.4048
X0.0322 Y-1.5617 I0.6437 J0.3612
X0.0022 Y-1.1974 I2.2006 J0.3646
X-0.0017 Y-0.5176 I22.0504 J0.4666
X0.0411 Y-0.3144 I0.4886 J0.0032
X0.2149 Y-0.1236 I0.4109 J-0.1998
X0.4581 Y-0.0317 I0.3682 J-0.6063
X0.8221 Y0.002 I0.3693 J-2.0076
X1.3972 Y0.0074 I0.4618 J-18.6552
G1 X1.6064 Y0.0075
X2.7568
G3 X2.8335 Y0.013 I0.0191 J0.2724
X2.879 Y0.0354 I-0.0645 J0.188
G1 X2.9482 Y0.0742
G3 X2.9681 Y0.0972 I-0.026 J0.0427
G1 X2.9703 Y0.1024 Z1.0604
X2.9725 Y0.1074 Z1.0614
X2.9746 Y0.1124 Z1.0629
X2.9766 Y0.1172 Z1.0651
X2.9786 Y0.1217 Z1.0678
X2.9804 Y0.1259 Z1.071
X2.982 Y0.1297 Z1.0747
X2.9835 Y0.1332 Z1.0789
X2.9848 Y0.1361 Z1.0835
X2.9858 Y0.1386 Z1.0884
X2.9867 Y0.1406 Z1.0936
X2.9873 Y0.142 Z1.099
X2.9876 Y0.1429 Z1.1045
X2.9878 Y0.1432 Z1.1101
G0 Z1.98
X3.0814 Y-2.1551
Z1.1601
G1 Z1.1101 F135.
X3.0812 Y-2.1549 Z1.1045
X3.0807 Y-2.1541 Z1.099
X3.0798 Y-2.1528 Z1.0936
X3.0786 Y-2.1511 Z1.0884
X3.0771 Y-2.1488 Z1.0835
X3.0752 Y-2.1461 Z1.0789
X3.0731 Y-2.143 Z1.0747
X3.0708 Y-2.1396 Z1.071
X3.0682 Y-2.1358 Z1.0678
X3.0655 Y-2.1317 Z1.0651
X3.0625 Y-2.1275 Z1.0629
X3.0595 Y-2.123 Z1.0614
X3.0564 Y-2.1184 Z1.0604
X3.0533 Y-2.1138 Z1.0601
G3 X3.0301 Y-2.0934 I-0.0515 J-0.035
G1 X3.0232 Y-2.0901
X2.9401 Y-2.0501
G3 X2.764 Y-2.0062 I-0.2245 J-0.5246
X2.4035 Y-1.9896 I-0.3158 J-2.9362
X1.9329 Y-1.9876 I-0.3567 J-28.3354
G1 X1.4623 Y-1.9875
X0.6779
G2 X0.4696 Y-1.9737 I-0.0398 J0.9787
X0.2114 Y-1.8064 I0.1005 J0.438
X0.101 Y-1.5714 I0.5162 J0.3859
X0.0557 Y-1.209 I1.5787 J0.3816
X0.049 Y-0.5816 I12.2697 J0.4443
X0.0927 Y-0.3784 I0.5148 J-0.0046
X0.2634 Y-0.1846 I0.424 J-0.2014
X0.5046 Y-0.0875 I0.3806 J-0.597
X0.868 Y-0.0493 I0.3785 J-1.8532
X1.5477 Y-0.0432 I0.5003 J-17.8059
G1 X1.7046 Y-0.0425
X2.6459
G3 X2.7519 Y-0.0386 I0.0293 J0.6534
X2.8307 Y0.0057 I-0.053 J0.1862
G1 X2.8435 Y0.0143
X2.8533 Y0.0203
X2.8626 Y0.0258
G3 X2.8821 Y0.0491 I-0.0267 J0.0422
G1 X2.8843 Y0.0543 Z1.0604
X2.8863 Y0.0594 Z1.0614
X2.8884 Y0.0644 Z1.0629
X2.8903 Y0.0692 Z1.0651
X2.8922 Y0.0737 Z1.0678
X2.8939 Y0.0779 Z1.071
X2.8955 Y0.0818 Z1.0747
X2.8969 Y0.0853 Z1.0789
X2.8982 Y0.0883 Z1.0835
X2.8992 Y0.0908 Z1.0884
X2.9 Y0.0928 Z1.0936
X2.9006 Y0.0942 Z1.099
X2.9009 Y0.0951 Z1.1045
X2.9011 Y0.0954 Z1.1101
G0 Z1.98
X2.9906 Y-2.1126
Z1.1601
G1 Z1.1101 F135.
X2.9904 Y-2.1124 Z1.1045
X2.9899 Y-2.1116 Z1.099
X2.9891 Y-2.1103 Z1.0936
X2.9879 Y-2.1085 Z1.0884
X2.9864 Y-2.1062 Z1.0835
X2.9846 Y-2.1035 Z1.0789
X2.9825 Y-2.1004 Z1.0747
X2.9802 Y-2.0969 Z1.071
X2.9777 Y-2.0931 Z1.0678
X2.975 Y-2.089 Z1.0651
X2.9722 Y-2.0847 Z1.0629
X2.9692 Y-2.0802 Z1.0614
X2.9661 Y-2.0756 Z1.0604
X2.9631 Y-2.0709 Z1.0601
G3 X2.9401 Y-2.0501 I-0.052 J-0.0343
G1 X2.9301 Y-2.0452
G3 X2.8481 Y-1.9988 I-0.7128 J-1.1631
X2.6161 Y-1.9512 I-0.2671 J-0.7125
X2.2504 Y-1.9391 I-0.3208 J-4.1545
X1.8321 Y-1.9376 I-0.324 J-31.1553
G1 X1.466 Y-1.9375
X0.7862
G2 X0.5773 Y-1.9303 I-0.0453 J1.7302
X0.2679 Y-1.7524 I0.06 J0.4622
X0.1553 Y-1.5183 I0.5224 J0.3954
X0.1068 Y-1.1563 I1.5388 J0.3903
X0.0999 Y-0.6335 I7.9089 J0.3661
X0.1483 Y-0.4313 I0.5342 J-0.0208
X0.3204 Y-0.2385 I0.4331 J-0.2135
X0.6124 Y-0.13 I0.4065 J-0.6467
X0.9767 Y-0.0983 I0.3755 J-2.2075
X1.6564 Y-0.0926 I0.5338 J-23.1048
G1 X1.9702 Y-0.0925
X2.5454
G3 X2.6908 Y-0.0872 I0.0384 J0.9423
G1 X2.7072 Y-0.0812
X2.7228 Y-0.0738
X2.7373 Y-0.0644
X2.7704 Y-0.0395
X2.8028 Y-0.0154
G3 X2.8196 Y0.01 I-0.0313 J0.039
G1 X2.8211 Y0.0154 Z1.0604
X2.8227 Y0.0207 Z1.0614
X2.8241 Y0.0259 Z1.0629
X2.8255 Y0.0308 Z1.0651
X2.8269 Y0.0356 Z1.0678
X2.8281 Y0.04 Z1.071
X2.8293 Y0.044 Z1.0747
X2.8303 Y0.0476 Z1.0789
X2.8312 Y0.0507 Z1.0835
X2.8319 Y0.0533 Z1.0884
X2.8325 Y0.0554 Z1.0936
X2.8329 Y0.0569 Z1.099
X2.8332 Y0.0578 Z1.1045
X2.8333 Y0.0581 Z1.1101
G0 Z1.98
X2.9212 Y-2.0837
Z1.1601
G1 Z1.1101 F135.
X2.9211 Y-2.0834 Z1.1045
X2.9206 Y-2.0825 Z1.099
X2.92 Y-2.0811 Z1.0936
X2.919 Y-2.0792 Z1.0884
X2.9178 Y-2.0768 Z1.0835
X2.9164 Y-2.0739 Z1.0789
X2.9147 Y-2.0705 Z1.0747
X2.9129 Y-2.0668 Z1.071
X2.9109 Y-2.0627 Z1.0678
X2.9087 Y-2.0583 Z1.0651
X2.9064 Y-2.0536 Z1.0629
X2.904 Y-2.0488 Z1.0614
X2.9016 Y-2.0438 Z1.0604
X2.8991 Y-2.0388 Z1.0601
G3 X2.879 Y-2.0153 I-0.0559 J-0.0275
G1 X2.8135 Y-1.9727
G3 X2.6238 Y-1.9133 I-0.235 J-0.4178
X2.3751 Y-1.8928 I-0.2623 J-1.6669
X1.7476 Y-1.8876 I-0.4935 J-21.5546
G1 X1.4339 Y-1.8875
X0.8587
G2 X0.6497 Y-1.8808 I-0.0426 J1.931
X0.4097 Y-1.7848 I0.0549 J0.4851
X0.2512 Y-1.5798 I0.3398 J0.4265
X0.1724 Y-1.2775 I0.8934 J0.3944
X0.1502 Y-0.8077 I3.911 J0.4199
X0.1635 Y-0.5994 I0.9215 J0.0461
X0.3618 Y-0.3021 I0.4688 J-0.0979
X0.6506 Y-0.1856 I0.4154 J-0.6135
X1.0143 Y-0.1496 I0.3835 J-2.0169
X1.7464 Y-0.1426 I0.5735 J-21.7651
G1 X2.0601 Y-0.1425
X2.4784
G3 X2.6392 Y-0.1348 I0.0376 J0.892
X2.7131 Y-0.0843 I-0.056 J0.1615
G1 X2.7236 Y-0.0752
X2.7305 Y-0.0695
X2.7373 Y-0.0644
G3 X2.754 Y-0.039 I-0.0314 J0.0389
G1 X2.7555 Y-0.0336 Z1.0604
X2.757 Y-0.0283 Z1.0614
X2.7585 Y-0.0231 Z1.0629
X2.7599 Y-0.0181 Z1.0651
X2.7612 Y-0.0134 Z1.0678
X2.7624 Y-0.009 Z1.071
X2.7636 Y-0.0049 Z1.0747
X2.7646 Y-0.0014 Z1.0789
X2.7655 Y0.0018 Z1.0835
X2.7662 Y0.0044 Z1.0884
X2.7668 Y0.0065 Z1.0936
X2.7672 Y0.0079 Z1.099
X2.7675 Y0.0088 Z1.1045
Y0.0092 Z1.1101
G0 Z1.98
X2.8557 Y-2.041
Z1.1601
G1 Z1.1101 F135.
X2.8556 Y-2.0407 Z1.1045
X2.8551 Y-2.0399 Z1.099
X2.8545 Y-2.0385 Z1.0936
X2.8535 Y-2.0366 Z1.0884
X2.8523 Y-2.0341 Z1.0835
X2.8509 Y-2.0312 Z1.0789
X2.8492 Y-2.0279 Z1.0747
X2.8474 Y-2.0241 Z1.071
X2.8454 Y-2.02 Z1.0678
X2.8432 Y-2.0156 Z1.0651
X2.8409 Y-2.011 Z1.0629
X2.8385 Y-2.0061 Z1.0614
X2.8361 Y-2.0012 Z1.0604
X2.8336 Y-1.9962 Z1.0601
G3 X2.8135 Y-1.9727 I-0.0559 J-0.0275
G1 X2.81 Y-1.9704
G3 X2.72 Y-1.9094 I-0.4725 J-0.6004
X2.5047 Y-1.8574 I-0.2798 J-0.6867
X2.1392 Y-1.8401 I-0.3359 J-3.2267
X1.6163 Y-1.8376 I-0.4092 J-31.0313
G1 X1.2503 Y-1.8375
X0.9365
G2 X0.6757 Y-1.825 I-0.0522 J1.6439
X0.3417 Y-1.5937 I0.0902 J0.4868
X0.236 Y-1.3004 I0.6835 J0.4121
X0.2039 Y-0.9362 I2.2698 J0.3834
X0.2117 Y-0.6752 I1.3431 J0.0905
X0.4403 Y-0.3395 I0.4858 J-0.0852
X0.733 Y-0.2322 I0.4139 J-0.6756
X1.0971 Y-0.1992 I0.3854 J-2.2297
X1.7245 Y-0.1927 I0.5135 J-19.2684
G1 X1.9337 Y-0.1926
X2.4043 Y-0.1925
G3 X2.5774 Y-0.1853 I0.0386 J1.1618
X2.6449 Y-0.1504 I-0.0258 J0.1325
G1 X2.694 Y-0.1027
G3 X2.7077 Y-0.0755 I-0.0358 J0.0349
G1 X2.7085 Y-0.07 Z1.0604
X2.7094 Y-0.0645 Z1.0614
X2.7102 Y-0.0592 Z1.0629
X2.711 Y-0.0541 Z1.0651
X2.7118 Y-0.0492 Z1.0678
X2.7125 Y-0.0447 Z1.071
X2.7131 Y-0.0406 Z1.0747
X2.7137 Y-0.0369 Z1.0789
X2.7142 Y-0.0337 Z1.0835
X2.7146 Y-0.031 Z1.0884
X2.7149 Y-0.0289 Z1.0936
X2.7152 Y-0.0273 Z1.099
X2.7153 Y-0.0264 Z1.1045
X2.7154 Y-0.0261 Z1.1101
G0 Z1.98
X2.7989 Y-2.0116
Z1.1601
G1 Z1.1101 F135.
X2.7988 Y-2.0113 Z1.1045
X2.7985 Y-2.0104 Z1.099
X2.798 Y-2.0089 Z1.0936
X2.7973 Y-2.0069 Z1.0884
X2.7965 Y-2.0043 Z1.0835
X2.7954 Y-2.0012 Z1.0789
X2.7942 Y-1.9977 Z1.0747
X2.7928 Y-1.9937 Z1.071
X2.7914 Y-1.9894 Z1.0678
X2.7898 Y-1.9848 Z1.0651
X2.7881 Y-1.9799 Z1.0629
X2.7864 Y-1.9748 Z1.0614
X2.7846 Y-1.9695 Z1.0604
X2.7828 Y-1.9642 Z1.0601
G3 X2.7658 Y-1.9384 I-0.059 J-0.0202
G1 X2.7155 Y-1.8956
G3 X2.571 Y-1.8324 I-0.2133 J-0.2909
X2.2832 Y-1.7961 I-0.3062 J-1.2686
X1.7081 Y-1.7884 I-0.4442 J-11.7102
G1 X1.5512 Y-1.7876
X1.2375 Y-1.7875
X1.0283
G2 X0.7671 Y-1.7793 I-0.0546 J2.4294
X0.5263 Y-1.6844 I0.0639 J0.5153
X0.3415 Y-1.4356 I0.3483 J0.4517
X0.2709 Y-1.131 I1.0161 J0.3962
X0.2594 Y-0.7657 I1.9309 J0.2435
X0.3236 Y-0.5679 I0.5318 J-0.0632
X0.5523 Y-0.3596 I0.4573 J-0.2724
X0.8523 Y-0.2731 I0.4064 J-0.846
X1.2172 Y-0.2477 I0.3819 J-2.853
X1.897 Y-0.2426 I0.5432 J-27.3029
G1 X2.3153 Y-0.2425
G3 X2.53 Y-0.2342 I0.0491 J1.5146
X2.6183 Y-0.1756 I-0.0328 J0.1452
G1 X2.6357 Y-0.1593
X2.6449 Y-0.1503
G3 X2.6583 Y-0.123 I-0.0361 J0.0346
G1 X2.6591 Y-0.1175 Z1.0604
X2.6599 Y-0.112 Z1.0614
X2.6607 Y-0.1067 Z1.0629
X2.6615 Y-0.1016 Z1.0651
X2.6622 Y-0.0967 Z1.0678
X2.6628 Y-0.0922 Z1.071
X2.6635 Y-0.088 Z1.0747
X2.664 Y-0.0844 Z1.0789
X2.6645 Y-0.0811 Z1.0835
X2.6649 Y-0.0785 Z1.0884
X2.6652 Y-0.0763 Z1.0936
X2.6654 Y-0.0748 Z1.099
X2.6656 Y-0.0739 Z1.1045
Y-0.0736 Z1.1101
G0 Z1.98
X2.7486 Y-1.9687
Z1.1601
G1 Z1.1101 F135.
X2.7485 Y-1.9684 Z1.1045
X2.7482 Y-1.9676 Z1.099
X2.7477 Y-1.9661 Z1.0936
X2.747 Y-1.9641 Z1.0884
X2.7461 Y-1.9615 Z1.0835
X2.7451 Y-1.9584 Z1.0789
X2.7439 Y-1.9549 Z1.0747
X2.7425 Y-1.9509 Z1.071
X2.741 Y-1.9466 Z1.0678
X2.7395 Y-1.942 Z1.0651
X2.7378 Y-1.9371 Z1.0629
X2.736 Y-1.932 Z1.0614
X2.7343 Y-1.9267 Z1.0604
X2.7324 Y-1.9214 Z1.0601
G3 X2.7155 Y-1.8956 I-0.059 J-0.0201
G1 X2.6786 Y-1.8641
G3 X2.544 Y-1.7929 I-0.2033 J-0.2215
X2.2944 Y-1.7511 I-0.2936 J-0.986
X1.824 Y-1.7389 I-0.3999 J-6.3777
X1.458 Y-1.7376 I-0.2781 J-25.8923
G1 X1.0919 Y-1.7375
G2 X0.8307 Y-1.7294 I-0.0529 J2.5266
X0.5883 Y-1.6382 I0.0616 J0.5311
X0.3986 Y-1.3931 I0.3396 J0.459
X0.3182 Y-1.0377 I1.0443 J0.423
X0.3208 Y-0.7771 I0.9328 J0.1211
X0.5093 Y-0.4728 I0.4856 J-0.0904
X0.7936 Y-0.3458 I0.432 J-0.585
X1.1564 Y-0.3023 I0.3999 J-1.8025
X1.7837 Y-0.2935 I0.4915 J-12.7086
G1 X1.9406 Y-0.2926
X2.2544 Y-0.2925
G3 X2.4807 Y-0.2835 I0.0484 J1.6418
X2.5711 Y-0.2338 I-0.0208 J0.1447
G1 X2.5999 Y-0.1972
X2.6037 Y-0.1925
X2.6041 Y-0.192
G3 X2.6155 Y-0.1638 I-0.0385 J0.032
G1 X2.616 Y-0.1582 Z1.0604
X2.6164 Y-0.1527 Z1.0614
X2.6168 Y-0.1473 Z1.0629
X2.6172 Y-0.1422 Z1.0651
X2.6175 Y-0.1373 Z1.0678
X2.6179 Y-0.1327 Z1.071
X2.6182 Y-0.1285 Z1.0747
X2.6185 Y-0.1248 Z1.0789
X2.6187 Y-0.1216 Z1.0835
X2.6189 Y-0.1189 Z1.0884
X2.6191 Y-0.1167 Z1.0936
X2.6192 Y-0.1152 Z1.099
X2.6193 Y-0.1142 Z1.1045
Y-0.1139 Z1.1101
G0 Z1.98
X2.7002 Y-1.9314
Z1.1601
G1 Z1.1101 F135.
X2.7001 Y-1.9311 Z1.1045
X2.6999 Y-1.9302 Z1.099
X2.6994 Y-1.9288 Z1.0936
X2.6988 Y-1.9267 Z1.0884
X2.6981 Y-1.9241 Z1.0835
X2.6972 Y-1.921 Z1.0789
X2.6962 Y-1.9174 Z1.0747
X2.695 Y-1.9134 Z1.071
X2.6937 Y-1.909 Z1.0678
X2.6924 Y-1.9042 Z1.0651
X2.691 Y-1.8993 Z1.0629
X2.6895 Y-1.8941 Z1.0614
X2.6879 Y-1.8888 Z1.0604
X2.6864 Y-1.8834 Z1.0601
G3 X2.6707 Y-1.8567 I-0.0599 J-0.0172
G1 X2.6636 Y-1.85
G3 X2.6047 Y-1.794 I-0.2767 J-0.2318
X2.3927 Y-1.7212 I-0.2805 J-0.472
X2.0939 Y-1.6942 I-0.3146 J-1.8125
X1.4141 Y-1.6876 I-0.5412 J-20.8416
G1 X1.1527 Y-1.6875
G2 X0.8915 Y-1.6794 I-0.0511 J2.5703
X0.6481 Y-1.5906 I0.0602 J0.543
X0.4545 Y-1.3486 I0.3333 J0.465
X0.3705 Y-0.8894 I0.9738 J0.4153
X0.4836 Y-0.6023 I0.4911 J-0.0275
X0.7413 Y-0.4295 I0.4522 J-0.3959
X1.0994 Y-0.36 I0.42 J-1.2072
X1.5696 Y-0.3446 I0.422 J-5.6937
X1.9357 Y-0.3427 I0.3021 J-22.8699
G1 X2.1971 Y-0.3425
G3 X2.4381 Y-0.3325 I0.048 J1.7527
X2.5235 Y-0.2926 I-0.0231 J0.1611
G1 X2.5346 Y-0.2794
X2.5438 Y-0.2675
X2.5708 Y-0.2336
G3 X2.5807 Y-0.2048 I-0.0402 J0.0298
G1 X2.5808 Y-0.1992 Z1.0604
X2.5809 Y-0.1937 Z1.0614
X2.581 Y-0.1883 Z1.0629
X2.5811 Y-0.1831 Z1.0651
X2.5812 Y-0.1782 Z1.0678
X2.5813 Y-0.1736 Z1.071
X2.5814 Y-0.1694 Z1.0747
X2.5815 Y-0.1657 Z1.0789
Y-0.1625 Z1.0835
X2.5816 Y-0.1597 Z1.0884
Y-0.1576 Z1.0936
Y-0.156 Z1.099
X2.5817 Y-0.1551 Z1.1045
Y-0.1548 Z1.1101
G0 Z1.98
X2.6595 Y-1.8975
Z1.1601
G1 Z1.1101 F135.
X2.6594 Y-1.8972 Z1.1045
X2.6593 Y-1.8963 Z1.099
X2.6589 Y-1.8948 Z1.0936
X2.6585 Y-1.8927 Z1.0884
X2.658 Y-1.89 Z1.0835
X2.6573 Y-1.8868 Z1.0789
X2.6566 Y-1.8832 Z1.0747
X2.6558 Y-1.8791 Z1.071
X2.6548 Y-1.8746 Z1.0678
X2.6539 Y-1.8698 Z1.0651
X2.6528 Y-1.8647 Z1.0629
X2.6517 Y-1.8594 Z1.0614
X2.6506 Y-1.854 Z1.0604
X2.6495 Y-1.8485 Z1.0601
G3 X2.636 Y-1.8207 I-0.0611 J-0.0124
G1 X2.597 Y-1.7777
G3 X2.4543 Y-1.6998 I-0.2194 J-0.2322
X2.2049 Y-1.6542 I-0.3052 J-0.9648
X1.7346 Y-1.6394 I-0.4113 J-5.5789
G1 X1.0549 Y-1.6365
G2 X0.848 Y-1.6085 I0.0103 J0.8556
X0.5606 Y-1.394 I0.1476 J0.4976
X0.4322 Y-0.9481 I0.6817 J0.4378
X0.6117 Y-0.5849 I0.4749 J-0.0088
X0.8928 Y-0.4513 I0.4351 J-0.5526
X1.255 Y-0.4038 I0.4065 J-1.6962
X1.9346 Y-0.3937 I0.5247 J-12.4414
G3 X2.3361 Y-0.3889 I0.0436 J13.0679
X2.4515 Y-0.3668 I-0.0302 J0.4695
X2.5136 Y-0.3065 I-0.0658 J0.13
G1 X2.5346 Y-0.2794
G3 X2.5438 Y-0.2504 I-0.0408 J0.029
G1 Y-0.2448 Z1.0604
Y-0.2392 Z1.0614
Y-0.2338 Z1.0629
Y-0.2287 Z1.0651
Y-0.2238 Z1.0678
Y-0.2192 Z1.071
Y-0.215 Z1.0747
Y-0.2113 Z1.0789
Y-0.208 Z1.0835
Y-0.2053 Z1.0884
Y-0.2032 Z1.0936
Y-0.2016 Z1.099
Y-0.2007 Z1.1045
Y-0.2004 Z1.1101
G0 Z1.98
X2.6204 Y-1.8545
Z1.1601
G1 Z1.1101 F135.
Y-1.8542 Z1.1045
X2.6202 Y-1.8533 Z1.099
X2.6199 Y-1.8518 Z1.0936
X2.6194 Y-1.8497 Z1.0884
X2.6189 Y-1.847 Z1.0835
X2.6183 Y-1.8438 Z1.0789
X2.6175 Y-1.8402 Z1.0747
X2.6167 Y-1.8361 Z1.071
X2.6158 Y-1.8316 Z1.0678
X2.6148 Y-1.8268 Z1.0651
X2.6138 Y-1.8217 Z1.0629
X2.6127 Y-1.8164 Z1.0614
X2.6116 Y-1.811 Z1.0604
X2.6105 Y-1.8055 Z1.0601
G3 X2.597 Y-1.7777 I-0.0611 J-0.0124
G1 X2.5737 Y-1.7521
G3 X2.4648 Y-1.6724 I-0.192 J-0.1482
X2.2208 Y-1.6122 I-0.3116 J-0.7379
X1.8556 Y-1.5915 I-0.3589 J-3.1121
G1 X1.7092 Y-1.5896
X1.5628 Y-1.5882
X1.4164 Y-1.5873
X1.27 Y-1.587
X1.1235 Y-1.5871
G2 X0.9162 Y-1.5618 I0.0155 J0.9871
X0.594 Y-1.3121 I0.1375 J0.5103
X0.5005 Y-0.9633 I0.5471 J0.3335
X0.6613 Y-0.645 I0.4559 J-0.0305
X0.889 Y-0.52 I0.4175 J-0.4909
X1.2487 Y-0.4582 I0.4187 J-1.3571
X1.719 Y-0.4444 I0.4237 J-6.4606
G1 X1.8933 Y-0.4435
X2.0676 Y-0.4422
X2.2419 Y-0.4405
G3 X2.4124 Y-0.4172 I-0.0015 J0.6477
X2.48 Y-0.3617 I-0.0486 J0.1279
G1 X2.5028 Y-0.3239
X2.5071 Y-0.317
G3 X2.5136 Y-0.2873 I-0.0433 J0.0251
G1 X2.5131 Y-0.2817 Z1.0604
X2.5126 Y-0.2762 Z1.0614
X2.5121 Y-0.2709 Z1.0629
X2.5116 Y-0.2657 Z1.0651
X2.5111 Y-0.2608 Z1.0678
X2.5107 Y-0.2563 Z1.071
X2.5103 Y-0.2521 Z1.0747
X2.51 Y-0.2484 Z1.0789
X2.5097 Y-0.2452 Z1.0835
X2.5094 Y-0.2425 Z1.0884
X2.5092 Y-0.2403 Z1.0936
X2.5091 Y-0.2388 Z1.099
X2.509 Y-0.2378 Z1.1045
Y-0.2375 Z1.1101
G0 Z1.98
X2.5819 Y-1.8206
Z1.1601
G1 Z1.1101 F135.
Y-1.8203 Z1.1045
X2.5818 Y-1.8194 Z1.099
X2.5816 Y-1.8178 Z1.0936
X2.5814 Y-1.8157 Z1.0884
X2.5811 Y-1.813 Z1.0835
X2.5807 Y-1.8098 Z1.0789
X2.5803 Y-1.8061 Z1.0747
X2.5799 Y-1.8019 Z1.071
X2.5794 Y-1.7973 Z1.0678
X2.5788 Y-1.7925 Z1.0651
X2.5782 Y-1.7873 Z1.0629
X2.5777 Y-1.782 Z1.0614
X2.5771 Y-1.7765 Z1.0604
X2.5764 Y-1.7709 Z1.0601
G3 X2.5655 Y-1.742 I-0.0619 J-0.0068
G1 X2.5438 Y-1.7131
G3 X2.4405 Y-1.6319 I-0.1879 J-0.1327
X2.2237 Y-1.5699 I-0.3014 J-0.6439
X1.8611 Y-1.5431 I-0.3665 J-2.4915
X1.1814 Y-1.5373 I-0.5853 J-28.5643
G2 X0.974 Y-1.5122 I0.0202 J1.0389
X0.6251 Y-1.2192 I0.1347 J0.5147
X0.579 Y-0.9654 I0.4044 J0.2045
X0.6886 Y-0.7323 I0.4209 J-0.0555
X0.9038 Y-0.5878 I0.4184 J-0.3905
X1.2605 Y-0.5124 I0.4241 J-1.1257
X1.7306 Y-0.495 I0.428 J-5.1972
G1 X1.8875 Y-0.4939
X2.0444 Y-0.4924
X2.2012 Y-0.4907
G3 X2.3841 Y-0.4644 I-0.0087 J0.7084
X2.4514 Y-0.4089 I-0.0485 J0.1273
G1 X2.4799 Y-0.3616
G3 X2.486 Y-0.3318 I-0.0436 J0.0244
G1 X2.4854 Y-0.3262 Z1.0604
X2.4848 Y-0.3207 Z1.0614
X2.4842 Y-0.3154 Z1.0629
X2.4836 Y-0.3102 Z1.0651
X2.4831 Y-0.3053 Z1.0678
X2.4826 Y-0.3008 Z1.071
X2.4822 Y-0.2966 Z1.0747
X2.4818 Y-0.2929 Z1.0789
X2.4814 Y-0.2897 Z1.0835
X2.4811 Y-0.287 Z1.0884
X2.4809 Y-0.2849 Z1.0936
X2.4807 Y-0.2833 Z1.099
X2.4806 Y-0.2824 Z1.1045
Y-0.2821 Z1.1101
G0 Z1.98
X2.5509 Y-1.7825
Z1.1601
G1 Z1.1101 F135.
X2.5508 Y-1.7822 Z1.1045
Y-1.7813 Z1.099
X2.5507 Y-1.7797 Z1.0936
X2.5505 Y-1.7776 Z1.0884
X2.5503 Y-1.7749 Z1.0835
X2.55 Y-1.7717 Z1.0789
X2.5497 Y-1.7679 Z1.0747
X2.5494 Y-1.7638 Z1.071
X2.549 Y-1.7592 Z1.0678
X2.5486 Y-1.7543 Z1.0651
X2.5482 Y-1.7491 Z1.0629
X2.5478 Y-1.7438 Z1.0614
X2.5474 Y-1.7383 Z1.0604
X2.5469 Y-1.7327 Z1.0601
G3 X2.5369 Y-1.7034 I-0.0621 J-0.0049
G1 X2.5083 Y-1.6625
G3 X2.3963 Y-1.5808 I-0.2049 J-0.1634
X2.1487 Y-1.5161 I-0.3265 J-0.7426
X1.7837 Y-1.4926 I-0.3697 J-2.8982
X1.2608 Y-1.4873 I-0.5071 J-24.4299
G2 X1.0528 Y-1.4677 I0.0067 J1.1843
X0.7817 Y-1.3187 I0.1069 J0.5156
X0.6764 Y-1.1401 I0.3198 J0.3091
X0.6954 Y-0.8846 I0.3546 J0.1021
X0.8245 Y-0.7225 I0.3976 J-0.1842
X1.0578 Y-0.6081 I0.4001 J-0.5214
X1.4192 Y-0.5554 I0.4096 J-1.5422
X1.9942 Y-0.5435 I0.4999 J-10.2244
G3 X2.2628 Y-0.5327 I0.017 J2.9335
X2.3798 Y-0.5016 I-0.047 J0.4125
X2.4395 Y-0.4286 I-0.0829 J0.1287
G1 X2.4483 Y-0.4137
X2.4513 Y-0.4088
G3 X2.4574 Y-0.379 I-0.0436 J0.0244
G1 X2.4567 Y-0.3735 Z1.0604
X2.4561 Y-0.368 Z1.0614
X2.4556 Y-0.3626 Z1.0629
X2.455 Y-0.3575 Z1.0651
X2.4545 Y-0.3526 Z1.0678
X2.454 Y-0.348 Z1.071
X2.4535 Y-0.3439 Z1.0747
X2.4531 Y-0.3402 Z1.0789
X2.4528 Y-0.3369 Z1.0835
X2.4525 Y-0.3342 Z1.0884
X2.4522 Y-0.3321 Z1.0936
X2.4521 Y-0.3306 Z1.099
X2.452 Y-0.3296 Z1.1045
X2.4519 Y-0.3293 Z1.1101
G0 Z1.98
X2.5218 Y-1.7417
Z1.1601
G1 Z1.1101 F135.
Y-1.7413 Z1.1045
X2.5217 Y-1.7404 Z1.099
X2.5216 Y-1.7389 Z1.0936
X2.5214 Y-1.7367 Z1.0884
X2.5212 Y-1.734 Z1.0835
X2.521 Y-1.7308 Z1.0789
X2.5207 Y-1.727 Z1.0747
X2.5204 Y-1.7229 Z1.071
X2.5201 Y-1.7183 Z1.0678
X2.5197 Y-1.7134 Z1.0651
X2.5194 Y-1.7083 Z1.0629
X2.519 Y-1.7029 Z1.0614
X2.5186 Y-1.6974 Z1.0604
X2.5182 Y-1.6918 Z1.0601
G3 X2.5083 Y-1.6625 I-0.0621 J-0.0045
G1 X2.4934 Y-1.6411
G3 X2.3799 Y-1.5422 I-0.2052 J-0.1209
X2.1668 Y-1.4762 I-0.31 J-0.6235
X1.8083 Y-1.4449 I-0.376 J-2.2367
X1.2854 Y-1.437 I-0.5735 J-20.7073
G2 X1.0782 Y-1.4107 I0.024 J1.0182
X0.8921 Y-1.3183 I0.13 J0.4956
G1 X0.8536 Y-1.2828
X0.8204 Y-1.2424
X0.7937 Y-1.1975
X0.7747 Y-1.1488
X0.7639 Y-1.0976
X0.7617 Y-1.0453
X0.768 Y-0.9934
X0.7822 Y-0.9431
G2 X0.903 Y-0.7751 I0.3743 J-0.1418
X1.1343 Y-0.6574 I0.3894 J-0.4792
X1.4957 Y-0.605 I0.4027 J-1.5038
X2.0707 Y-0.5926 I0.5252 J-11.0117
G3 X2.2908 Y-0.5711 I-0.0154 J1.299
X2.3788 Y-0.5328 I-0.0494 J0.2339
G1 X2.3922 Y-0.5188
G3 X2.4313 Y-0.4446 I-0.2394 J0.1737
G1 X2.4332 Y-0.4398
X2.4346 Y-0.4349
X2.4355 Y-0.4298
X2.4358 Y-0.4247
X2.4357 Y-0.4196
X2.4349 Y-0.4145
X2.4338 Y-0.409 Z1.0604
X2.4327 Y-0.4036 Z1.0614
X2.4316 Y-0.3983 Z1.0629
X2.4306 Y-0.3932 Z1.0651
X2.4296 Y-0.3884 Z1.0678
X2.4286 Y-0.3839 Z1.071
X2.4278 Y-0.3798 Z1.0747
X2.427 Y-0.3762 Z1.0789
X2.4264 Y-0.373 Z1.0835
X2.4258 Y-0.3703 Z1.0884
X2.4254 Y-0.3682 Z1.0936
X2.4251 Y-0.3667 Z1.099
X2.4249 Y-0.3658 Z1.1045
X2.4248 Y-0.3655 Z1.1101
G0 Z1.98
X2.4902 Y-1.7014
Z1.1601
G1 Z1.1101 F135.
Y-1.7011 Z1.1045
Y-1.7001 Z1.099
X2.4901 Y-1.6986 Z1.0936
Y-1.6964 Z1.0884
X2.49 Y-1.6937 Z1.0835
Y-1.6905 Z1.0789
X2.4899 Y-1.6867 Z1.0747
X2.4898 Y-1.6825 Z1.071
X2.4897 Y-1.678 Z1.0678
X2.4896 Y-1.6731 Z1.0651
X2.4894 Y-1.6679 Z1.0629
X2.4893 Y-1.6625 Z1.0614
X2.4892 Y-1.657 Z1.0604
X2.4891 Y-1.6514 Z1.0601
G3 X2.4807 Y-1.6216 I-0.0623 J-0.0014
G1 X2.4688 Y-1.6026
G3 X2.3726 Y-1.508 I-0.1892 J-0.0963
X2.1628 Y-1.4338 I-0.3129 J-0.5508
X1.8136 Y-1.397 I-0.3781 J-1.9148
X1.3431 Y-1.3873 I-0.5216 J-13.8856
G2 X1.1359 Y-1.3616 I0.0241 J1.0403
G1 X1.086 Y-1.3456
X1.0381 Y-1.3247
X0.9935 Y-1.2973
X0.9543 Y-1.2628
X0.9223 Y-1.2214
X0.899 Y-1.1746
X0.8853 Y-1.1241
X0.8814 Y-1.072
X0.8869 Y-1.02
X0.9012 Y-0.9696
X0.9233 Y-0.9223
G2 X1.0688 Y-0.7749 I0.3582 J-0.2084
X1.3127 Y-0.6847 I0.3653 J-0.6126
X1.6766 Y-0.65 I0.3855 J-2.1197
G1 X2.0948 Y-0.6398
G3 X2.3039 Y-0.6082 I-0.0185 J0.8289
X2.3927 Y-0.5327 I-0.0427 J0.1403
G1 X2.4128 Y-0.4863
G3 X2.415 Y-0.4559 I-0.0464 J0.0186
G1 X2.4137 Y-0.4505 Z1.0604
X2.4124 Y-0.4451 Z1.0614
X2.4111 Y-0.4399 Z1.0629
X2.4099 Y-0.4348 Z1.0651
X2.4087 Y-0.4301 Z1.0678
X2.4077 Y-0.4256 Z1.071
X2.4067 Y-0.4216 Z1.0747
X2.4058 Y-0.4179 Z1.0789
X2.4051 Y-0.4148 Z1.0835
X2.4044 Y-0.4121 Z1.0884
X2.4039 Y-0.4101 Z1.0936
X2.4036 Y-0.4086 Z1.099
X2.4033 Y-0.4076 Z1.1045
Y-0.4073 Z1.1101
G0 Z1.98
X2.4639 Y-1.6682
Z1.1601
G1 Z1.1101 F135.
Y-1.6679 Z1.1045
X2.464 Y-1.667 Z1.099
Y-1.6654 Z1.0936
X2.4642 Y-1.6633 Z1.0884
X2.4643 Y-1.6606 Z1.0835
X2.4645 Y-1.6573 Z1.0789
X2.4647 Y-1.6536 Z1.0747
X2.4649 Y-1.6494 Z1.071
X2.4652 Y-1.6449 Z1.0678
X2.4655 Y-1.64 Z1.0651
X2.4657 Y-1.6348 Z1.0629
X2.466 Y-1.6294 Z1.0614
X2.4663 Y-1.6239 Z1.0604
X2.4667 Y-1.6183 Z1.0601
G3 X2.4607 Y-1.588 I-0.0622 J0.0035
G1 X2.4388 Y-1.5462
G3 X2.3323 Y-1.4525 I-0.2055 J-0.1264
X2.1229 Y-1.382 I-0.3139 J-0.5855
X1.7884 Y-1.3453 I-0.3745 J-1.8703
X1.3925 Y-1.3334 I-0.4517 J-8.4655
G2 X1.1859 Y-1.3037 I0.0237 J0.8983
X1.0646 Y-1.1428 I0.0952 J0.1979
G1 X1.0577 Y-1.091
X1.063 Y-1.0389
X1.0781 Y-0.9889
X1.1018 Y-0.9422
X1.1327 Y-0.9
G2 X1.3024 Y-0.7809 I0.3359 J-0.2979
X1.6068 Y-0.7104 I0.3695 J-0.9043
X2.0246 Y-0.6924 I0.47 J-6.0314
G3 X2.2476 Y-0.666 I-0.0358 J1.2607
X2.3491 Y-0.6163 I-0.0489 J0.228
X2.3917 Y-0.5323 I-0.235 J0.1721
G1 X2.3935 Y-0.5275
X2.3947 Y-0.5226
X2.3955 Y-0.5175
X2.3957 Y-0.5124
X2.3954 Y-0.5073
X2.3945 Y-0.5022
X2.3932 Y-0.4967 Z1.0604
X2.3919 Y-0.4914 Z1.0614
X2.3906 Y-0.4861 Z1.0629
X2.3894 Y-0.4811 Z1.0651
X2.3883 Y-0.4763 Z1.0678
X2.3872 Y-0.4719 Z1.071
X2.3862 Y-0.4678 Z1.0747
X2.3854 Y-0.4642 Z1.0789
X2.3846 Y-0.461 Z1.0835
X2.384 Y-0.4584 Z1.0884
X2.3835 Y-0.4563 Z1.0936
X2.3831 Y-0.4548 Z1.099
X2.3829 Y-0.4539 Z1.1045
X2.3828 Y-0.4536 Z1.1101
G0 Z1.98
X2.4421 Y-1.6264
Z1.1601
G1 Z1.1101 F135.
Y-1.6261 Z1.1045
Y-1.6252 Z1.099
X2.4422 Y-1.6236 Z1.0936
X2.4423 Y-1.6215 Z1.0884
X2.4425 Y-1.6188 Z1.0835
X2.4427 Y-1.6155 Z1.0789
X2.4429 Y-1.6118 Z1.0747
X2.4431 Y-1.6076 Z1.071
X2.4434 Y-1.6031 Z1.0678
X2.4436 Y-1.5982 Z1.0651
X2.4439 Y-1.593 Z1.0629
X2.4442 Y-1.5876 Z1.0614
X2.4445 Y-1.5821 Z1.0604
X2.4448 Y-1.5765 Z1.0601
G3 X2.4388 Y-1.5462 I-0.0622 J0.0035
G1 X2.4239 Y-1.5174
G3 X2.3197 Y-1.4118 I-0.2051 J-0.0981
X2.1241 Y-1.3384 I-0.3113 J-0.5323
X1.812 Y-1.296 I-0.3789 J-1.6197
X1.4488 Y-1.28 I-0.4648 J-6.4177
G2 X1.3191 Y-0.9121 I0.0259 J0.216
G1 X1.357 Y-0.8761
G2 X1.5995 Y-0.7832 I0.3446 J-0.537
X1.8591 Y-0.7538 I0.3672 J-2.0771
G3 X2.1142 Y-0.7344 I-1.0151 J15.094
X2.2978 Y-0.6883 I-0.0538 J0.6018
X2.3636 Y-0.6087 I-0.0655 J0.1213
G1 X2.3731 Y-0.5784
X2.375 Y-0.5735
G3 X2.3758 Y-0.5431 I-0.0472 J0.0165
G1 X2.3743 Y-0.5377 Z1.0604
X2.3727 Y-0.5324 Z1.0614
X2.3712 Y-0.5272 Z1.0629
X2.3698 Y-0.5223 Z1.0651
X2.3684 Y-0.5175 Z1.0678
X2.3671 Y-0.5131 Z1.071
X2.366 Y-0.5091 Z1.0747
X2.3649 Y-0.5055 Z1.0789
X2.364 Y-0.5024 Z1.0835
X2.3633 Y-0.4998 Z1.0884
X2.3627 Y-0.4978 Z1.0936
X2.3622 Y-0.4963 Z1.099
X2.362 Y-0.4954 Z1.1045
X2.3619 Y-0.4951 Z1.1101
G0 Z1.98
X2.4187 Y-1.5821
Z1.1601
G1 Z1.1101 F135.
Y-1.5818 Z1.1045
Y-1.5809 Z1.099
X2.4188 Y-1.5793 Z1.0936
X2.419 Y-1.5772 Z1.0884
X2.4191 Y-1.5745 Z1.0835
X2.4193 Y-1.5712 Z1.0789
X2.4196 Y-1.5675 Z1.0747
X2.4198 Y-1.5633 Z1.071
X2.4201 Y-1.5588 Z1.0678
X2.4204 Y-1.5539 Z1.0651
X2.4207 Y-1.5487 Z1.0629
X2.421 Y-1.5433 Z1.0614
X2.4214 Y-1.5378 Z1.0604
X2.4217 Y-1.5322 Z1.0601
G3 X2.4158 Y-1.5019 I-0.0622 J0.0038
G1 X2.4089 Y-1.4883
G3 X2.3136 Y-1.3768 I-0.1956 J-0.0706
X2.1223 Y-1.2964 I-0.3171 J-0.487
X1.7694 Y-1.2454 I-0.42 J-1.6608
G1 X1.7531 Y-1.2437
G3 X1.7239 Y-1.2522 Z1.0609 I-0.0012 J-0.05
X1.7019 Y-1.2924 Z1.0621 I0.028 J-0.0414 F354.
X1.7369 Y-1.3414 I0.05 J-0.0013
G1 X2.3373 Y-1.5309
G3 X2.3694 Y-1.5302 I0.0151 J0.0477
X2.4005 Y-1.4966 Z1.0609 I-0.0171 J0.047
X2.3993 Y-1.4662 Z1.0601 I-0.0482 J0.0134 F135.
G1 X2.3914 Y-1.4465
G3 X2.3131 Y-1.3455 I-0.1804 J-0.0589
X2.1231 Y-1.2559 I-0.3216 J-0.4359
X1.9889 Y-1.2242 I-0.2813 J-0.8914
G1 X1.9837 Y-1.2238 Z1.0602
X1.9786 Y-1.2239 Z1.0604
X1.9735 Y-1.2245 Z1.0605
X1.9685 Y-1.2257 Z1.0606
X1.9636 Y-1.2274 Z1.0608
X1.9589 Y-1.2295 Z1.0609
G3 X1.9328 Y-1.2672 Z1.0621 I0.0234 J-0.0442 F354.
X1.9607 Y-1.3188 I0.0496 J-0.0066
G1 X2.3158 Y-1.4897
G3 X2.3531 Y-1.4922 I0.0217 J0.045
X2.3852 Y-1.4595 Z1.0609 I-0.0157 J0.0475
X2.385 Y-1.4291 Z1.0601 I-0.0478 J0.0148 F135.
G1 X2.3705 Y-1.3897
G3 X2.279 Y-1.2872 I-0.2021 J-0.0884
X2.1498 Y-1.2224 I-0.2798 J-0.3964
G2 X2.0941 Y-0.8553 I0.0844 J0.2006
G1 X2.1354 Y-0.8232
G3 X2.2945 Y-0.7416 I-0.4951 J1.1624
X2.3451 Y-0.6709 I-0.0832 J0.113
G1 X2.3626 Y-0.6116
X2.3635 Y-0.6087
X2.3651 Y-0.596 Z1.0604
G3 X2.3618 Y-0.5783 Z1.0609 I-0.05 J0.
X2.3278 Y-0.5476 Z1.0621 I-0.0467 J-0.0178 F354.
X2.289 Y-0.5534 I-0.0126 J-0.0484
G1 X2.0367 Y-0.7518
X1.9856 Y-0.8179
X1.9593 Y-0.8674
X1.9384 Y-0.9376
X1.9284 Y-0.9975
X1.9321 Y-1.0723
X1.9457 Y-1.1322
X1.9803 Y-1.207
X2.0104 Y-1.2519
X2.274 Y-1.4591
G3 X2.3479 Y-1.4595 I0.0373 J0.0499
X2.3726 Y-1.4202 Z1.0609 I-0.0366 J0.0504
X2.3705 Y-1.3897 Z1.0601 I-0.0613 J0.0111 F135.
G1 X2.3638 Y-1.3717
G3 X2.2888 Y-1.2623 I-0.1955 J-0.0537
G2 X2.2201 Y-1.1386 I0.1523 J0.1656
G1 X2.2125 Y-1.0869
X2.2169 Y-1.0348
X2.2298 Y-0.9841
X2.2492 Y-0.9355
X2.2734 Y-0.8892
X2.3002 Y-0.8449
G3 X2.3215 Y-0.773 I-0.1423 J0.0811
G2 X2.3451 Y-0.6709 I0.5747 J-0.0795
G1 X2.3461 Y-0.6659 Z1.0602
X2.3466 Y-0.6607 Z1.0604
Y-0.6556 Z1.0605
X2.346 Y-0.6505 Z1.0606
X2.3449 Y-0.6454 Z1.0608
X2.3433 Y-0.6405 Z1.0609
G3 X2.3092 Y-0.61 Z1.0621 I-0.0467 J-0.0178 F354.
X2.2508 Y-0.6383 I-0.0126 J-0.0484
G1 X2.1001 Y-0.9621
X2.0882 Y-1.0281
X2.0827 Y-1.0873
X2.0944 Y-1.1771
X2.1091 Y-1.2203
G3 X2.1241 Y-1.2519 I0.095 J0.0257
G1 X2.2454 Y-1.4016
G3 X2.331 Y-1.4144 I0.0495 J0.0379
X2.356 Y-1.3753 Z1.0609 I-0.0362 J0.0507
X2.3542 Y-1.3448 Z1.0601 I-0.0612 J0.0116 F135.
G1 X2.3531 Y-1.3417
G3 X2.3225 Y-1.2547 I-0.4806 J-0.1201
G2 X2.3037 Y-1.059 I0.3618 J0.1335
G1 X2.3025 Y-1.0507
G3 X2.29 Y-1.023 Z1.0609 I-0.0497 J-0.0057
X2.2471 Y-1.0067 Z1.0621 I-0.0372 J-0.0334 F354.
X2.2034 Y-1.0645 I0.0057 J-0.0497
G1 X2.2473 Y-1.3331
G3 X2.3069 Y-1.374 I0.0493 J0.0081
X2.3424 Y-1.3451 Z1.0609 I-0.0102 J0.0489
X2.3456 Y-1.3148 Z1.0601 I-0.0458 J0.0201 F135.
G2 X2.3125 Y-1.1622 I2.0536 J0.5257
X2.3007 Y-1.0274 I5.8653 J0.5818
X2.3069 Y-0.8627 I2.6264 J-0.0173
G1 X2.3095 Y-0.8478
X2.3118 Y-0.8328
X2.3174 Y-0.7984
G3 X2.3118 Y-0.7684 I-0.0496 J0.0063
G1 X2.3091 Y-0.7635 Z1.0604
X2.3065 Y-0.7586 Z1.0614
X2.304 Y-0.7539 Z1.0629
X2.3015 Y-0.7493 Z1.0651
X2.2992 Y-0.745 Z1.0678
X2.297 Y-0.741 Z1.071
X2.2951 Y-0.7373 Z1.0747
X2.2933 Y-0.734 Z1.0789
X2.2918 Y-0.7311 Z1.0835
X2.2905 Y-0.7288 Z1.0884
X2.2895 Y-0.7269 Z1.0936
X2.2887 Y-0.7255 Z1.099
X2.2883 Y-0.7247 Z1.1045
X2.2881 Y-0.7244 Z1.1101
G0 Z1.98
X4.6582 Y-1.427
Z1.1601
G1 Z1.1101 F135.
X4.658 Y-1.4272 Z1.1045
X4.6572 Y-1.4277 Z1.099
X4.6559 Y-1.4286 Z1.0936
X4.6541 Y-1.4298 Z1.0884
X4.6519 Y-1.4313 Z1.0835
X4.6492 Y-1.4331 Z1.0789
X4.6461 Y-1.4352 Z1.0747
X4.6426 Y-1.4375 Z1.071
X4.6388 Y-1.44 Z1.0678
X4.6347 Y-1.4428 Z1.0651
X4.6304 Y-1.4456 Z1.0629
X4.6259 Y-1.4486 Z1.0614
X4.6213 Y-1.4517 Z1.0604
X4.6167 Y-1.4548 Z1.0601
G3 X4.596 Y-1.4778 I0.0346 J-0.0518
G1 X4.5895 Y-1.4914
G2 X4.5017 Y-1.6574 I-4.3047 J2.1721
X4.3899 Y-1.7918 I-0.5228 J0.3214
G1 X4.3868 Y-1.7959 Z1.0602
X4.3841 Y-1.8004 Z1.0604
X4.3819 Y-1.805 Z1.0605
X4.3802 Y-1.8099 Z1.0606
X4.3791 Y-1.815 Z1.0608
X4.3784 Y-1.8201 Z1.0609
G3 X4.3959 Y-1.8624 Z1.0621 I0.0498 J-0.0042 F354.
X4.4682 Y-1.8544 I0.0323 J0.0381
G1 X4.6082 Y-1.6683
G3 X4.5953 Y-1.5962 I-0.0399 J0.0301
X4.5497 Y-1.5918 Z1.0609 I-0.0271 J-0.042
X4.5262 Y-1.6112 Z1.0601 I0.0185 J-0.0464 F135.
G2 X4.4176 Y-1.7627 I-1.2781 J0.8017
X4.3199 Y-1.8659 I-1.9393 J1.7361
X4.2124 Y-1.9555 I-1.3091 J1.4633
G1 X4.1898 Y-1.9704
X4.1773 Y-1.9787
X4.1475 Y-1.9981
G3 X4.1291 Y-2.0223 I0.0287 J-0.0409
G1 X4.1272 Y-2.0276 Z1.0604
X4.1254 Y-2.0328 Z1.0614
X4.1236 Y-2.0379 Z1.0629
X4.1218 Y-2.0427 Z1.0651
X4.1202 Y-2.0474 Z1.0678
X4.1187 Y-2.0517 Z1.071
X4.1173 Y-2.0556 Z1.0747
X4.116 Y-2.0591 Z1.0789
X4.1149 Y-2.0622 Z1.0835
X4.114 Y-2.0648 Z1.0884
X4.1133 Y-2.0668 Z1.0936
X4.1128 Y-2.0682 Z1.099
X4.1125 Y-2.0691 Z1.1045
X4.1124 Y-2.0694 Z1.1101
G0 Z2.08
(2D CONTOUR1 5)
G0 X4.8374 Y-1.0869
Z2.08
Z1.1
G1 X4.8371 Y-1.0868 Z1.0944 F27.
X4.8362 Y-1.0867 Z1.0889
X4.8346 Y-1.0865 Z1.0835
X4.8325 Y-1.0863 Z1.0783
X4.8298 Y-1.086 Z1.0734
X4.8266 Y-1.0857 Z1.0688
X4.8229 Y-1.0853 Z1.0646
X4.8187 Y-1.0848 Z1.0609
X4.8142 Y-1.0843 Z1.0577
X4.8093 Y-1.0838 Z1.055
X4.8041 Y-1.0832 Z1.0528
X4.7988 Y-1.0826 Z1.0513
X4.7933 Y-1.082 Z1.0503
X4.7877 Y-1.0814 Z1.05
X4.738 Y-1.0759
G3 X4.6829 Y-1.1201 I-0.0055 J-0.0497
G2 X2.3171 Y-0.8599 I-1.1829 J0.1301
X3.6401 Y0.1917 I1.1829 J-0.1301
X4.6805 Y-1.14 I-0.1401 J-1.1817
G3 X4.7238 Y-1.1959 I0.0496 J-0.0063
G1 X4.7734 Y-1.2022
X4.779 Y-1.2029 Z1.0503
X4.7844 Y-1.2036 Z1.0513
X4.7898 Y-1.2043 Z1.0528
X4.7949 Y-1.205 Z1.055
X4.7998 Y-1.2056 Z1.0577
X4.8043 Y-1.2061 Z1.0609
X4.8085 Y-1.2067 Z1.0646
X4.8122 Y-1.2071 Z1.0688
X4.8154 Y-1.2076 Z1.0734
X4.8181 Y-1.2079 Z1.0783
X4.8202 Y-1.2082 Z1.0835
X4.8218 Y-1.2084 Z1.0889
X4.8227 Y-1.2085 Z1.0944
X4.823 Z1.1
G0 Z2.08
G53 G0 Z0.
(ADAPTIVE4)
G54
G0 X-0.0562 Y-2.5619
G43 Z2.14 H7
G0 Z1.1601
G1 Z1.1101 F135.
X-0.0561 Y-2.5616 Z1.1045
X-0.0559 Y-2.5607 Z1.099
X-0.0555 Y-2.5592 Z1.0936
X-0.055 Y-2.5571 Z1.0884
X-0.0543 Y-2.5545 Z1.0835
X-0.0535 Y-2.5513 Z1.0789
X-0.0526 Y-2.5477 Z1.0747
X-0.0515 Y-2.5437 Z1.071
X-0.0504 Y-2.5392 Z1.0678
X-0.0492 Y-2.5345 Z1.0651
X-0.0479 Y-2.5295 Z1.0629
X-0.0466 Y-2.5242 Z1.0614
X-0.0452 Y-2.5189 Z1.0604
X-0.0438 Y-2.5135 Z1.0601
G3 X-0.0047 Y-2.2413 I-1.2366 J0.3167
G1 Y-2.238 F121.5
G2 X-0.185 Y-1.8776 I0.2702 J0.3605 F135.
X-0.2024 Y-1.3552 I3.5226 J0.3789
G1 X-0.2044 Y-1.2506
Y-1.0414
X-0.2043 Y-0.3093
Y-0.1001
G2 X0.079 Y0.1682 I0.3231 J-0.0574
X0.442 Y0.2053 I0.307 J-1.2069
X0.8081 Y0.2093 I0.2879 J-9.7827
G1 X1.0173 Y0.2094
X1.4356 Y0.2095
X4.3639 Y0.21
G2 X4.6321 Y-0.0038 I-0.0157 J-0.2949
X4.6901 Y-0.363 I-0.9622 J-0.3395
X4.6945 Y-1.4994 I-36.2988 J-0.7097
G1 X4.6944 Y-1.7085
X4.6943 Y-1.8654
G2 X4.4744 Y-2.1314 I-0.3125 J0.0344
X3.9575 Y-2.1847 I-0.4071 J1.4131
X3.2774 Y-2.1892 I-0.4886 J22.821
G1 X2.7545
X0.2445 Y-2.1891
G2 X-0.0765 Y-1.9662 I-0.009 J0.3295
X-0.148 Y-1.5052 I1.0046 J0.392
X-0.1544 Y-0.9298 I11.1163 J0.4106
G1 X-0.1543 Y-0.3546
G2 X-0.1208 Y-0.098 I0.5106 J0.0638
X0.2687 Y0.1316 I0.4119 J-0.2537
X0.8427 Y0.1565 I0.4251 J-3.1643
G1 X0.8951 Y0.1591
X0.9997 Y0.1593
X1.2088 Y0.1594
X2.2024 Y0.1596
X3.1446 Y0.1598
G2 X3.5629 Y0.2087 I0.3792 J-1.4292
G3 X4.2663 Y0.1608 I0.6019 J3.6547
G2 X4.5894 Y-0.1401 I-0.0512 J-0.3788
X4.6407 Y-0.6117 I-1.4327 J-0.3947
X4.6948 Y-0.8799 I-1.7253 J-0.4875
G1 Y-0.8804
G2 X4.7007 Y-0.9102 I-0.3496 J-0.0847
G1 X4.7024 Y-0.9278 F394.
X4.7036 Y-0.9454
X4.7041 Y-0.963
Y-0.9806
X4.7034 Y-0.9982
G2 X4.6993 Y-1.0286 I-0.3583 J0.033 F135.
G1 X4.6992 Y-1.0288
G2 X4.6531 Y-1.3529 I-2.5442 J0.1967
G3 X4.6438 Y-1.7714 I11.3367 J-0.4613
G2 X4.3344 Y-2.0898 I-0.3951 J0.0745
X3.8421 Y-2.1369 I-0.425 J1.8446
X3.5108 Y-2.1887 I-0.3263 J1.0018
X3.4865 Y-2.1895 I-0.0137 J0.0466
G1 X3.4575 Y-2.1884
X3.4286 Y-2.1868
X3.3996 Y-2.1846
X3.3708 Y-2.1817
X3.3419 Y-2.1784
X3.3132 Y-2.1744
X3.2845 Y-2.1698
X3.256 Y-2.1647
X3.2275 Y-2.159
X3.1992 Y-2.1528
G3 X2.5856 Y-2.1393 I-0.4805 J-7.906
G1 X2.3764 Y-2.1392
X1.2783
X0.3894 Y-2.1391
G2 X-0.0406 Y-1.8336 I-0.0397 J0.3993
X-0.0987 Y-1.3692 I1.2872 J0.3969
X-0.1043 Y-0.7938 I12.8942 J0.4145
G1 Y-0.3755
G2 X0.2161 Y0.046 I0.4109 J0.0202
X0.6808 Y0.1035 I0.3976 J-1.3079
X1.2561 Y0.1094 I0.4199 J-12.8901
G1 X1.6744 Y0.1095
X2.9985 Y0.1097
G3 X3.1573 Y0.161 I-0.1616 J0.7723
G1 X3.1775 Y0.164
X3.1786 Y0.1646
X3.1794 Y0.1655 Z1.0602
G2 X3.1939 Y0.19 Z1.0609 I0.2867 J-0.1544
X3.2229 Y0.2277 Z1.0621 I0.2721 J-0.1788 F394.
X3.2715 Y0.2722 I0.2431 J-0.2166
X3.2995 Y0.2821 I0.0299 J-0.0401
G1 X3.612 Y0.2936
G2 X3.6407 Y0.2859 I0.0019 J-0.05
X3.6923 Y0.2452 I-0.1747 J-0.2747
X3.724 Y0.2098 Z1.0609 I-0.2263 J-0.2341
X3.7405 Y0.1863 Z1.0602 I-0.258 J-0.1986 F135.
G1 X3.7412 Y0.1855 Z1.0601
X3.7422 Y0.185
G3 X4.1793 Y0.1123 I0.4586 J1.4067
G2 X4.5365 Y-0.2238 I-0.0589 J-0.4204
X4.5844 Y-0.4821 I-1.1034 J-0.3383
X4.6479 Y-0.647 I-0.7029 J-0.3654
G1 X4.6485 Y-0.6481
X4.6495 Y-0.6488 Z1.0602
G2 X4.6744 Y-0.6626 Z1.0609 I-0.1493 J-0.2999
X4.7132 Y-0.6901 Z1.0621 I-0.1742 J-0.2861 F394.
X4.7622 Y-0.74 I-0.213 J-0.2586
X4.7731 Y-0.7691 I-0.0391 J-0.0311
G1 X4.7871 Y-1.105
G2 X4.7787 Y-1.1349 I-0.05 J-0.0021
X4.734 Y-1.1886 I-0.2785 J0.1862
X4.6976 Y-1.2193 Z1.0609 I-0.2338 J0.2399
X4.6739 Y-1.2351 Z1.0602 I-0.1975 J0.2706 F135.
G1 X4.673 Y-1.2359 Z1.0601
X4.6725 Y-1.237
G3 X4.6029 Y-1.5349 I2.5584 J-0.7547
G2 X4.5397 Y-1.8379 I-0.5193 J-0.0497
X4.1927 Y-2.0498 I-0.4168 J0.2926
G1 X4.0945 Y-2.0656
X3.9964 Y-2.0816
G2 X3.8304 Y-2.1425 I-0.49 J1.0795
G1 X3.8293 Y-2.1431
X3.8286 Y-2.1441 Z1.0602
G2 X3.8149 Y-2.1691 Z1.0609 I-0.2943 J0.1464
X3.7872 Y-2.2077 Z1.0621 I-0.2806 J0.1713 F394.
X3.7392 Y-2.2548 I-0.2529 J0.21
X3.7097 Y-2.2657 I-0.0312 J0.0391
G1 X3.3767 Y-2.2765
G2 X3.3465 Y-2.2676 I-0.0016 J0.05
X3.2955 Y-2.2237 I0.1877 J0.2699
X3.2654 Y-2.1869 Z1.0609 I0.2388 J0.2259
X3.2501 Y-2.163 Z1.0602 I0.2689 J0.1891 F135.
G1 X3.2493 Y-2.162 Z1.0601
X3.2481 Y-2.1615
G3 X3.0441 Y-2.1086 I-2.3894 J-8.7859
X2.2389 Y-2.0892 I-0.5965 J-8.0636
G1 X1.5591
X0.461 Y-2.0891
G2 X0.0063 Y-1.737 I-0.0258 J0.4363
X-0.0485 Y-1.2717 I1.3922 J0.3999
X-0.0543 Y-0.6964 I13.011 J0.4186
G1 Y-0.4873
G2 X0.3227 Y0.0029 I0.4528 J0.0418
X0.7888 Y0.0538 I0.3989 J-1.4952
X1.3641 Y0.0594 I0.4231 J-13.7963
G1 X1.7301 Y0.0595
X2.8806 Y0.0597
G3 X3.0456 Y0.1218 I-0.0621 J0.4153
G1 X3.0454 Y0.1213
X3.0457 Y0.1206
X3.0464 Y0.1201
X3.0475 Y0.12
X3.0487 Y0.1205 Z1.0602
G2 X3.0639 Y0.1452 Z1.0609 I0.4235 J-0.2441
X3.0919 Y0.1836 Z1.0621 I0.4083 J-0.2688 F394.
X3.1915 Y0.2766 I0.3803 J-0.3072
X3.2185 Y0.2857 I0.0287 J-0.0409
G1 X3.6966 Y0.3024
G2 X3.7241 Y0.2953 I0.0018 J-0.05
X3.8299 Y0.2096 I-0.2519 J-0.4189
X3.8606 Y0.1733 Z1.0609 I-0.3577 J-0.3332
X3.8776 Y0.1496 Z1.0602 I-0.3884 J-0.2969 F135.
G1 X3.8782 Y0.149 Z1.0601
X3.8789 Y0.1485
G3 X4.1495 Y0.0673 I0.4375 J0.9663
G2 X4.4914 Y-0.3137 I-0.146 J-0.4749
X4.5918 Y-0.495 I-1.1284 J-0.7438
G1 X4.5942 Y-0.4995 Z1.0602
X4.597 Y-0.5038 Z1.0604
X4.6002 Y-0.5077 Z1.0605
X4.6039 Y-0.5113 Z1.0606
X4.6079 Y-0.5146 Z1.0608
X4.6122 Y-0.5173 Z1.0609
G3 X4.658 Y-0.5185 Z1.0621 I0.024 J0.0439 F394.
X4.684 Y-0.4586 I-0.0218 J0.045
G1 X4.5479 Y-0.0994
G3 X4.2972 Y0.1485 I-0.5434 J-0.2989
G1 X4.0124 Y0.2282
G3 X3.9386 Y0.1738 I-0.0118 J-0.0612
X3.9512 Y0.1291 Z1.0609 I0.0619 J-0.0068
X3.9752 Y0.1101 Z1.0601 I0.0494 J0.038 F135.
G1 X3.9825 Y0.1072
G2 X4.2825 Y-0.0797 I-0.4392 J-1.0396
G1 X4.2867 Y-0.0826 Z1.0602
X4.2911 Y-0.0852 Z1.0604
X4.2958 Y-0.0873 Z1.0605
X4.3006 Y-0.0888 Z1.0606
X4.3057 Y-0.0899 Z1.0608
X4.3108 Y-0.0905 Z1.0609
G3 X4.3523 Y-0.0711 Z1.0621 I0.002 J0.05 F394.
X4.3425 Y-0.0003 I-0.0395 J0.0306
G1 X4.2051 Y0.1011
G3 X4.1348 Y0.0901 I-0.0297 J-0.0402
X4.1281 Y0.0448 Z1.0609 I0.0406 J-0.0292
X4.1462 Y0.0203 Z1.0601 I0.0473 J0.0162 F135.
G2 X4.505 Y-0.336 I-0.6425 J-1.0056
G1 X4.5054 Y-0.3368
X4.5061 Y-0.3374 Z1.0602
G2 X4.533 Y-0.3482 Z1.0609 I-0.2041 J-0.5507
X4.576 Y-0.3686 Z1.0621 I-0.231 J-0.54 F394.
X4.7197 Y-0.4753 I-0.274 J-0.5195
X4.7338 Y-0.5041 I-0.0356 J-0.0351
G1 X4.816 Y-1.152
G2 X4.8096 Y-1.1834 I-0.0496 J-0.0063
X4.6972 Y-1.3225 I-0.5076 J0.2953
X4.6608 Y-1.3531 Z1.0609 I-0.3952 J0.4344
X4.6373 Y-1.3703 Z1.0601 I-0.3588 J0.465 F135.
G1 X4.6366 Y-1.3709
X4.6362 Y-1.3717
G3 X4.5532 Y-1.6393 I1.1092 J-0.4906
G2 X4.1659 Y-1.9867 I-0.4744 J0.1393
X3.9816 Y-2.0878 I-0.5703 J0.8208
G1 X3.9808 Y-2.0884
X3.9803 Y-2.0892 Z1.0602
G2 X3.9667 Y-2.1148 Z1.0609 I-0.4367 J0.2157
X3.9411 Y-2.1549 Z1.0621 I-0.4231 J0.2413 F394.
X3.8482 Y-2.2535 I-0.3975 J0.2814
X3.8194 Y-2.2644 I-0.0313 J0.039
G1 X3.3068 Y-2.2892
G2 X3.277 Y-2.2811 I-0.0024 J0.0499
X3.175 Y-2.1918 I0.2666 J0.4076
X3.1457 Y-2.1543 Z1.0609 I0.3686 J0.3183
X3.1298 Y-2.1302 Z1.0602 I0.3979 J0.2808 F135.
G1 X3.1291 Y-2.1294 Z1.0601
X3.1282 Y-2.1289
G3 X2.6 Y-2.0451 I-0.4339 J-1.028
X2.0768 Y-2.0392 I-0.3737 J-9.9311
G1 X1.5016
X0.5603 Y-2.0391
G2 X0.0589 Y-1.6709 I-0.043 J0.4669
X0.002 Y-1.2058 I1.4355 J0.4116
X0.0015 Y-0.4217 I11.0246 J0.3991
X0.3959 Y-0.047 I0.4817 J-0.1122
X0.8622 Y0.0035 I0.4092 J-1.5984
X1.3851 Y0.0093 I0.406 J-13.0402
G1 X1.5943 Y0.0095
X2.7447 Y0.0097
G3 X2.8793 Y0.0348 I0.0312 J0.2063
G1 X2.9523 Y0.0765
G3 X2.9722 Y0.0995 I-0.026 J0.0427
G1 X2.9744 Y0.1047 Z1.0604
X2.9766 Y0.1098 Z1.0614
X2.9787 Y0.1147 Z1.0629
X2.9807 Y0.1195 Z1.0651
X2.9827 Y0.124 Z1.0678
X2.9845 Y0.1282 Z1.071
X2.9861 Y0.132 Z1.0747
X2.9876 Y0.1355 Z1.0789
X2.9889 Y0.1385 Z1.0835
X2.9899 Y0.141 Z1.0884
X2.9908 Y0.1429 Z1.0936
X2.9914 Y0.1444 Z1.099
X2.9918 Y0.1452 Z1.1045
X2.9919 Y0.1455 Z1.1101
G0 Z2.0501
X3.0814 Y-2.1551
Z1.1601
G1 Z1.1101 F135.
X3.0812 Y-2.1549 Z1.1045
X3.0807 Y-2.1541 Z1.099
X3.0798 Y-2.1528 Z1.0936
X3.0786 Y-2.1511 Z1.0884
X3.0771 Y-2.1488 Z1.0835
X3.0752 Y-2.1461 Z1.0789
X3.0731 Y-2.143 Z1.0747
X3.0708 Y-2.1396 Z1.071
X3.0682 Y-2.1358 Z1.0678
X3.0655 Y-2.1317 Z1.0651
X3.0625 Y-2.1275 Z1.0629
X3.0595 Y-2.123 Z1.0614
X3.0564 Y-2.1184 Z1.0604
X3.0533 Y-2.1138 Z1.0601
G3 X3.0301 Y-2.0934 I-0.0515 J-0.035
G1 X3.0232 Y-2.0901
G3 X2.6169 Y-1.9984 I-0.3628 J-0.6614
X1.937 Y-1.9892 I-0.4974 J-11.672
G1 X1.4141
X0.682 Y-1.9891
G2 X0.3741 Y-1.9446 I-0.0556 J0.7023
X0.0908 Y-1.528 I0.2673 J0.4864
X0.0498 Y-0.9556 I2.419 J0.4608
X0.0545 Y-0.4853 I3.9274 J0.1963
X0.4432 Y-0.1038 I0.49 J-0.1105
X1.013 Y-0.0463 I0.4721 J-1.8273
X1.693 Y-0.0405 I0.47 J-15.279
G1 X2.6865 Y-0.0403
G3 X2.8516 Y0.0219 I0.0187 J0.2006
G1 X2.8662 Y0.0279
G3 X2.8857 Y0.0512 I-0.0267 J0.0422
G1 X2.8879 Y0.0564 Z1.0604
X2.89 Y0.0615 Z1.0614
X2.892 Y0.0665 Z1.0629
X2.8939 Y0.0713 Z1.0651
X2.8958 Y0.0758 Z1.0678
X2.8975 Y0.08 Z1.071
X2.8991 Y0.0839 Z1.0747
X2.9005 Y0.0874 Z1.0789
X2.9018 Y0.0904 Z1.0835
X2.9028 Y0.0929 Z1.0884
X2.9036 Y0.0949 Z1.0936
X2.9042 Y0.0963 Z1.099
X2.9045 Y0.0972 Z1.1045
X2.9047 Y0.0975 Z1.1101
G0 Z2.0501
X2.9906 Y-2.1126
Z1.1601
G1 Z1.1101 F135.
X2.9904 Y-2.1124 Z1.1045
X2.9899 Y-2.1116 Z1.099
X2.9891 Y-2.1103 Z1.0936
X2.9879 Y-2.1085 Z1.0884
X2.9864 Y-2.1062 Z1.0835
X2.9846 Y-2.1035 Z1.0789
X2.9825 Y-2.1004 Z1.0747
X2.9802 Y-2.0969 Z1.071
X2.9777 Y-2.0931 Z1.0678
X2.975 Y-2.089 Z1.0651
X2.9722 Y-2.0847 Z1.0629
X2.9692 Y-2.0802 Z1.0614
X2.9661 Y-2.0756 Z1.0604
X2.9631 Y-2.0709 Z1.0601
G3 X2.9401 Y-2.0501 I-0.052 J-0.0343
G1 X2.9301 Y-2.0452
G3 X2.5676 Y-1.9521 I-0.3255 J-0.5153
X1.8354 Y-1.9392 I-0.5497 J-10.418
G1 X1.4693
X0.7896 Y-1.9391
G2 X0.4298 Y-1.8911 I-0.0714 J0.8359
X0.135 Y-1.423 I0.2978 J0.5145
X0.0995 Y-0.8498 I2.7221 J0.456
X0.1396 Y-0.4366 I0.9937 J0.1123
X0.602 Y-0.1327 I0.519 J-0.286
X1.1748 Y-0.0947 I0.4618 J-2.6225
X1.6456 Y-0.0906 I0.3358 J-11.5445
G1 X1.9593 Y-0.0904
X2.5868 Y-0.0903
G3 X2.8047 Y-0.0124 I0.0357 J0.2439
G1 X2.8086 Y-0.0092
X2.8122 Y-0.0056
X2.8154 Y-0.0016
X2.8182 Y0.0027
X2.8206 Y0.0072
X2.8224 Y0.0121
X2.824 Y0.0175 Z1.0604
X2.8255 Y0.0228 Z1.0614
X2.8269 Y0.028 Z1.0629
X2.8284 Y0.0329 Z1.0651
X2.8297 Y0.0377 Z1.0678
X2.8309 Y0.0421 Z1.071
X2.8321 Y0.0461 Z1.0747
X2.8331 Y0.0497 Z1.0789
X2.834 Y0.0528 Z1.0835
X2.8347 Y0.0554 Z1.0884
X2.8353 Y0.0575 Z1.0936
X2.8357 Y0.059 Z1.099
X2.836 Y0.0599 Z1.1045
X2.8361 Y0.0602 Z1.1101
G0 Z2.0501
X2.9212 Y-2.0837
Z1.1601
G1 Z1.1101 F135.
X2.9211 Y-2.0834 Z1.1045
X2.9206 Y-2.0825 Z1.099
X2.92 Y-2.0811 Z1.0936
X2.919 Y-2.0792 Z1.0884
X2.9178 Y-2.0768 Z1.0835
X2.9164 Y-2.0739 Z1.0789
X2.9147 Y-2.0705 Z1.0747
X2.9129 Y-2.0668 Z1.071
X2.9109 Y-2.0627 Z1.0678
X2.9087 Y-2.0583 Z1.0651
X2.9064 Y-2.0536 Z1.0629
X2.904 Y-2.0488 Z1.0614
X2.9016 Y-2.0438 Z1.0604
X2.8991 Y-2.0388 Z1.0601
G3 X2.879 Y-2.0153 I-0.0559 J-0.0275
G1 X2.8135 Y-1.9727
G3 X2.5347 Y-1.9028 I-0.2805 J-0.5281
X1.7506 Y-1.8893 I-0.601 J-12.084
G1 X1.4369 Y-1.8892
X0.8617 Y-1.8891
G2 X0.5009 Y-1.8448 I-0.0706 J0.9154
X0.1908 Y-1.3872 I0.2758 J0.5208
X0.1501 Y-0.8146 I2.4935 J0.465
X0.3101 Y-0.336 I0.5559 J0.0802
X0.8471 Y-0.1598 I0.5308 J-0.7111
X1.5788 Y-0.1431 I0.5226 J-6.886
G1 X1.7358 Y-0.1406
X2.0495 Y-0.1404
X2.4679 Y-0.1403
G3 X2.573 Y-0.1408 I0.0547 J0.5505
X2.6712 Y-0.1227 I-0.0504 J0.5509 F121.5
G2 X2.7401 Y-0.0622 I0.6687 J-0.6929 F135.
G3 X2.7569 Y-0.0368 I-0.0314 J0.0389
G1 X2.7584 Y-0.0314 Z1.0604
X2.7599 Y-0.0261 Z1.0614
X2.7614 Y-0.0209 Z1.0629
X2.7628 Y-0.0159 Z1.0651
X2.7641 Y-0.0112 Z1.0678
X2.7654 Y-0.0068 Z1.071
X2.7665 Y-0.0028 Z1.0747
X2.7675 Y0.0008 Z1.0789
X2.7684 Y0.0039 Z1.0835
X2.7691 Y0.0065 Z1.0884
X2.7697 Y0.0086 Z1.0936
X2.7701 Y0.0101 Z1.099
X2.7704 Y0.011 Z1.1045
X2.7705 Y0.0113 Z1.1101
G0 Z2.0501
X2.8557 Y-2.041
Z1.1601
G1 Z1.1101 F135.
X2.8556 Y-2.0407 Z1.1045
X2.8551 Y-2.0399 Z1.099
X2.8545 Y-2.0385 Z1.0936
X2.8535 Y-2.0366 Z1.0884
X2.8523 Y-2.0341 Z1.0835
X2.8509 Y-2.0312 Z1.0789
X2.8492 Y-2.0279 Z1.0747
X2.8474 Y-2.0241 Z1.071
X2.8454 Y-2.02 Z1.0678
X2.8432 Y-2.0156 Z1.0651
X2.8409 Y-2.011 Z1.0629
X2.8385 Y-2.0061 Z1.0614
X2.8361 Y-2.0012 Z1.0604
X2.8336 Y-1.9962 Z1.0601
G3 X2.8135 Y-1.9727 I-0.0559 J-0.0275
G1 X2.81 Y-1.9704
G3 X2.5071 Y-1.8616 I-0.3063 J-0.3767
X1.7758 Y-1.8424 I-0.5129 J-5.6
G1 X1.6188 Y-1.8392
X1.2527
X0.939 Y-1.8391
G2 X0.577 Y-1.8008 I-0.0717 J1.051
X0.2481 Y-1.3573 I0.2448 J0.5251
X0.2163 Y-0.6298 I2.1076 J0.4566
X0.6725 Y-0.246 I0.536 J-0.1742
X1.1394 Y-0.1973 I0.4195 J-1.7596
X1.8192 Y-0.1906 I0.5175 J-17.8265
G1 X2.1329 Y-0.1904
X2.3944 Y-0.1903
G3 X2.6162 Y-0.1737 I0.0574 J0.7197
X2.6962 Y-0.1006 I-0.4178 J0.5383
X2.7099 Y-0.0734 I-0.0358 J0.0349
G1 X2.7107 Y-0.0679 Z1.0604
X2.7116 Y-0.0624 Z1.0614
X2.7124 Y-0.0571 Z1.0629
X2.7132 Y-0.052 Z1.0651
X2.714 Y-0.0471 Z1.0678
X2.7147 Y-0.0426 Z1.071
X2.7153 Y-0.0385 Z1.0747
X2.7159 Y-0.0348 Z1.0789
X2.7164 Y-0.0316 Z1.0835
X2.7168 Y-0.0289 Z1.0884
X2.7171 Y-0.0268 Z1.0936
X2.7174 Y-0.0253 Z1.099
X2.7175 Y-0.0243 Z1.1045
X2.7176 Y-0.024 Z1.1101
G0 Z2.0501
X2.8014 Y-2.0136
Z1.1601
G1 Z1.1101 F135.
X2.8013 Y-2.0133 Z1.1045
X2.801 Y-2.0125 Z1.099
X2.8005 Y-2.011 Z1.0936
X2.7998 Y-2.009 Z1.0884
X2.7989 Y-2.0064 Z1.0835
X2.7978 Y-2.0033 Z1.0789
X2.7966 Y-1.9998 Z1.0747
X2.7953 Y-1.9958 Z1.071
X2.7938 Y-1.9915 Z1.0678
X2.7922 Y-1.9869 Z1.0651
X2.7905 Y-1.982 Z1.0629
X2.7888 Y-1.9769 Z1.0614
X2.787 Y-1.9716 Z1.0604
X2.7852 Y-1.9663 Z1.0601
G3 X2.7683 Y-1.9405 I-0.059 J-0.0202
G1 X2.7191 Y-1.8987
X2.7046 Y-1.8893
X2.6897 Y-1.8804
X2.6745 Y-1.872
X2.6591 Y-1.8642
X2.6434 Y-1.8568
X2.6274 Y-1.85
X2.6113 Y-1.8438
X2.5949 Y-1.8381
X2.5783 Y-1.8329
X2.5616 Y-1.8284
X2.5448 Y-1.8244
X2.5278 Y-1.8209
X2.5107 Y-1.8181
X2.4935 Y-1.8158
X2.4763 Y-1.8141
X2.459 Y-1.813
X2.4416 Y-1.8124
G3 X1.7103 Y-1.7924 I-0.5179 J-5.5499
G1 X1.5533 Y-1.7893
X1.2396 Y-1.7892
X1.0304
G2 X0.6172 Y-1.7437 I-0.085 J1.1274
X0.2971 Y-1.2912 I0.2781 J0.5362
X0.2735 Y-0.6684 I1.552 J0.3707
X0.7404 Y-0.2947 I0.5446 J-0.2018
X1.312 Y-0.246 I0.4781 J-2.2346
X1.8873 Y-0.2406 I0.427 J-14.6766
G1 X2.2011 Y-0.2404
G3 X2.5498 Y-0.2298 I0.0992 J2.467
X2.6471 Y-0.1482 I-0.1811 J0.3146
X2.6605 Y-0.1209 I-0.0361 J0.0346
G1 X2.6613 Y-0.1153 Z1.0604
X2.6621 Y-0.1099 Z1.0614
X2.6629 Y-0.1045 Z1.0629
X2.6637 Y-0.0994 Z1.0651
X2.6644 Y-0.0945 Z1.0678
X2.6651 Y-0.09 Z1.071
X2.6657 Y-0.0859 Z1.0747
X2.6662 Y-0.0822 Z1.0789
X2.6667 Y-0.079 Z1.0835
X2.6671 Y-0.0763 Z1.0884
X2.6674 Y-0.0742 Z1.0936
X2.6676 Y-0.0726 Z1.099
X2.6678 Y-0.0717 Z1.1045
Y-0.0714 Z1.1101
G0 Z2.0501
X2.7522 Y-1.9718
Z1.1601
G1 Z1.1101 F135.
X2.7521 Y-1.9715 Z1.1045
X2.7518 Y-1.9707 Z1.099
X2.7513 Y-1.9692 Z1.0936
X2.7506 Y-1.9672 Z1.0884
X2.7498 Y-1.9646 Z1.0835
X2.7487 Y-1.9615 Z1.0789
X2.7475 Y-1.958 Z1.0747
X2.7462 Y-1.954 Z1.071
X2.7447 Y-1.9497 Z1.0678
X2.7431 Y-1.9451 Z1.0651
X2.7414 Y-1.9402 Z1.0629
X2.7397 Y-1.9351 Z1.0614
X2.7379 Y-1.9298 Z1.0604
X2.7361 Y-1.9245 Z1.0601
G3 X2.7191 Y-1.8987 I-0.059 J-0.0201
G1 X2.6786 Y-1.8641
X2.6653 Y-1.8541
X2.6517 Y-1.8445
X2.6377 Y-1.8354
X2.6234 Y-1.8269
X2.6088 Y-1.8189
X2.5939 Y-1.8114
X2.5787 Y-1.8045
X2.5633 Y-1.7981
X2.5477 Y-1.7923
X2.5318 Y-1.7871
X2.5158 Y-1.7825
X2.4996 Y-1.7785
X2.4833 Y-1.775
X2.4669 Y-1.7722
X2.4504 Y-1.7699
X2.4338 Y-1.7683
X2.4172 Y-1.7673
X2.4005 Y-1.7668
G3 X1.8263 Y-1.7422 I-0.4369 J-3.4841
X1.4602 Y-1.7393 I-0.2464 J-7.7493
G1 X1.0941 Y-1.7392
G2 X0.6805 Y-1.6955 I-0.084 J1.1853
X0.3516 Y-1.2496 I0.2659 J0.5404
X0.3266 Y-0.7314 I1.1518 J0.3153
X0.7844 Y-0.3491 I0.5403 J-0.1817
X1.251 Y-0.2981 I0.4247 J-1.7253
X1.9308 Y-0.2906 I0.5233 J-16.5871
G1 X2.2446 Y-0.2904
G3 X2.5194 Y-0.2737 I0.0662 J1.1812
X2.606 Y-0.1899 I-0.143 J0.2344
X2.6174 Y-0.1617 I-0.0385 J0.032
G1 X2.6178 Y-0.1561 Z1.0604
X2.6182 Y-0.1506 Z1.0614
X2.6186 Y-0.1452 Z1.0629
X2.619 Y-0.1401 Z1.0651
X2.6194 Y-0.1352 Z1.0678
X2.6197 Y-0.1306 Z1.071
X2.6201 Y-0.1264 Z1.0747
X2.6203 Y-0.1227 Z1.0789
X2.6206 Y-0.1195 Z1.0835
X2.6208 Y-0.1168 Z1.0884
X2.6209 Y-0.1146 Z1.0936
X2.6211 Y-0.1131 Z1.099
Y-0.1122 Z1.1045
X2.6212 Y-0.1118 Z1.1101
G0 Z2.0501
X2.7002 Y-1.9314
Z1.1601
G1 Z1.1101 F135.
X2.7001 Y-1.9311 Z1.1045
X2.6999 Y-1.9302 Z1.099
X2.6994 Y-1.9288 Z1.0936
X2.6988 Y-1.9267 Z1.0884
X2.6981 Y-1.9241 Z1.0835
X2.6972 Y-1.921 Z1.0789
X2.6962 Y-1.9174 Z1.0747
X2.695 Y-1.9134 Z1.071
X2.6937 Y-1.909 Z1.0678
X2.6924 Y-1.9042 Z1.0651
X2.691 Y-1.8993 Z1.0629
X2.6895 Y-1.8941 Z1.0614
X2.6879 Y-1.8888 Z1.0604
X2.6864 Y-1.8834 Z1.0601
G3 X2.6707 Y-1.8567 I-0.0599 J-0.0172
G1 X2.6636 Y-1.85
G3 X2.4248 Y-1.7312 I-0.266 J-0.235
X1.8842 Y-1.6937 I-0.4316 J-2.308
X1.4135 Y-1.6893 I-0.3364 J-10.8358
G1 X1.152 Y-1.6892
G2 X0.7383 Y-1.6454 I-0.0822 J1.202
X0.3945 Y-1.1519 I0.2746 J0.5578
X0.4446 Y-0.6448 I0.626 J0.1942
X0.9369 Y-0.3798 I0.5465 J-0.4256
X1.6148 Y-0.3444 I0.5301 J-3.6452
G3 X2.4379 Y-0.3335 I0.0563 J26.716
X2.5445 Y-0.2681 I-0.0364 J0.179
G1 X2.5725 Y-0.2315
G3 X2.5823 Y-0.2027 I-0.0402 J0.0298
G1 X2.5824 Y-0.1971 Z1.0604
X2.5825 Y-0.1916 Z1.0614
X2.5826 Y-0.1862 Z1.0629
X2.5827 Y-0.181 Z1.0651
X2.5828 Y-0.1761 Z1.0678
X2.5829 Y-0.1716 Z1.071
X2.583 Y-0.1674 Z1.0747
X2.5831 Y-0.1636 Z1.0789
X2.5832 Y-0.1604 Z1.0835
Y-0.1577 Z1.0884
X2.5833 Y-0.1555 Z1.0936
Y-0.154 Z1.099
Y-0.153 Z1.1045
Y-0.1527 Z1.1101
G0 Z2.0501
X2.6622 Y-1.9003
Z1.1601
G1 Z1.1101 F135.
X2.6621 Y-1.9 Z1.1045
X2.6619 Y-1.8991 Z1.099
X2.6616 Y-1.8976 Z1.0936
X2.6612 Y-1.8955 Z1.0884
X2.6606 Y-1.8928 Z1.0835
X2.66 Y-1.8896 Z1.0789
X2.6592 Y-1.886 Z1.0747
X2.6584 Y-1.8819 Z1.071
X2.6575 Y-1.8774 Z1.0678
X2.6565 Y-1.8726 Z1.0651
X2.6554 Y-1.8675 Z1.0629
X2.6544 Y-1.8622 Z1.0614
X2.6532 Y-1.8568 Z1.0604
X2.6521 Y-1.8513 Z1.0601
G3 X2.6386 Y-1.8235 I-0.061 J-0.0125
G1 X2.5991 Y-1.78
X2.5861 Y-1.7696
X2.5728 Y-1.7596
X2.5591 Y-1.7501
X2.5451 Y-1.7411
X2.5308 Y-1.7326
X2.5162 Y-1.7246
X2.5013 Y-1.7172
X2.4861 Y-1.7102
X2.4708 Y-1.7039
X2.4552 Y-1.698
X2.4394 Y-1.6927
X2.4234 Y-1.688
X2.4073 Y-1.6839
X2.3911 Y-1.6803
X2.3747 Y-1.6773
X2.3582 Y-1.6749
X2.3417 Y-1.6731
X2.3251 Y-1.6718
X2.3085 Y-1.6712
G3 X1.7363 Y-1.6427 I-0.4453 J-3.1859
G1 X1.5795 Y-1.6421
X1.4226 Y-1.6409
X1.2657 Y-1.6391
X1.1089 Y-1.6369
X0.9521 Y-1.6341
G2 X0.4733 Y-1.21 I0.0666 J0.5575
X0.5281 Y-0.6604 I0.5363 J0.224
X1.0375 Y-0.4238 I0.5494 J-0.5164
X1.716 Y-0.3939 I0.5268 J-4.2392
G1 X1.7684 Y-0.3912
X1.8207 Y-0.391
X1.9252 Y-0.3908
X2.1344 Y-0.3904
G3 X2.4524 Y-0.3676 I0.0713 J1.2324
X2.5083 Y-0.315 I-0.092 J0.154
X2.5149 Y-0.2853 I-0.0433 J0.0251
G1 X2.5144 Y-0.2797 Z1.0604
X2.5138 Y-0.2742 Z1.0614
X2.5133 Y-0.2689 Z1.0629
X2.5129 Y-0.2637 Z1.0651
X2.5124 Y-0.2588 Z1.0678
X2.512 Y-0.2543 Z1.071
X2.5116 Y-0.2501 Z1.0747
X2.5112 Y-0.2464 Z1.0789
X2.5109 Y-0.2432 Z1.0835
X2.5107 Y-0.2405 Z1.0884
X2.5105 Y-0.2383 Z1.0936
X2.5103 Y-0.2368 Z1.099
Y-0.2358 Z1.1045
X2.5102 Y-0.2355 Z1.1101
G0 Z2.0501
X2.6225 Y-1.8568
Z1.1601
G1 Z1.1101 F135.
Y-1.8565 Z1.1045
X2.6223 Y-1.8556 Z1.099
X2.622 Y-1.8541 Z1.0936
X2.6215 Y-1.852 Z1.0884
X2.621 Y-1.8493 Z1.0835
X2.6204 Y-1.8461 Z1.0789
X2.6196 Y-1.8425 Z1.0747
X2.6188 Y-1.8384 Z1.071
X2.6179 Y-1.8339 Z1.0678
X2.6169 Y-1.8291 Z1.0651
X2.6158 Y-1.824 Z1.0629
X2.6148 Y-1.8187 Z1.0614
X2.6137 Y-1.8133 Z1.0604
X2.6126 Y-1.8078 Z1.0601
G3 X2.5991 Y-1.78 I-0.0611 J-0.0124
G1 X2.5737 Y-1.7521
X2.5636 Y-1.7413
X2.553 Y-1.731
X2.5421 Y-1.7212
X2.5307 Y-1.7118
X2.5189 Y-1.7029
X2.5068 Y-1.6945
X2.4943 Y-1.6866
X2.4815 Y-1.6793
X2.4685 Y-1.6725
X2.4551 Y-1.6662
X2.4415 Y-1.6605
X2.4277 Y-1.6554
X2.4136 Y-1.6509
X2.3994 Y-1.6469
X2.3851 Y-1.6436
X2.3706 Y-1.6408
X2.356 Y-1.6387
X2.3413 Y-1.6372
G3 X1.8045 Y-1.5945 I-0.4379 J-2.113
G1 X1.6084 Y-1.592
X1.4123 Y-1.5891
X1.2163 Y-1.5858
X1.0202 Y-1.5821
G2 X0.5177 Y-1.1231 I0.0462 J0.5551
X0.7848 Y-0.5629 I0.4442 J0.132
X1.2396 Y-0.4584 I0.4621 J-0.9687
X2.2776 Y-0.4407 I0.7705 J-14.813
G3 X2.3675 Y-0.4273 I-0.0164 J0.418
X2.4603 Y-0.3906 I-0.1064 J0.4046 F121.5
X2.5083 Y-0.315 I-0.8453 J0.5904 F135.
X2.5149 Y-0.2853 I-0.0433 J0.0251
G1 X2.5144 Y-0.2797 Z1.0604
X2.5138 Y-0.2742 Z1.0614
X2.5133 Y-0.2689 Z1.0629
X2.5129 Y-0.2637 Z1.0651
X2.5124 Y-0.2588 Z1.0678
X2.512 Y-0.2543 Z1.071
X2.5116 Y-0.2501 Z1.0747
X2.5112 Y-0.2464 Z1.0789
X2.5109 Y-0.2432 Z1.0835
X2.5107 Y-0.2405 Z1.0884
X2.5105 Y-0.2383 Z1.0936
X2.5103 Y-0.2368 Z1.099
Y-0.2358 Z1.1045
X2.5102 Y-0.2355 Z1.1101
G0 Z2.0501
X2.5819 Y-1.8206
Z1.1601
G1 Z1.1101 F135.
Y-1.8203 Z1.1045
X2.5818 Y-1.8194 Z1.099
X2.5816 Y-1.8178 Z1.0936
X2.5814 Y-1.8157 Z1.0884
X2.5811 Y-1.813 Z1.0835
X2.5807 Y-1.8098 Z1.0789
X2.5803 Y-1.8061 Z1.0747
X2.5799 Y-1.8019 Z1.071
X2.5794 Y-1.7973 Z1.0678
X2.5788 Y-1.7925 Z1.0651
X2.5782 Y-1.7873 Z1.0629
X2.5777 Y-1.782 Z1.0614
X2.5771 Y-1.7765 Z1.0604
X2.5764 Y-1.7709 Z1.0601
G3 X2.5655 Y-1.742 I-0.0619 J-0.0068
G1 X2.5438 Y-1.7131
G3 X2.328 Y-1.5956 I-0.2549 J-0.2112
X1.8624 Y-1.5456 I-0.4218 J-1.7344
G1 X1.601 Y-1.5416
X1.3396 Y-1.5371
X1.0782 Y-1.5321
G2 X0.5733 Y-0.9704 I0.033 J0.5375
X0.9444 Y-0.5732 I0.4878 J-0.0838
X1.4074 Y-0.502 I0.4443 J-1.3477
X2.2384 Y-0.4892 I0.6957 J-18.2404
G3 X2.3392 Y-0.4747 I-0.0101 J0.4272
X2.4318 Y-0.4378 I-0.1109 J0.4126 F121.5
G1 X2.4423 Y-0.4214 F135.
X2.4526 Y-0.4068
X2.4812 Y-0.3596
G3 X2.4872 Y-0.3298 I-0.0436 J0.0244
G1 X2.4866 Y-0.3242 Z1.0604
X2.486 Y-0.3187 Z1.0614
X2.4854 Y-0.3133 Z1.0629
X2.4849 Y-0.3082 Z1.0651
X2.4843 Y-0.3033 Z1.0678
X2.4839 Y-0.2988 Z1.071
X2.4834 Y-0.2946 Z1.0747
X2.483 Y-0.2909 Z1.0789
X2.4826 Y-0.2877 Z1.0835
X2.4824 Y-0.285 Z1.0884
X2.4821 Y-0.2828 Z1.0936
X2.482 Y-0.2813 Z1.099
X2.4819 Y-0.2804 Z1.1045
X2.4818 Y-0.28 Z1.1101
G0 Z2.0501
X2.5509 Y-1.7825
Z1.1601
G1 Z1.1101 F135.
X2.5508 Y-1.7822 Z1.1045
Y-1.7813 Z1.099
X2.5507 Y-1.7797 Z1.0936
X2.5505 Y-1.7776 Z1.0884
X2.5503 Y-1.7749 Z1.0835
X2.55 Y-1.7717 Z1.0789
X2.5497 Y-1.7679 Z1.0747
X2.5494 Y-1.7638 Z1.071
X2.549 Y-1.7592 Z1.0678
X2.5486 Y-1.7543 Z1.0651
X2.5482 Y-1.7491 Z1.0629
X2.5478 Y-1.7438 Z1.0614
X2.5474 Y-1.7383 Z1.0604
X2.5469 Y-1.7327 Z1.0601
G3 X2.5369 Y-1.7034 I-0.0621 J-0.0049
G1 X2.5083 Y-1.6625
G3 X2.2694 Y-1.5423 I-0.2816 J-0.2622
X1.6805 Y-1.4949 I-0.479 J-2.2704
G2 X1.1055 Y-1.4817 I0.3479 J27.6168
X0.6724 Y-1.1462 I0.0591 J0.5236
X0.904 Y-0.6698 I0.3977 J0.1012
X1.3569 Y-0.5594 I0.4582 J-0.8955
X2.1929 Y-0.54 I0.67 J-10.8898
G3 X2.3105 Y-0.5223 I-0.0182 J0.5183
X2.4039 Y-0.487 I-0.1358 J0.5005 F121.5
X2.4522 Y-0.4066 I-0.4921 J0.3507 F135.
G1 X2.4545 Y-0.402
X2.4564 Y-0.3973
X2.4577 Y-0.3923
X2.4585 Y-0.3872
X2.4588 Y-0.3821
X2.4586 Y-0.377
X2.458 Y-0.3714 Z1.0604
X2.4574 Y-0.3659 Z1.0614
X2.4568 Y-0.3605 Z1.0629
X2.4563 Y-0.3554 Z1.0651
X2.4557 Y-0.3505 Z1.0678
X2.4552 Y-0.346 Z1.071
X2.4548 Y-0.3418 Z1.0747
X2.4544 Y-0.3381 Z1.0789
X2.454 Y-0.3349 Z1.0835
X2.4537 Y-0.3322 Z1.0884
X2.4535 Y-0.33 Z1.0936
X2.4533 Y-0.3285 Z1.099
X2.4532 Y-0.3276 Z1.1045
Y-0.3273 Z1.1101
G0 Z2.0501
X2.5218 Y-1.7417
Z1.1601
G1 Z1.1101 F135.
Y-1.7413 Z1.1045
X2.5217 Y-1.7404 Z1.099
X2.5216 Y-1.7389 Z1.0936
X2.5214 Y-1.7367 Z1.0884
X2.5212 Y-1.734 Z1.0835
X2.521 Y-1.7308 Z1.0789
X2.5207 Y-1.727 Z1.0747
X2.5204 Y-1.7229 Z1.071
X2.5201 Y-1.7183 Z1.0678
X2.5197 Y-1.7134 Z1.0651
X2.5194 Y-1.7083 Z1.0629
X2.519 Y-1.7029 Z1.0614
X2.5186 Y-1.6974 Z1.0604
X2.5182 Y-1.6918 Z1.0601
G3 X2.5083 Y-1.6625 I-0.0621 J-0.0045
G1 X2.4934 Y-1.6411
G3 X2.2922 Y-1.5106 I-0.2526 J-0.1691
X1.7566 Y-1.4477 I-0.4575 J-1.5834
G1 X1.5649 Y-1.4425
X1.3732 Y-1.437
X1.1816 Y-1.4312
G2 X0.7899 Y-1.2033 I0.0242 J0.4921
X0.9814 Y-0.7214 I0.3378 J0.1448
X1.3293 Y-0.6181 I0.3926 J-0.6847
X2.1127 Y-0.5914 I0.6216 J-6.739
G3 X2.3643 Y-0.5452 I-0.0151 J0.7897
X2.4322 Y-0.4437 I-0.132 J0.1619
X2.4354 Y-0.4134 I-0.0458 J0.0202
G1 X2.4343 Y-0.4079 Z1.0604
X2.4332 Y-0.4025 Z1.0614
X2.4321 Y-0.3972 Z1.0629
X2.4311 Y-0.3922 Z1.0651
X2.4301 Y-0.3874 Z1.0678
X2.4291 Y-0.3829 Z1.071
X2.4283 Y-0.3788 Z1.0747
X2.4275 Y-0.3751 Z1.0789
X2.4269 Y-0.3719 Z1.0835
X2.4263 Y-0.3693 Z1.0884
X2.4259 Y-0.3672 Z1.0936
X2.4256 Y-0.3657 Z1.099
X2.4254 Y-0.3647 Z1.1045
X2.4253 Y-0.3644 Z1.1101
G0 Z2.0501
X2.4915 Y-1.7034
Z1.1601
G1 Z1.1101 F135.
Y-1.7031 Z1.1045
Y-1.7022 Z1.099
X2.4914 Y-1.7006 Z1.0936
Y-1.6985 Z1.0884
X2.4913 Y-1.6957 Z1.0835
X2.4912 Y-1.6925 Z1.0789
Y-1.6888 Z1.0747
X2.4911 Y-1.6846 Z1.071
X2.491 Y-1.68 Z1.0678
X2.4908 Y-1.6751 Z1.0651
X2.4907 Y-1.6699 Z1.0629
X2.4906 Y-1.6645 Z1.0614
X2.4905 Y-1.659 Z1.0604
X2.4903 Y-1.6534 Z1.0601
G3 X2.482 Y-1.6236 I-0.0623 J-0.0014
G1 X2.4688 Y-1.6026
G3 X2.2759 Y-1.4686 I-0.2456 J-0.1477
X1.7581 Y-1.3993 I-0.4526 J-1.4111
G2 X1.1833 Y-1.3778 I0.4011 J18.4262
X0.9169 Y-1.2243 I0.0668 J0.424
X1.0632 Y-0.7786 I0.2891 J0.152
X1.4081 Y-0.6683 I0.3843 J-0.6073
X2.1377 Y-0.639 I0.6432 J-6.9234
G3 X2.3444 Y-0.5903 I-0.069 J0.7564
X2.4136 Y-0.4845 I-0.1298 J0.1604
X2.4158 Y-0.4541 I-0.0464 J0.0186
G1 X2.4145 Y-0.4487 Z1.0604
X2.4132 Y-0.4433 Z1.0614
X2.4119 Y-0.4381 Z1.0629
X2.4107 Y-0.433 Z1.0651
X2.4095 Y-0.4283 Z1.0678
X2.4085 Y-0.4238 Z1.071
X2.4075 Y-0.4198 Z1.0747
X2.4066 Y-0.4161 Z1.0789
X2.4059 Y-0.413 Z1.0835
X2.4052 Y-0.4103 Z1.0884
X2.4047 Y-0.4082 Z1.0936
X2.4044 Y-0.4067 Z1.099
X2.4041 Y-0.4058 Z1.1045
Y-0.4055 Z1.1101
G0 Z2.0501
X2.4639 Y-1.6682
Z1.1601
G1 Z1.1101 F135.
Y-1.6679 Z1.1045
X2.464 Y-1.667 Z1.099
Y-1.6654 Z1.0936
X2.4642 Y-1.6633 Z1.0884
X2.4643 Y-1.6606 Z1.0835
X2.4645 Y-1.6573 Z1.0789
X2.4647 Y-1.6536 Z1.0747
X2.4649 Y-1.6494 Z1.071
X2.4652 Y-1.6449 Z1.0678
X2.4655 Y-1.64 Z1.0651
X2.4657 Y-1.6348 Z1.0629
X2.466 Y-1.6294 Z1.0614
X2.4663 Y-1.6239 Z1.0604
X2.4667 Y-1.6183 Z1.0601
G3 X2.4607 Y-1.588 I-0.0622 J0.0035
G1 X2.4401 Y-1.5485
G3 X2.2055 Y-1.4086 I-0.285 J-0.2112
X1.745 Y-1.3487 I-0.4363 J-1.5546
G2 X1.2229 Y-1.3247 I0.0735 J7.2792
X1.0821 Y-0.9333 I0.0491 J0.2387
X1.332 Y-0.7548 I0.364 J-0.2455
X1.8497 Y-0.6956 I0.4784 J-1.8919
G3 X2.2934 Y-0.6529 I0.0514 J1.7898
X2.3931 Y-0.5306 I-0.0709 J0.1597
X2.3953 Y-0.5003 I-0.0464 J0.0186
G1 X2.394 Y-0.4948 Z1.0604
X2.3927 Y-0.4895 Z1.0614
X2.3915 Y-0.4842 Z1.0629
X2.3903 Y-0.4792 Z1.0651
X2.3891 Y-0.4744 Z1.0678
X2.388 Y-0.47 Z1.071
X2.3871 Y-0.4659 Z1.0747
X2.3862 Y-0.4623 Z1.0789
X2.3854 Y-0.4591 Z1.0835
X2.3848 Y-0.4565 Z1.0884
X2.3843 Y-0.4544 Z1.0936
X2.3839 Y-0.4529 Z1.099
X2.3837 Y-0.452 Z1.1045
X2.3836 Y-0.4517 Z1.1101
G0 Z2.0501
X2.4433 Y-1.6287
Z1.1601
G1 Z1.1101 F135.
Y-1.6284 Z1.1045
Y-1.6275 Z1.099
X2.4434 Y-1.6259 Z1.0936
X2.4435 Y-1.6238 Z1.0884
X2.4437 Y-1.6211 Z1.0835
X2.4439 Y-1.6178 Z1.0789
X2.4441 Y-1.6141 Z1.0747
X2.4443 Y-1.6099 Z1.071
X2.4446 Y-1.6054 Z1.0678
X2.4448 Y-1.6005 Z1.0651
X2.4451 Y-1.5953 Z1.0629
X2.4454 Y-1.5899 Z1.0614
X2.4457 Y-1.5844 Z1.0604
X2.446 Y-1.5788 Z1.0601
G3 X2.4401 Y-1.5485 I-0.0622 J0.0035
G1 X2.4239 Y-1.5174
G3 X2.2131 Y-1.3662 I-0.2991 J-0.1943
X1.6452 Y-1.2957 I-0.5091 J-1.7787
G2 X1.3729 Y-1.2768 I0.0803 J3.1241
X1.364 Y-0.8695 I0.0895 J0.2057
X1.7101 Y-0.7652 I0.3596 J-0.567
G3 X2.2222 Y-0.7171 I-1.0561 J13.9776
X2.3595 Y-0.6265 I-0.0567 J0.2353
G1 X2.3636 Y-0.6083
X2.3731 Y-0.5784
X2.3757 Y-0.5717
G3 X2.3766 Y-0.5413 I-0.0472 J0.0165
G1 X2.375 Y-0.5359 Z1.0604
X2.3734 Y-0.5306 Z1.0614
X2.3719 Y-0.5254 Z1.0629
X2.3705 Y-0.5204 Z1.0651
X2.3691 Y-0.5157 Z1.0678
X2.3679 Y-0.5113 Z1.071
X2.3667 Y-0.5073 Z1.0747
X2.3656 Y-0.5037 Z1.0789
X2.3647 Y-0.5006 Z1.0835
X2.364 Y-0.498 Z1.0884
X2.3634 Y-0.4959 Z1.0936
X2.363 Y-0.4945 Z1.099
X2.3627 Y-0.4936 Z1.1045
X2.3626 Y-0.4933 Z1.1101
G0 Z2.0501
X2.421 Y-1.5867
Z1.1601
G1 Z1.1101 F135.
Y-1.5864 Z1.1045
X2.4211 Y-1.5854 Z1.099
X2.4212 Y-1.5839 Z1.0936
X2.4213 Y-1.5817 Z1.0884
X2.4215 Y-1.579 Z1.0835
X2.4217 Y-1.5758 Z1.0789
X2.4219 Y-1.572 Z1.0747
X2.4221 Y-1.5679 Z1.071
X2.4224 Y-1.5633 Z1.0678
X2.4227 Y-1.5584 Z1.0651
X2.423 Y-1.5532 Z1.0629
X2.4234 Y-1.5479 Z1.0614
X2.4237 Y-1.5423 Z1.0604
X2.424 Y-1.5368 Z1.0601
G3 X2.4182 Y-1.5064 I-0.0622 J0.0038
G1 X2.4089 Y-1.4883
G3 X2.2226 Y-1.3363 I-0.2468 J-0.1122
X1.7767 Y-1.2528 I-0.4349 J-1.091
G1 X1.7245 Y-1.2469
X1.7212 Y-1.2467
G3 X1.6921 Y-1.2556 Z1.0609 I-0.0007 J-0.05
X1.6705 Y-1.296 Z1.0621 I0.0284 J-0.0412 F394.
X1.7062 Y-1.3446 I0.05 J-0.0008
G1 X2.339 Y-1.5337
G3 X2.3704 Y-1.5328 I0.0143 J0.0479
X2.4015 Y-1.4992 Z1.0609 I-0.0171 J0.047
X2.4004 Y-1.4688 Z1.0601 I-0.0482 J0.0134 F135.
G1 X2.3914 Y-1.4465
G3 X2.22 Y-1.2977 I-0.241 J-0.1045
X1.9477 Y-1.2221 I-0.3585 J-0.7627
G1 X1.9426 Y-1.2218 Z1.0602
X1.9375 Y-1.2219 Z1.0604
X1.9325 Y-1.2226 Z1.0605
X1.9275 Y-1.2239 Z1.0606
X1.9226 Y-1.2256 Z1.0608
X1.918 Y-1.2278 Z1.0609
G3 X1.8929 Y-1.2661 Z1.0621 I0.0246 J-0.0435 F394.
X1.9222 Y-1.317 I0.0497 J-0.0052
G1 X2.3185 Y-1.4942
G3 X2.3546 Y-1.4961 I0.0204 J0.0456
X2.3867 Y-1.4633 Z1.0609 I-0.0157 J0.0475
X2.3864 Y-1.4329 Z1.0601 I-0.0478 J0.0148 F135.
G1 X2.3718 Y-1.3934
G3 X2.1458 Y-1.228 I-0.2949 J-0.1659
G2 X2.1712 Y-0.7996 I0.0744 J0.2105
G3 X2.2382 Y-0.7679 I-0.2954 J0.7115
X2.3232 Y-0.7152 I-0.3625 J0.6798 F121.5
X2.3636 Y-0.6083 I-0.3339 J0.1873 F135.
G1 X2.3652 Y-0.5957 Z1.0604
G3 X2.3619 Y-0.5779 Z1.0609 I-0.05 J0.
X2.3279 Y-0.5473 Z1.0621 I-0.0467 J-0.0178 F394.
X2.289 Y-0.5531 I-0.0126 J-0.0484
G1 X2.0458 Y-0.7281
G3 X2.0042 Y-1.2596 I0.2541 J-0.2873
G1 X2.0942 Y-1.3289
X2.274 Y-1.4617
G3 X2.3493 Y-1.4632 I0.0386 J0.0489
X2.374 Y-1.4239 Z1.0609 I-0.0366 J0.0504
X2.3718 Y-1.3934 Z1.0601 I-0.0613 J0.0111 F135.
G1 X2.3638 Y-1.3717
G3 X2.262 Y-1.2434 I-0.2231 J-0.0725
G2 X2.2491 Y-0.9232 I0.2203 J0.1692
G3 X2.3159 Y-0.8042 I-1.3867 J0.8556
G2 X2.347 Y-0.6653 I0.7355 J-0.0919
G1 X2.348 Y-0.6602 Z1.0602
X2.3485 Y-0.655 Z1.0604
X2.3484 Y-0.6499 Z1.0605
X2.3478 Y-0.6447 Z1.0606
X2.3466 Y-0.6397 Z1.0608
X2.345 Y-0.6348 Z1.0609
G3 X2.3109 Y-0.6042 Z1.0621 I-0.0467 J-0.0178 F394.
X2.2504 Y-0.6383 I-0.0126 J-0.0484
G1 X2.0892 Y-0.9675
G3 X2.1241 Y-1.2635 I0.3717 J-0.1061
G1 X2.244 Y-1.4016
G3 X2.3323 Y-1.4181 I0.0521 J0.0342
X2.3574 Y-1.379 Z1.0609 I-0.0362 J0.0507
X2.3555 Y-1.3485 Z1.0601 I-0.0612 J0.0116 F135.
G1 X2.3531 Y-1.3417
G3 X2.3185 Y-1.2535 I-0.3317 J-0.0791
G2 X2.3009 Y-1.0342 I0.3998 J0.1423
G1 X2.3007 Y-1.0274
G3 X2.2893 Y-0.9992 Z1.0609 I-0.0499 J-0.0036
G1 X2.274 Y-0.9879 Z1.0614 F394.
G3 X2.2481 Y-0.9762 Z1.0621 I-0.0419 J-0.0587
X2.1608 Y-1.0574 I-0.0161 J-0.0703
G1 X2.185 Y-1.1921
X2.2241 Y-1.3417
G3 X2.3162 Y-1.3854 I0.0614 J0.0105
X2.3452 Y-1.3491 Z1.0609 I-0.0307 J0.0542
X2.3465 Y-1.3185 Z1.0601 I-0.0597 J0.0179 F135.
G1 X2.3412 Y-1.2968
G2 X2.3189 Y-0.7864 I1.1334 J0.3052
G1 X2.3193 Y-0.7813
Y-0.7762
X2.3186 Y-0.7711
X2.3175 Y-0.7661
X2.3159 Y-0.7612
X2.3137 Y-0.7566
X2.3111 Y-0.7516 Z1.0604
X2.3084 Y-0.7468 Z1.0614
X2.3059 Y-0.742 Z1.0629
X2.3034 Y-0.7375 Z1.0651
X2.3011 Y-0.7331 Z1.0678
X2.299 Y-0.7291 Z1.071
X2.297 Y-0.7254 Z1.0747
X2.2952 Y-0.7221 Z1.0789
X2.2937 Y-0.7193 Z1.0835
X2.2924 Y-0.7169 Z1.0884
X2.2914 Y-0.715 Z1.0936
X2.2906 Y-0.7136 Z1.099
X2.2902 Y-0.7128 Z1.1045
X2.29 Y-0.7125 Z1.1101
G0 Z2.0501
X4.6582 Y-1.427
Z1.1601
G1 Z1.1101 F135.
X4.658 Y-1.4272 Z1.1045
X4.6572 Y-1.4277 Z1.099
X4.6559 Y-1.4286 Z1.0936
X4.6541 Y-1.4298 Z1.0884
X4.6519 Y-1.4313 Z1.0835
X4.6492 Y-1.4331 Z1.0789
X4.6461 Y-1.4352 Z1.0747
X4.6426 Y-1.4375 Z1.071
X4.6388 Y-1.44 Z1.0678
X4.6347 Y-1.4428 Z1.0651
X4.6304 Y-1.4456 Z1.0629
X4.6259 Y-1.4486 Z1.0614
X4.6213 Y-1.4517 Z1.0604
X4.6167 Y-1.4548 Z1.0601
G3 X4.596 Y-1.4778 I0.0346 J-0.0518
G1 X4.5895 Y-1.4914
G2 X4.3826 Y-1.8015 I-0.8991 J0.3758
G1 X4.3795 Y-1.8055 Z1.0602
X4.3767 Y-1.8097 Z1.0604
X4.3744 Y-1.8142 Z1.0605
X4.3725 Y-1.819 Z1.0606
X4.3712 Y-1.8239 Z1.0608
X4.3703 Y-1.829 Z1.0609
G3 X4.3878 Y-1.8713 Z1.0621 I0.0498 J-0.0042 F394.
X4.46 Y-1.8634 I0.0323 J0.0381
G1 X4.6081 Y-1.6685
G3 X4.5953 Y-1.5962 I-0.0398 J0.0302
X4.5497 Y-1.5918 Z1.0609 I-0.0271 J-0.042
X4.5262 Y-1.6112 Z1.0601 I0.0185 J-0.0464 F135.
G2 X4.1425 Y-2.0023 I-1.0302 J0.6269
G1 X4.1382 Y-2.0052 Z1.0746
X4.1341 Y-2.0085 Z1.0892
G3 X4.1236 Y-2.0258 Z1.1458 I0.0366 J-0.034 F394.
G1 X4.1296 Y-2.0452 Z1.2735
X4.1473 Y-2.0477 Z1.4114
X4.1557 Y-2.0435 Z1.4812
X4.1923 Y-2.0253 Z1.7846
G3 X4.1931 Y-1.9907 Z1.8921 I-0.0002 J0.0173
X4.1626 Y-1.9892 Z1.8901 I-0.0751 J-1.2743 F135.
G1 X4.1566
G3 X3.9364 Y-2.0539 I0.1385 J-0.8783
G2 X2.4115 Y-1.3399 I-0.423 J1.082
X4.5865 Y-0.6431 I1.0875 J0.3484
X4.2872 Y-1.8178 I-1.0875 J-0.3484
X3.7122 Y-2.0538 I-0.7799 J1.0816
G1 X3.6866 Y-2.0586
X3.6609 Y-2.0627
X3.6351 Y-2.0663
X3.6092 Y-2.0692
X3.5833 Y-2.0715
X3.5573 Y-2.0732
X3.5312 Y-2.0743
X3.5052 Y-2.0747
X3.4791 Y-2.0745
X3.4531 Y-2.0737
X3.4271 Y-2.0722
X3.4011 Y-2.0701
X3.3752 Y-2.0674
X3.3494 Y-2.0641
X3.3236 Y-2.0602
X3.298 Y-2.0556
X3.2724 Y-2.0504
X3.247 Y-2.0447
X3.2218 Y-2.0383
X3.1967 Y-2.0313
X3.1718 Y-2.0236
X3.1471 Y-2.0154
X3.1225 Y-2.0067
X3.0982 Y-1.9973
X3.0742 Y-1.9873
X3.0503 Y-1.9768
X3.0268 Y-1.9657
X3.0035 Y-1.954
X2.9805 Y-1.9418
X2.9578 Y-1.929
X2.9354 Y-1.9157
X2.9133 Y-1.9018
X2.8916 Y-1.8874
X2.8703 Y-1.8725
X2.8493 Y-1.8571
X2.8286 Y-1.8412
X2.8084 Y-1.8248
X2.7886 Y-1.8079
X2.7691 Y-1.7906
X2.7501 Y-1.7727
X2.7316 Y-1.7545
X2.7134 Y-1.7358
X2.6958 Y-1.7166
X2.6786 Y-1.6971
X2.6618 Y-1.6771
X2.6456 Y-1.6567
X2.6298 Y-1.636
X2.6146 Y-1.6149
X2.5999 Y-1.5934
X2.5856 Y-1.5715
X2.572 Y-1.5494
X2.5588 Y-1.5269
X2.5462 Y-1.5041
X2.5342 Y-1.481
X2.5227 Y-1.4576
X2.5118 Y-1.434
X2.5014 Y-1.4101
X2.4916 Y-1.3859
X2.4824 Y-1.3615
X2.4738 Y-1.3369
X2.4658 Y-1.3122
X2.4584 Y-1.2872
X2.4516 Y-1.262
X2.4454 Y-1.2367
X2.4398 Y-1.2113
X2.4348 Y-1.1857
X2.4305 Y-1.16
X2.4267 Y-1.1343
X2.4236 Y-1.1084
X2.4211 Y-1.0825
X2.4192 Y-1.0565
X2.418 Y-1.0305
X2.4174 Y-1.0044
Y-0.9784
X2.418 Y-0.9523
X2.4193 Y-0.9263
X2.4212 Y-0.9003
X2.4237 Y-0.8744
X2.4268 Y-0.8485
X2.4305 Y-0.8228
X2.4349 Y-0.7971
X2.4399 Y-0.7715
X2.4455 Y-0.7461
X2.4517 Y-0.7208
X2.4585 Y-0.6956
X2.4659 Y-0.6707
X2.474 Y-0.6459
X2.4826 Y-0.6213
X2.4918 Y-0.5969
X2.5015 Y-0.5728
X2.5119 Y-0.5489
X2.5228 Y-0.5252
X2.5343 Y-0.5019
X2.5464 Y-0.4788
X2.559 Y-0.456
X2.5722 Y-0.4335
X2.5858 Y-0.4113
X2.6001 Y-0.3895
X2.6148 Y-0.368
X2.6301 Y-0.3469
X2.6458 Y-0.3262
X2.6621 Y-0.3058
X2.6788 Y-0.2858
X2.696 Y-0.2663
X2.7137 Y-0.2471
X2.7318 Y-0.2284
X2.7504 Y-0.2102
X2.7694 Y-0.1924
X2.7888 Y-0.175
X2.8087 Y-0.1581
X2.8289 Y-0.1417
X2.8496 Y-0.1258
X2.8706 Y-0.1104
X2.8919 Y-0.0956
X2.9137 Y-0.0812
X2.9357 Y-0.0673
X2.9581 Y-0.054
X2.9808 Y-0.0412
X3.0038 Y-0.029
X3.0271 Y-0.0174
X3.0507 Y-0.0063
X3.0745 Y0.0043
X3.0986 Y0.0142
X3.1229 Y0.0236
X3.1474 Y0.0324
X3.1721 Y0.0406
X3.1971 Y0.0482
X3.2222 Y0.0552
X3.2474 Y0.0616
X3.2728 Y0.0673
X3.2983 Y0.0725
X3.324 Y0.0771
X3.3497 Y0.081
X3.3756 Y0.0843
X3.4015 Y0.087
X3.4275 Y0.0891
X3.4535 Y0.0905
X3.4795 Y0.0913
X3.5055 Y0.0915
X3.5316 Y0.0911
X3.5576 Y0.09
X3.5836 Y0.0883
X3.6096 Y0.086
X3.6354 Y0.0831
X3.6613 Y0.0795
X3.687 Y0.0753
X3.7126 Y0.0705
X3.7381 Y0.0651
X3.7634 Y0.0591
X3.7886 Y0.0525
X3.8136 Y0.0452
X3.8385 Y0.0374
X3.8631 Y0.029
X3.8875 Y0.02
X3.9118 Y0.0104
X3.9357 Y0.0002
X3.9595 Y-0.0106
X3.9829 Y-0.0219
X4.0061 Y-0.0338
X4.029 Y-0.0462
X4.0516 Y-0.0592
X4.0738 Y-0.0727
X4.0958 Y-0.0868
X4.1174 Y-0.1014
X4.1386 Y-0.1165
X4.1594 Y-0.1321
X4.1799 Y-0.1482
X4.2 Y-0.1647
X4.2197 Y-0.1818
X4.239 Y-0.1993
X4.2578 Y-0.2173
X4.2762 Y-0.2358
X4.2942 Y-0.2546
X4.3116 Y-0.274
X4.3287 Y-0.2937
X4.3452 Y-0.3138
X4.3613 Y-0.3343
X4.3768 Y-0.3552
X4.3919 Y-0.3765
X4.4064 Y-0.3981
X4.4204 Y-0.42
X4.4339 Y-0.4423
X4.4468 Y-0.4649
X4.4592 Y-0.4878
X4.4711 Y-0.5111
X4.4824 Y-0.5345
X4.4931 Y-0.5583
X4.5032 Y-0.5823
X4.5127 Y-0.6065
X4.5217 Y-0.631
X4.5301 Y-0.6556
X4.5379 Y-0.6805
X4.5451 Y-0.7055
X4.5516 Y-0.7307
X4.5576 Y-0.7561
X4.563 Y-0.7816
X4.5677 Y-0.8072
X4.5718 Y-0.8329
X4.5753 Y-0.8587
X4.5782 Y-0.8846
X4.5805 Y-0.9106
X4.5821 Y-0.9366
X4.5831 Y-0.9626
X4.5835 Y-0.9887
X4.5833 Y-1.0147
X4.5824 Y-1.0407
X4.5809 Y-1.0667
X4.5788 Y-1.0927
X4.576 Y-1.1186
X4.5727 Y-1.1444
X4.5687 Y-1.1702
X4.5641 Y-1.1958
X4.5589 Y-1.2213
X4.553 Y-1.2467
X4.5466 Y-1.272
X4.5395 Y-1.2971
X4.5319 Y-1.322
X4.5236 Y-1.3467
X4.5148 Y-1.3712
X4.5054 Y-1.3955
X4.4954 Y-1.4195
X4.4848 Y-1.4433
X4.4737 Y-1.4669
X4.4619 Y-1.4901
X4.4497 Y-1.5131
X4.4369 Y-1.5358
X4.4235 Y-1.5581
X4.4096 Y-1.5802
X4.3952 Y-1.6019
X4.3803 Y-1.6232
X4.3648 Y-1.6442
X4.3489 Y-1.6648
X4.3324 Y-1.685
X4.3155 Y-1.7048
X4.2981 Y-1.7242
G2 X3.1207 Y-1.9442 I-0.7772 J0.8988
X3.879 Y-0.0408 I0.3791 J0.9517
X4.3323 Y-1.5896 I-0.3791 J-0.9517
X2.8719 Y-1.7257 I-0.8008 J0.6894
X4.1321 Y-0.2609 I0.6302 J0.7324
X4.2575 Y-1.5828 I-0.6336 J-0.727
X2.9257 Y-1.6916 I-0.726 J0.6813
X4.0641 Y-0.2833 I0.5765 J0.6983
X4.2381 Y-1.506 I-0.5646 J-0.7041
X2.8901 Y-1.5746 I-0.7056 J0.5852
X4.1112 Y-0.4119 I0.6106 J0.5813
X4.3056 Y-0.7428 I-0.6106 J-0.5813
X3.5223 Y-1.7723 I-0.75 J-0.2421
X3.4796 Y-0.2138 I-0.0214 J0.7793
X4.2703 Y-1.1183 I0.0214 J-0.7793
X3.1194 Y-1.5924 I-0.7378 J0.157
X3.8798 Y-0.3866 I0.3802 J0.6029
X4.175 Y-1.2173 I-0.3802 J-0.6029
X2.8983 Y-1.2375 I-0.6426 J0.2612
X4.0998 Y-0.7487 I0.6007 J0.2444
X4.144 Y-1.061 I-0.6007 J-0.2444
X2.9371 Y-1.135 I-0.6118 J0.0977
X4.0509 Y-0.8135 I0.5627 J0.1406
X3.6528 Y-1.499 I-0.5185 J-0.1572
X2.9969 Y-1.0539 I-0.1205 J0.5283
X3.998 Y-0.9174 I0.5016 J0.0603
X3.1106 Y-1.1693 I-0.4657 J-0.0485
X3.7401 Y-0.6428 I0.3916 J0.1715
X3.3611 Y-1.308 I-0.2124 J-0.3196
X3.3921 Y-0.6858 I0.1531 J0.3042
X3.7877 Y-0.9201 I0.1003 J-0.2818
X3.5844 Y-1.1993 I-0.2516 J-0.0304
X3.4621 Y-1.1678 I-0.0062 J0.2293
G3 X3.4323 Y-1.1617 I-0.0246 J-0.0435
G1 X3.4268 Y-1.1622 Z1.8904
X3.4213 Y-1.1628 Z1.8914
X3.4159 Y-1.1634 Z1.8929
X3.4107 Y-1.1639 Z1.8951
X3.4059 Y-1.1644 Z1.8978
X3.4013 Y-1.1649 Z1.901
X3.3972 Y-1.1653 Z1.9047
X3.3934 Y-1.1657 Z1.9089
X3.3902 Y-1.1661 Z1.9135
X3.3875 Y-1.1664 Z1.9184
X3.3854 Y-1.1666 Z1.9236
X3.3838 Y-1.1667 Z1.929
X3.3829 Y-1.1668 Z1.9345
X3.3826 Y-1.1669 Z1.9401
G0 Z2.14
(2D CONTOUR1 6)
G0 X4.84 Y-0.94
Z2.08
Z1.1
G18 G3 X4.79 Z1.05 I-0.05 K0. F27.
G1 X4.74
G17 G3 X4.69 Y-0.99 I0. J-0.05
G2 X2.31 I-1.19 J0.
X3.51 Y0.2 I1.19 J0.
X4.6898 Y-1.01 I-0.01 J-1.19
G3 X4.739 Y-1.0608 I0.05 J-0.0008
G1 X4.789 Y-1.0617
X4.7946 Y-1.0618 Z1.0503
X4.8001 Y-1.0619 Z1.0513
X4.8055 Y-1.062 Z1.0528
X4.8107 Z1.055
X4.8156 Y-1.0621 Z1.0577
X4.8201 Y-1.0622 Z1.0609
X4.8243 Y-1.0623 Z1.0646
X4.8281 Z1.0688
X4.8313 Y-1.0624 Z1.0734
X4.834 Z1.0783
X4.8362 Y-1.0625 Z1.0835
X4.8377 Z1.0889
X4.8387 Z1.0944
X4.839 Z1.1
G0 Z2.08
M5
G53 G0 Z0.
(2D ADAPTIVE4 2)
M9
M1
T5 M6
S6000 M3
G54
M8
G0 X3.6518 Y-1.0832
G43 Z2.08 H5
G0 Z1.9305
G3 X3.3483 Y-0.8968 Z1.911 I-0.1518 J0.0932 F54.
X3.6518 Y-1.0832 Z1.8914 I0.1518 J-0.0932
X3.3483 Y-0.8968 Z1.8719 I-0.1518 J0.0932
X3.6518 Y-1.0832 Z1.8523 I0.1518 J-0.0932
X3.3483 Y-0.8968 Z1.8328 I-0.1518 J0.0932
X3.6518 Y-1.0832 Z1.8133 I0.1518 J-0.0932
X3.3483 Y-0.8968 Z1.7937 I-0.1518 J0.0932
X3.6518 Y-1.0832 Z1.7742 I0.1518 J-0.0932
X3.3483 Y-0.8968 Z1.7546 I-0.1518 J0.0932
X3.6518 Y-1.0832 Z1.7351 I0.1518 J-0.0932
X3.3483 Y-0.8968 Z1.7155 I-0.1518 J0.0932
X3.6518 Y-1.0832 Z1.696 I0.1518 J-0.0932
X3.3483 Y-0.8968 Z1.6765 I-0.1518 J0.0932
X3.6518 Y-1.0832 Z1.6569 I0.1518 J-0.0932
X3.3483 Y-0.8968 Z1.6374 I-0.1518 J0.0932
X3.6518 Y-1.0832 Z1.6178 I0.1518 J-0.0932
X3.6782 Y-0.99 Z1.6144 I-0.1518 J0.0932
X3.3219 I-0.1781 J0.
X3.6782 I0.1781 J0.
G1 X3.6783 Y-0.9672 F72.
G3 X3.6345 Y-0.8561 I-0.1319 J0.0122
X3.3119 Y-0.9571 I-0.136 J-0.1315
X3.4682 Y-1.1791 I0.1882 J-0.0335
X3.6889 Y-1.0209 I0.0319 J0.1885
X3.5341 Y-0.7885 I-0.1802 J0.0478
X3.465 Y-1.1928 I-0.0345 J-0.2022
X3.692 Y-1.0616 I0.0345 J0.2022
X3.472 Y-0.7729 I-0.1886 J0.0844
X3.5272 Y-1.2084 I0.0276 J-0.2177
X3.6976 Y-1.0853 I-0.0276 J0.2177
X3.4378 Y-0.7648 I-0.196 J0.1067
X3.5613 Y-1.2167 I0.0617 J-0.2259
X3.6902 Y-1.1268 I-0.0617 J0.2259
G1 X3.6924 Y-1.123
X3.6942 Y-1.119
X3.6955 Y-1.1149
X3.6963 Y-1.1106
X3.6965 Y-1.1062
X3.6963 Y-1.1018
X3.6955 Y-1.0974
G3 X3.6333 Y-1.0796 I-0.0363 J-0.0093 F354.
G1 X3.5834 Y-1.1272
G3 X3.5987 Y-1.1904 I0.0259 J-0.0272
X3.6285 Y-1.1866 I0.0106 J0.036 F72.
G1 X3.6338 Y-1.1831
G3 X3.3661 Y-0.7968 I-0.1339 J0.1932
X3.6268 Y-1.1878 I0.1339 J-0.1932
G1 X3.6303 Y-1.185
X3.6334 Y-1.1819
X3.6361 Y-1.1784
X3.6384 Y-1.1746
X3.6403 Y-1.1706
X3.6416 Y-1.1664
X3.6425 Y-1.162
X3.6431 Y-1.1575 Z1.6147
X3.6437 Y-1.1531 Z1.6155
X3.6443 Y-1.1489 Z1.6168
X3.6449 Y-1.1448 Z1.6187
X3.6454 Y-1.1409 Z1.621
X3.6459 Y-1.1374 Z1.6238
X3.6463 Y-1.1342 Z1.627
X3.6467 Y-1.1315 Z1.6306
X3.647 Y-1.1291 Z1.6345
X3.6473 Y-1.1273 Z1.6386
X3.6475 Y-1.126 Z1.6429
X3.6476 Y-1.1251 Z1.6474
Y-1.1249 Z1.6519
G0 Z2.08
(2D ADAPTIVE4 3)
G0 X3.4342 Y-1.0671
Z2.08
Z1.6549
G3 X3.5658 Y-0.9127 Z1.6438 I0.0658 J0.0772 F54.
X3.4342 Y-1.0671 Z1.6326 I-0.0658 J-0.0772
X3.5658 Y-0.9127 Z1.6215 I0.0658 J0.0772
X3.4342 Y-1.0671 Z1.6104 I-0.0658 J-0.0772
X3.5658 Y-0.9127 Z1.5993 I0.0658 J0.0772
X3.4342 Y-1.0671 Z1.5881 I-0.0658 J-0.0772
X3.5658 Y-0.9127 Z1.577 I0.0658 J0.0772
X3.4342 Y-1.0671 Z1.5659 I-0.0658 J-0.0772
X3.5658 Y-0.9127 Z1.5547 I0.0658 J0.0772
X3.4342 Y-1.0671 Z1.5436 I-0.0658 J-0.0772
X3.5658 Y-0.9127 Z1.5325 I0.0658 J0.0772
X3.4342 Y-1.0671 Z1.5213 I-0.0658 J-0.0772
X3.5658 Y-0.9127 Z1.5102 I0.0658 J0.0772
X3.4342 Y-1.0671 Z1.4991 I-0.0658 J-0.0772
X3.5658 Y-0.9127 Z1.488 I0.0658 J0.0772
X3.4342 Y-1.0671 Z1.4768 I-0.0658 J-0.0772
X3.5658 Y-0.9127 Z1.4657 I0.0658 J0.0772
X3.4342 Y-1.0671 Z1.4546 I-0.0658 J-0.0772
X3.5658 Y-0.9127 Z1.4434 I0.0658 J0.0772
X3.4342 Y-1.0671 Z1.4323 I-0.0658 J-0.0772
X3.5658 Y-0.9127 Z1.4212 I0.0658 J0.0772
X3.4342 Y-1.0671 Z1.41 I-0.0658 J-0.0772
X3.5658 Y-0.9127 Z1.3989 I0.0658 J0.0772
X3.4342 Y-1.0671 Z1.3878 I-0.0658 J-0.0772
X3.5658 Y-0.9127 Z1.3767 I0.0658 J0.0772
X3.4342 Y-1.0671 Z1.3655 I-0.0658 J-0.0772
X3.5658 Y-0.9127 Z1.3544 I0.0658 J0.0772
X3.4342 Y-1.0671 Z1.3433 I-0.0658 J-0.0772
X3.5658 Y-0.9127 Z1.3321 I0.0658 J0.0772
X3.4342 Y-1.0671 Z1.321 I-0.0658 J-0.0772
X3.5658 Y-0.9127 Z1.3099 I0.0658 J0.0772
X3.4342 Y-1.0671 Z1.2987 I-0.0658 J-0.0772
X3.5658 Y-0.9127 Z1.2876 I0.0658 J0.0772
X3.4342 Y-1.0671 Z1.2765 I-0.0658 J-0.0772
X3.5658 Y-0.9127 Z1.2654 I0.0658 J0.0772
X3.4342 Y-1.0671 Z1.2542 I-0.0658 J-0.0772
X3.5658 Y-0.9127 Z1.2431 I0.0658 J0.0772
X3.4342 Y-1.0671 Z1.232 I-0.0658 J-0.0772
X3.5658 Y-0.9127 Z1.2208 I0.0658 J0.0772
X3.4342 Y-1.0671 Z1.2097 I-0.0658 J-0.0772
X3.5658 Y-0.9127 Z1.1986 I0.0658 J0.0772
X3.4342 Y-1.0671 Z1.1874 I-0.0658 J-0.0772
X3.5658 Y-0.9127 Z1.1763 I0.0658 J0.0772
X3.4342 Y-1.0671 Z1.1652 I-0.0658 J-0.0772
X3.5658 Y-0.9127 Z1.1541 I0.0658 J0.0772
X3.4342 Y-1.0671 Z1.1429 I-0.0658 J-0.0772
X3.5658 Y-0.9127 Z1.1318 I0.0658 J0.0772
X3.4342 Y-1.0671 Z1.1207 I-0.0658 J-0.0772
X3.5658 Y-0.9127 Z1.1095 I0.0658 J0.0772
X3.4342 Y-1.0671 Z1.0984 I-0.0658 J-0.0772
X3.5658 Y-0.9127 Z1.0873 I0.0658 J0.0772
X3.4342 Y-1.0671 Z1.0761 I-0.0658 J-0.0772
X3.5658 Y-0.9127 Z1.065 I0.0658 J0.0772
X3.4342 Y-1.0671 Z1.0539 I-0.0658 J-0.0772
X3.5658 Y-0.9127 Z1.0428 I0.0658 J0.0772
X3.4342 Y-1.0671 Z1.0316 I-0.0658 J-0.0772
X3.5658 Y-0.9127 Z1.0205 I0.0658 J0.0772
X3.4342 Y-1.0671 Z1.0094 I-0.0658 J-0.0772
X3.5658 Y-0.9127 Z0.9982 I0.0658 J0.0772
X3.4342 Y-1.0671 Z0.9871 I-0.0658 J-0.0772
X3.5658 Y-0.9127 Z0.976 I0.0658 J0.0772
X3.4342 Y-1.0671 Z0.9648 I-0.0658 J-0.0772
X3.5658 Y-0.9127 Z0.9537 I0.0658 J0.0772
X3.4342 Y-1.0671 Z0.9426 I-0.0658 J-0.0772
X3.5658 Y-0.9127 Z0.9315 I0.0658 J0.0772
X3.4342 Y-1.0671 Z0.9203 I-0.0658 J-0.0772
X3.5658 Y-0.9127 Z0.9092 I0.0658 J0.0772
X3.4342 Y-1.0671 Z0.8981 I-0.0658 J-0.0772
X3.6015 Y-0.9899 Z0.89 I0.0658 J0.0772
X3.3985 I-0.1015 J0.
X3.6015 I0.1015 J0.
G1 X3.6016 Y-0.9671 F72.
G3 X3.5121 Y-0.8803 I-0.094 J-0.0075
X3.487 Y-1.1008 I-0.0126 J-0.1102
X3.6075 Y-1.0162 I0.0126 J0.1102
X3.4526 Y-0.8841 I-0.1058 J0.0328
X3.5475 Y-1.0971 I0.0475 J-0.1065
X3.5909 Y-0.9174 I-0.0475 J0.1065
G1 X3.5879 Y-0.9142
X3.5846 Y-0.9114
X3.5809 Y-0.909
X3.577 Y-0.907
X3.5729 Y-0.9055
X3.5686 Y-0.9045
X3.5642 Y-0.904
X3.5597 Y-0.9038 Z0.8903
X3.5553 Y-0.9037 Z0.8911
X3.5509 Y-0.9035 Z0.8924
X3.5468 Y-0.9034 Z0.8943
X3.5429 Y-0.9033 Z0.8966
X3.5394 Y-0.9031 Z0.8994
X3.5362 Y-0.903 Z0.9026
X3.5334 Y-0.9029 Z0.9062
X3.531 Y-0.9028 Z0.9101
X3.5292 Z0.9142
X3.5278 Y-0.9027 Z0.9185
X3.527 Z0.923
X3.5268 Z0.9275
G0 Z2.08
(2D CONTOUR2 2)
G0 X3.6331 Y-1.0275
Z2.08
Z1.6438
G1 Z1.6419 F18.
G18 G2 X3.6706 Z1.6044 I0.0375 K0.
G1 X3.7081
G17 G3 X3.7456 Y-0.99 I0. J0.0375
X3.2544 I-0.2456 J0.
X3.7456 I0.2456 J0.
X3.7081 Y-0.9525 I-0.0375 J0.
G1 X3.6706
G18 G3 X3.6331 Z1.6419 I0. K0.0375
G0 Z2.08
X3.515 Y-1.0275
Z0.9394
G1 Z0.9375 F18.
G2 X3.5525 Z0.9 I0.0375 K0.
G1 X3.59
G17 G3 X3.6275 Y-0.99 I0. J0.0375
X3.3725 I-0.1275 J0.
X3.6275 I0.1275 J0.
X3.59 Y-0.9525 I-0.0375 J0.
G1 X3.5525
G18 G3 X3.515 Z0.9375 I0. K0.0375
G0 Z2.08
G17
G53 G0 Z0.
(2D ADAPTIVE4)
G55
G0 X3.3219 Y-0.9957
G43 Z2.08 H5
G0 Z1.9805
G3 X3.678 Y-0.9843 Z1.961 I0.178 J0.0057 F54.
X3.3219 Y-0.9957 Z1.9414 I-0.178 J-0.0057
X3.678 Y-0.9843 Z1.9219 I0.178 J0.0057
X3.3219 Y-0.9957 Z1.9023 I-0.178 J-0.0057
X3.678 Y-0.9843 Z1.8828 I0.178 J0.0057
X3.3219 Y-0.9957 Z1.8633 I-0.178 J-0.0057
X3.678 Y-0.9843 Z1.8437 I0.178 J0.0057
X3.3219 Y-0.9957 Z1.8242 I-0.178 J-0.0057
X3.678 Y-0.9843 Z1.8046 I0.178 J0.0057
X3.3219 Y-0.9957 Z1.7851 I-0.178 J-0.0057
X3.678 Y-0.9843 Z1.7655 I0.178 J0.0057
X3.3219 Y-0.9957 Z1.746 I-0.178 J-0.0057
X3.678 Y-0.9843 Z1.7265 I0.178 J0.0057
X3.3219 Y-0.9957 Z1.7069 I-0.178 J-0.0057
X3.678 Y-0.9843 Z1.6874 I0.178 J0.0057
X3.3219 Y-0.9957 Z1.6678 I-0.178 J-0.0057
X3.678 Y-0.9843 Z1.6483 I0.178 J0.0057
X3.3219 Y-0.9957 Z1.6288 I-0.178 J-0.0057
X3.6781 Y-0.99 Z1.6094 I0.178 J0.0057
X3.3218 I-0.1781 J0.
X3.6781 I0.1781 J0.
G1 X3.6782 Y-0.9675 F72.
G3 X3.6355 Y-0.8572 I-0.1315 J0.0125
X3.309 Y-0.995 I-0.137 J-0.1309
X3.6897 Y-1.0149 I0.1911 J0.0043
X3.5509 Y-0.7921 I-0.1791 J0.043
X3.4477 Y-1.1891 I-0.0516 J-0.1985
X3.6835 Y-1.0808 I0.0516 J0.1985
X3.4298 Y-0.7827 I-0.1821 J0.1021
X3.5694 Y-1.1988 I0.0698 J-0.2081
X3.6994 Y-1.0814 I-0.0698 J0.2081
X3.4454 Y-0.7628 I-0.1976 J0.103
X3.5536 Y-1.2186 I0.0541 J-0.2279
X3.6992 Y-1.1131 I-0.0541 J0.2279
X3.6107 Y-0.7781 I-0.1895 J0.1291
X3.388 Y-1.2025 I-0.1114 J-0.2122
X3.6521 Y-1.1749 I0.1114 J0.2122
X3.7395 Y-0.9783 I-0.1467 J0.1829
G1 X3.7389 Y-0.974
X3.7378 Y-0.9697
X3.7363 Y-0.9656
X3.7342 Y-0.9617
X3.7317 Y-0.958
X3.7288 Y-0.9547
X3.7255 Y-0.9518
X3.722 Y-0.949 Z1.6097
X3.7185 Y-0.9462 Z1.6105
X3.7151 Y-0.9435 Z1.6118
X3.7119 Y-0.9409 Z1.6137
X3.7088 Y-0.9385 Z1.616
X3.706 Y-0.9363 Z1.6188
X3.7035 Y-0.9343 Z1.622
X3.7013 Y-0.9326 Z1.6256
X3.6995 Y-0.9312 Z1.6295
X3.698 Y-0.93 Z1.6336
X3.697 Y-0.9292 Z1.6379
X3.6963 Y-0.9287 Z1.6424
X3.6961 Y-0.9285 Z1.6469
G0 Z2.08
(2D ADAPTIVE4 4)
G0 X3.5541 Y-1.0809
Z2.08
Z1.7049
G3 X3.4459 Y-0.8991 Z1.6933 I-0.0541 J0.0909 F54.
X3.5541 Y-1.0809 Z1.6817 I0.0541 J-0.0909
X3.4459 Y-0.8991 Z1.6701 I-0.0541 J0.0909
X3.5541 Y-1.0809 Z1.6585 I0.0541 J-0.0909
X3.4459 Y-0.8991 Z1.6469 I-0.0541 J0.0909
X3.5541 Y-1.0809 Z1.6353 I0.0541 J-0.0909
X3.4459 Y-0.8991 Z1.6237 I-0.0541 J0.0909
X3.5541 Y-1.0809 Z1.6121 I0.0541 J-0.0909
X3.4459 Y-0.8991 Z1.6004 I-0.0541 J0.0909
X3.5541 Y-1.0809 Z1.5888 I0.0541 J-0.0909
X3.4459 Y-0.8991 Z1.5772 I-0.0541 J0.0909
X3.5541 Y-1.0809 Z1.5656 I0.0541 J-0.0909
X3.4459 Y-0.8991 Z1.554 I-0.0541 J0.0909
X3.5541 Y-1.0809 Z1.5424 I0.0541 J-0.0909
X3.4459 Y-0.8991 Z1.5308 I-0.0541 J0.0909
X3.5541 Y-1.0809 Z1.5192 I0.0541 J-0.0909
X3.4459 Y-0.8991 Z1.5076 I-0.0541 J0.0909
X3.5541 Y-1.0809 Z1.496 I0.0541 J-0.0909
X3.4459 Y-0.8991 Z1.4844 I-0.0541 J0.0909
X3.5541 Y-1.0809 Z1.4728 I0.0541 J-0.0909
X3.4459 Y-0.8991 Z1.4612 I-0.0541 J0.0909
X3.5541 Y-1.0809 Z1.4495 I0.0541 J-0.0909
X3.4459 Y-0.8991 Z1.4379 I-0.0541 J0.0909
X3.5541 Y-1.0809 Z1.4263 I0.0541 J-0.0909
X3.4459 Y-0.8991 Z1.4147 I-0.0541 J0.0909
X3.5541 Y-1.0809 Z1.4031 I0.0541 J-0.0909
X3.4459 Y-0.8991 Z1.3915 I-0.0541 J0.0909
X3.5541 Y-1.0809 Z1.3799 I0.0541 J-0.0909
X3.4459 Y-0.8991 Z1.3683 I-0.0541 J0.0909
X3.5541 Y-1.0809 Z1.3567 I0.0541 J-0.0909
X3.4459 Y-0.8991 Z1.3451 I-0.0541 J0.0909
X3.5541 Y-1.0809 Z1.3335 I0.0541 J-0.0909
X3.4459 Y-0.8991 Z1.3219 I-0.0541 J0.0909
X3.5541 Y-1.0809 Z1.3103 I0.0541 J-0.0909
X3.4459 Y-0.8991 Z1.2987 I-0.0541 J0.0909
X3.5541 Y-1.0809 Z1.287 I0.0541 J-0.0909
X3.4459 Y-0.8991 Z1.2754 I-0.0541 J0.0909
X3.5541 Y-1.0809 Z1.2638 I0.0541 J-0.0909
X3.4459 Y-0.8991 Z1.2522 I-0.0541 J0.0909
X3.5541 Y-1.0809 Z1.2406 I0.0541 J-0.0909
X3.4459 Y-0.8991 Z1.229 I-0.0541 J0.0909
X3.5541 Y-1.0809 Z1.2174 I0.0541 J-0.0909
X3.4459 Y-0.8991 Z1.2058 I-0.0541 J0.0909
X3.5541 Y-1.0809 Z1.1942 I0.0541 J-0.0909
X3.4459 Y-0.8991 Z1.1826 I-0.0541 J0.0909
X3.5541 Y-1.0809 Z1.171 I0.0541 J-0.0909
X3.4459 Y-0.8991 Z1.1594 I-0.0541 J0.0909
X3.5541 Y-1.0809 Z1.1478 I0.0541 J-0.0909
X3.4459 Y-0.8991 Z1.1361 I-0.0541 J0.0909
X3.5541 Y-1.0809 Z1.1245 I0.0541 J-0.0909
X3.4459 Y-0.8991 Z1.1129 I-0.0541 J0.0909
X3.5541 Y-1.0809 Z1.1013 I0.0541 J-0.0909
X3.4459 Y-0.8991 Z1.0897 I-0.0541 J0.0909
X3.5541 Y-1.0809 Z1.0781 I0.0541 J-0.0909
X3.4459 Y-0.8991 Z1.0665 I-0.0541 J0.0909
X3.5541 Y-1.0809 Z1.0549 I0.0541 J-0.0909
X3.4459 Y-0.8991 Z1.0433 I-0.0541 J0.0909
X3.5541 Y-1.0809 Z1.0317 I0.0541 J-0.0909
X3.4459 Y-0.8991 Z1.0201 I-0.0541 J0.0909
X3.5541 Y-1.0809 Z1.0085 I0.0541 J-0.0909
X3.4459 Y-0.8991 Z0.9969 I-0.0541 J0.0909
X3.5541 Y-1.0809 Z0.9853 I0.0541 J-0.0909
X3.4459 Y-0.8991 Z0.9736 I-0.0541 J0.0909
X3.5541 Y-1.0809 Z0.962 I0.0541 J-0.0909
X3.4459 Y-0.8991 Z0.9504 I-0.0541 J0.0909
X3.5541 Y-1.0809 Z0.9388 I0.0541 J-0.0909
X3.6058 Y-0.99 Z0.935 I-0.0541 J0.0909
X3.3942 I-0.1058 J0.
X3.6058 I0.1058 J0.
G1 X3.6059 Y-0.9675 F72.
G3 X3.5238 Y-0.8777 I-0.0962 J-0.0056
X3.4752 Y-1.1036 I-0.0243 J-0.1129
X3.612 Y-1.0168 I0.0243 J0.1129
X3.4094 Y-0.9098 I-0.1125 J0.0323
X3.5911 Y-1.0713 I0.0908 J-0.0808
X3.577 Y-0.8963 I-0.0908 J0.0808
G1 X3.5735 Y-0.8938
X3.5696 Y-0.8917
X3.5655 Y-0.8901
X3.5613 Y-0.889
X3.557 Y-0.8884
X3.5526 Y-0.8883
X3.5482 Y-0.8887
X3.5437 Y-0.8895 Z0.9353
X3.5393 Y-0.8902 Z0.9361
X3.5351 Y-0.891 Z0.9374
X3.531 Y-0.8917 Z0.9393
X3.5272 Y-0.8924 Z0.9416
X3.5237 Y-0.893 Z0.9444
X3.5205 Y-0.8935 Z0.9476
X3.5178 Y-0.894 Z0.9512
X3.5155 Y-0.8944 Z0.9551
X3.5136 Y-0.8947 Z0.9592
X3.5123 Y-0.8949 Z0.9635
X3.5115 Y-0.8951 Z0.968
X3.5112 Z0.9725
G0 Z2.08
(2D CONTOUR2)
G0 X3.6331 Y-1.0275
Z2.08
Z1.6438
G1 Z1.6419 F18.
G18 G2 X3.6706 Z1.6044 I0.0375 K0.
G1 X3.7081
G17 G3 X3.7456 Y-0.99 I0. J0.0375
X3.2544 I-0.2456 J0.
X3.7456 I0.2456 J0.
X3.7081 Y-0.9525 I-0.0375 J0.
G1 X3.6706
G18 G3 X3.6331 Z1.6419 I0. K0.0375
G0 Z2.08
X3.515 Y-1.0275
Z0.9894
G1 Z0.9875 F18.
G2 X3.5525 Z0.95 I0.0375 K0.
G1 X3.59
G17 G3 X3.6275 Y-0.99 I0. J0.0375
X3.3725 I-0.1275 J0.
X3.6275 I0.1275 J0.
X3.59 Y-0.9525 I-0.0375 J0.
G1 X3.5525
G18 G3 X3.515 Z0.9875 I0. K0.0375
G0 Z2.08
G17
M5
G53 G0 Z0.
(2D ADAPTIVE5)
M9
M1
T2 M6
S6000 M3
G55
M8
G0 X0.3014 Y-1.6763
G43 Z2.08 H2
G0 Z1.0705
G3 X0.2516 Y-1.7305 Z1.0665 I-0.0249 J-0.0271 F36.
X0.3014 Y-1.6763 Z1.0624 I0.0249 J0.0271
X0.2516 Y-1.7305 Z1.0584 I-0.0249 J-0.0271
X0.3014 Y-1.6763 Z1.0544 I0.0249 J0.0271
X0.2516 Y-1.7305 Z1.0503 I-0.0249 J-0.0271
X0.3014 Y-1.6763 Z1.0463 I0.0249 J0.0271
X0.2516 Y-1.7305 Z1.0422 I-0.0249 J-0.0271
X0.3014 Y-1.6763 Z1.0382 I0.0249 J0.0271
X0.2516 Y-1.7305 Z1.0342 I-0.0249 J-0.0271
X0.3014 Y-1.6763 Z1.0301 I0.0249 J0.0271
X0.2516 Y-1.7305 Z1.0261 I-0.0249 J-0.0271
X0.3014 Y-1.6763 Z1.0221 I0.0249 J0.0271
X0.2516 Y-1.7305 Z1.018 I-0.0249 J-0.0271
X0.3014 Y-1.6763 Z1.014 I0.0249 J0.0271
X0.2516 Y-1.7305 Z1.01 I-0.0249 J-0.0271
X0.3014 Y-1.6763 Z1.0059 I0.0249 J0.0271
X0.2516 Y-1.7305 Z1.0019 I-0.0249 J-0.0271
X0.3014 Y-1.6763 Z0.9979 I0.0249 J0.0271
X0.2516 Y-1.7305 Z0.9938 I-0.0249 J-0.0271
X0.3014 Y-1.6763 Z0.9898 I0.0249 J0.0271
X0.2516 Y-1.7305 Z0.9857 I-0.0249 J-0.0271
X0.3014 Y-1.6763 Z0.9817 I0.0249 J0.0271
X0.2516 Y-1.7305 Z0.9777 I-0.0249 J-0.0271
X0.3014 Y-1.6763 Z0.9736 I0.0249 J0.0271
X0.2516 Y-1.7305 Z0.9696 I-0.0249 J-0.0271
X0.3014 Y-1.6763 Z0.9656 I0.0249 J0.0271
X0.2516 Y-1.7305 Z0.9615 I-0.0249 J-0.0271
X0.3014 Y-1.6763 Z0.9575 I0.0249 J0.0271
X0.2516 Y-1.7305 Z0.9535 I-0.0249 J-0.0271
X0.3014 Y-1.6763 Z0.9494 I0.0249 J0.0271
X0.2516 Y-1.7305 Z0.9454 I-0.0249 J-0.0271
X0.3014 Y-1.6763 Z0.9413 I0.0249 J0.0271
X0.2516 Y-1.7305 Z0.9373 I-0.0249 J-0.0271
X0.3014 Y-1.6763 Z0.9333 I0.0249 J0.0271
X0.2516 Y-1.7305 Z0.9292 I-0.0249 J-0.0271
X0.3014 Y-1.6763 Z0.9252 I0.0249 J0.0271
X0.2516 Y-1.7305 Z0.9212 I-0.0249 J-0.0271
X0.3014 Y-1.6763 Z0.9171 I0.0249 J0.0271
X0.2516 Y-1.7305 Z0.9131 I-0.0249 J-0.0271
X0.3014 Y-1.6763 Z0.9091 I0.0249 J0.0271
X0.2516 Y-1.7305 Z0.905 I-0.0249 J-0.0271
X0.3014 Y-1.6763 Z0.901 I0.0249 J0.0271
X0.2516 Y-1.7305 Z0.897 I-0.0249 J-0.0271
X0.3014 Y-1.6763 Z0.8929 I0.0249 J0.0271
X0.2516 Y-1.7305 Z0.8889 I-0.0249 J-0.0271
X0.3014 Y-1.6763 Z0.8848 I0.0249 J0.0271
X0.2516 Y-1.7305 Z0.8808 I-0.0249 J-0.0271
X0.3133 Y-1.7034 Z0.8778 I0.0249 J0.0271
X0.2397 I-0.0368 J0.
X0.3133 I0.0368 J0.
G1 X0.3135 Y-1.6901 F45.
G3 X0.2584 Y-1.666 I-0.0358 J-0.0068
X0.2948 Y-1.742 I0.0182 J-0.038
X0.3069 Y-1.6747 I-0.0182 J0.038
G1 X0.3048 Y-1.6725
X0.3024 Y-1.6708
X0.2997 Y-1.6694
X0.2968 Y-1.6685
X0.2935 Y-1.6682 Z0.8781
X0.2908 Y-1.6687 Z0.8789
X0.2884 Y-1.6692 Z0.88
X0.286 Y-1.6697 Z0.8814
X0.2841 Y-1.6711 Z0.8835
X0.2824 Y-1.6722 Z0.886
X0.2812 Y-1.6731 Z0.8888
X0.2803 Y-1.6737 Z0.8918
X0.2798 Y-1.6741 Z0.8949
Z0.8966
G0 Z1.98
X0.3013 Y-0.2493
Z1.0705
G3 X0.2518 Y-0.3038 Z1.0665 I-0.0247 J-0.0272 F36.
X0.3013 Y-0.2493 Z1.0624 I0.0247 J0.0272
X0.2518 Y-0.3038 Z1.0584 I-0.0247 J-0.0272
X0.3013 Y-0.2493 Z1.0544 I0.0247 J0.0272
X0.2518 Y-0.3038 Z1.0503 I-0.0247 J-0.0272
X0.3013 Y-0.2493 Z1.0463 I0.0247 J0.0272
X0.2518 Y-0.3038 Z1.0422 I-0.0247 J-0.0272
X0.3013 Y-0.2493 Z1.0382 I0.0247 J0.0272
X0.2518 Y-0.3038 Z1.0342 I-0.0247 J-0.0272
X0.3013 Y-0.2493 Z1.0301 I0.0247 J0.0272
X0.2518 Y-0.3038 Z1.0261 I-0.0247 J-0.0272
X0.3013 Y-0.2493 Z1.0221 I0.0247 J0.0272
X0.2518 Y-0.3038 Z1.018 I-0.0247 J-0.0272
X0.3013 Y-0.2493 Z1.014 I0.0247 J0.0272
X0.2518 Y-0.3038 Z1.01 I-0.0247 J-0.0272
X0.3013 Y-0.2493 Z1.0059 I0.0247 J0.0272
X0.2518 Y-0.3038 Z1.0019 I-0.0247 J-0.0272
X0.3013 Y-0.2493 Z0.9978 I0.0247 J0.0272
X0.2518 Y-0.3038 Z0.9938 I-0.0247 J-0.0272
X0.3013 Y-0.2493 Z0.9898 I0.0247 J0.0272
X0.2518 Y-0.3038 Z0.9857 I-0.0247 J-0.0272
X0.3013 Y-0.2493 Z0.9817 I0.0247 J0.0272
X0.2518 Y-0.3038 Z0.9777 I-0.0247 J-0.0272
X0.3013 Y-0.2493 Z0.9736 I0.0247 J0.0272
X0.2518 Y-0.3038 Z0.9696 I-0.0247 J-0.0272
X0.3013 Y-0.2493 Z0.9656 I0.0247 J0.0272
X0.2518 Y-0.3038 Z0.9615 I-0.0247 J-0.0272
X0.3013 Y-0.2493 Z0.9575 I0.0247 J0.0272
X0.2518 Y-0.3038 Z0.9535 I-0.0247 J-0.0272
X0.3013 Y-0.2493 Z0.9494 I0.0247 J0.0272
X0.2518 Y-0.3038 Z0.9454 I-0.0247 J-0.0272
X0.3013 Y-0.2493 Z0.9413 I0.0247 J0.0272
X0.2518 Y-0.3038 Z0.9373 I-0.0247 J-0.0272
X0.3013 Y-0.2493 Z0.9333 I0.0247 J0.0272
X0.2518 Y-0.3038 Z0.9292 I-0.0247 J-0.0272
X0.3013 Y-0.2493 Z0.9252 I0.0247 J0.0272
X0.2518 Y-0.3038 Z0.9212 I-0.0247 J-0.0272
X0.3013 Y-0.2493 Z0.9171 I0.0247 J0.0272
X0.2518 Y-0.3038 Z0.9131 I-0.0247 J-0.0272
X0.3013 Y-0.2493 Z0.9091 I0.0247 J0.0272
X0.2518 Y-0.3038 Z0.905 I-0.0247 J-0.0272
X0.3013 Y-0.2493 Z0.901 I0.0247 J0.0272
X0.2518 Y-0.3038 Z0.8969 I-0.0247 J-0.0272
X0.3013 Y-0.2493 Z0.8929 I0.0247 J0.0272
X0.2518 Y-0.3038 Z0.8889 I-0.0247 J-0.0272
X0.3013 Y-0.2493 Z0.8848 I0.0247 J0.0272
X0.2518 Y-0.3038 Z0.8808 I-0.0247 J-0.0272
X0.3133 Y-0.2766 Z0.8778 I0.0247 J0.0272
X0.2398 I-0.0368 J0.
X0.3133 I0.0368 J0.
G1 X0.3135 Y-0.2632 F45.
G3 X0.2611 Y-0.2378 I-0.0356 J-0.0067
X0.2922 Y-0.3163 I0.0155 J-0.0392
X0.3041 Y-0.245 I-0.0155 J0.0392
G1 X0.3014 Y-0.2431
X0.2984 Y-0.2417
X0.2951 Y-0.2409
X0.2917 Y-0.2408
X0.2884 Y-0.2412
X0.2852 Y-0.2422
X0.2822 Y-0.2438
X0.2795 Y-0.246
X0.2773 Y-0.2486
X0.2754 Y-0.2512 Z0.8781
X0.2736 Y-0.2539 Z0.879
X0.272 Y-0.2563 Z0.8803
X0.2705 Y-0.2585 Z0.8822
X0.2691 Y-0.2604 Z0.8845
X0.2681 Y-0.262 Z0.8872
X0.2673 Y-0.2631 Z0.8902
X0.2668 Y-0.2638 Z0.8933
X0.2667 Y-0.264 Z0.8966
G0 Z2.08
(2D ADAPTIVE5 2)
G0 X4.2324 Y-0.9618
Z2.08
Z1.9005
G3 X4.1851 Y-1.0182 Z1.8965 I-0.0236 J-0.0282 F36.
X4.2324 Y-0.9618 Z1.8924 I0.0236 J0.0282
X4.1851 Y-1.0182 Z1.8884 I-0.0236 J-0.0282
X4.2324 Y-0.9618 Z1.8844 I0.0236 J0.0282
X4.1851 Y-1.0182 Z1.8803 I-0.0236 J-0.0282
X4.2324 Y-0.9618 Z1.8763 I0.0236 J0.0282
X4.1851 Y-1.0182 Z1.8722 I-0.0236 J-0.0282
X4.2324 Y-0.9618 Z1.8682 I0.0236 J0.0282
X4.1851 Y-1.0182 Z1.8642 I-0.0236 J-0.0282
X4.2324 Y-0.9618 Z1.8601 I0.0236 J0.0282
X4.1851 Y-1.0182 Z1.8561 I-0.0236 J-0.0282
X4.2324 Y-0.9618 Z1.8521 I0.0236 J0.0282
X4.1851 Y-1.0182 Z1.848 I-0.0236 J-0.0282
X4.2324 Y-0.9618 Z1.844 I0.0236 J0.0282
X4.1851 Y-1.0182 Z1.8399 I-0.0236 J-0.0282
X4.2324 Y-0.9618 Z1.8359 I0.0236 J0.0282
X4.1851 Y-1.0182 Z1.8319 I-0.0236 J-0.0282
X4.2324 Y-0.9618 Z1.8278 I0.0236 J0.0282
X4.1851 Y-1.0182 Z1.8238 I-0.0236 J-0.0282
X4.2324 Y-0.9618 Z1.8198 I0.0236 J0.0282
X4.1851 Y-1.0182 Z1.8157 I-0.0236 J-0.0282
X4.2324 Y-0.9618 Z1.8117 I0.0236 J0.0282
X4.1851 Y-1.0182 Z1.8076 I-0.0236 J-0.0282
X4.2324 Y-0.9618 Z1.8036 I0.0236 J0.0282
X4.1851 Y-1.0182 Z1.7996 I-0.0236 J-0.0282
X4.2324 Y-0.9618 Z1.7955 I0.0236 J0.0282
X4.1851 Y-1.0182 Z1.7915 I-0.0236 J-0.0282
X4.2324 Y-0.9618 Z1.7875 I0.0236 J0.0282
X4.1851 Y-1.0182 Z1.7834 I-0.0236 J-0.0282
X4.2324 Y-0.9618 Z1.7794 I0.0236 J0.0282
X4.1851 Y-1.0182 Z1.7753 I-0.0236 J-0.0282
X4.2324 Y-0.9618 Z1.7713 I0.0236 J0.0282
X4.1851 Y-1.0182 Z1.7673 I-0.0236 J-0.0282
X4.2324 Y-0.9618 Z1.7632 I0.0236 J0.0282
X4.1851 Y-1.0182 Z1.7592 I-0.0236 J-0.0282
X4.2324 Y-0.9618 Z1.7552 I0.0236 J0.0282
X4.1851 Y-1.0182 Z1.7511 I-0.0236 J-0.0282
X4.2324 Y-0.9618 Z1.7471 I0.0236 J0.0282
X4.1851 Y-1.0182 Z1.743 I-0.0236 J-0.0282
X4.2324 Y-0.9618 Z1.739 I0.0236 J0.0282
X4.1851 Y-1.0182 Z1.735 I-0.0236 J-0.0282
X4.2324 Y-0.9618 Z1.7309 I0.0236 J0.0282
X4.1851 Y-1.0182 Z1.7269 I-0.0236 J-0.0282
X4.2324 Y-0.9618 Z1.7229 I0.0236 J0.0282
X4.1851 Y-1.0182 Z1.7188 I-0.0236 J-0.0282
X4.2324 Y-0.9618 Z1.7148 I0.0236 J0.0282
X4.1851 Y-1.0182 Z1.7108 I-0.0236 J-0.0282
X4.2456 Y-0.99 Z1.7078 I0.0236 J0.0282
X4.172 I-0.0368 J0.
X4.2456 I0.0368 J0.
G1 X4.2457 Y-0.9767 F45.
G3 X4.1904 Y-0.9527 I-0.0358 J-0.0068
X4.2273 Y-1.0285 I0.0185 J-0.0379
X4.2376 Y-0.9598 I-0.0185 J0.0379
G1 X4.235 Y-0.9578
X4.2321 Y-0.9562
X4.2289 Y-0.9552
X4.2256 Y-0.9548
X4.2222 Y-0.955
X4.2189 Y-0.9558
X4.2158 Y-0.9572
X4.213 Y-0.9591
X4.2106 Y-0.9616
X4.2086 Y-0.9641 Z1.7081
X4.2067 Y-0.9666 Z1.709
X4.2048 Y-0.9689 Z1.7103
X4.2032 Y-0.971 Z1.7122
X4.2018 Y-0.9729 Z1.7145
X4.2006 Y-0.9743 Z1.7172
X4.1998 Y-0.9754 Z1.7202
X4.1992 Y-0.9761 Z1.7233
X4.1991 Y-0.9763 Z1.7266
G0 Z2.08
M5
G53 G0 Z0.
(2D POCKET2)
M9
M1
T23 M6
S3500 M3
G55
M8
G0 X0.0058 Y-3.3216
G43 Z2.13 H23
G0 Z1.15
G1 X0.0056 Y-3.3213 Z1.1422 F21.
X0.0052 Y-3.3205 Z1.1344
X0.0043 Y-3.3192 Z1.1267
X0.0032 Y-3.3174 Z1.1191
X0.0018 Y-3.3151 Z1.1117
X0. Y-3.3123 Z1.1046
X-0.002 Y-3.3091 Z1.0978
X-0.0044 Y-3.3054 Z1.0912
X-0.007 Y-3.3013 Z1.0851
X-0.0098 Y-3.2968 Z1.0793
X-0.0129 Y-3.2919 Z1.074
X-0.0162 Y-3.2867 Z1.0691
X-0.0196 Y-3.2812 Z1.0647
