%
(DUPLICATE_TOOL_TEST_GCODE)
(MACHINE)
(  VENDOR BOOST CONCEPTS)
(  MODEL XK7130)
(  DESCRIPTION XK7130)
(T8  D=0.5 CR=0. - ZMIN=-1.01 - FLAT END MILL)
(T21  D=0.25 CR=0. TAPER=45DEG - ZMIN=-0.05 - CHAMFER MILL)
(T48  D=3.937 CR=0.0118 TAPER=45DEG - ZMIN=-0.01 - FACE MILL)
(T52  D=0.201 CR=0. TAPER=135DEG - ZMIN=-1.01 - DRILL)
N10 G90 G94 G17 G91.1
N15 G20
N20 G53 G0 Z0.
(ADAPTIVE1)
N25 T8 M6
N30 S6000 M3
N35 G54
N40 G64 P0.004 Q0.004
N45 M8
N50 G0 X-2.0913 Y-1.612
N55 G43 Z0.6 H8
N60 G0 Z0.2
N65 Z-0.89
N70 G1 Z-0.94 F180.
N75 X-2.0912 Y-1.6117 Z-0.9456
N80 X-2.091 Y-1.6108 Z-0.9511
N85 X-2.0906 Y-1.6093 Z-0.9565
N90 X-2.09 Y-1.6072 Z-0.9617
N95 X-2.0894 Y-1.6045 Z-0.9666
N100 X-2.0886 Y-1.6014 Z-0.9712
N105 X-2.0876 Y-1.5978 Z-0.9754
N110 X-2.0866 Y-1.5937 Z-0.9791
N115 X-2.0855 Y-1.5893 Z-0.9823
N120 X-2.0842 Y-1.5846 Z-0.985
N125 X-2.083 Y-1.5795 Z-0.9872
N130 X-2.0816 Y-1.5743 Z-0.9887
N135 X-2.0803 Y-1.569 Z-0.9897
N140 X-2.0789 Y-1.5635 Z-0.99
N145 G3 X-2.0397 Y-1.2913 I-1.2366 J0.3167
N150 G1 Y-1.2857
N155 X-2.0717 Y-1.2431
N160 X-2.098 Y-1.1967
N165 X-2.1191 Y-1.1478
N170 X-2.1359 Y-1.0972
N175 X-2.149 Y-1.0455
N180 X-2.1591 Y-0.9932
N185 X-2.1668 Y-0.9405
N190 X-2.1722 Y-0.8922
N195 X-2.1745 Y-0.8779
N200 X-2.1785 Y-0.864
N205 X-2.184 Y-0.8506
N210 X-2.186 Y-0.8463
N215 X-2.2139 Y-0.7864
N220 X-2.2198 Y-0.7714
N225 X-2.2254 Y-0.7564
N230 X-2.2305 Y-0.7415
N235 X-2.2496 Y-0.6701
N240 X-2.2505 Y-0.6666
N245 X-2.2575 Y-0.6366
N250 X-2.2597 Y-0.6216
N255 X-2.2614 Y-0.6066
N260 X-2.263 Y-0.5917
N265 X-2.2682 Y-0.5317
N270 X-2.2694 Y-0.5168
N275 X-2.2699 Y-0.4868
N280 X-2.27 Y-0.4718
N285 Y0.4718
N290 X-2.2699 Y0.4868
N295 X-2.2694 Y0.5168
N300 X-2.2682 Y0.5317
N305 X-2.263 Y0.5917
N310 X-2.2614 Y0.6066
N315 X-2.2597 Y0.6216
N320 X-2.2575 Y0.6366
N325 X-2.2505 Y0.6666
N330 X-2.2496 Y0.6701
N335 X-2.2346 Y0.726
N340 X-2.2234 Y0.7781
N345 X-2.2185 Y0.8043
N350 X-2.2102 Y0.857
N355 X-2.2044 Y0.9099
N360 X-2.1844 Y0.9594
N365 X-2.1542 Y1.0033
N370 X-2.1166 Y1.0411
N375 X-2.0738 Y1.0727
N380 X-2.0273 Y1.0987
N385 X-1.9782 Y1.1196
N390 X-1.9512 Y1.1285
N395 X-1.9396 Y1.1329
N400 X-1.9284 Y1.1384
N405 X-1.9178 Y1.145
N410 X-1.8948 Y1.1609
N415 X-1.8897 Y1.164
N420 X-1.8597 Y1.1794
N425 X-1.8447 Y1.1868
N430 X-1.8147 Y1.2008
N435 X-1.7847 Y1.2145
N440 X-1.7696 Y1.2208
N445 X-1.7397 Y1.2309
N450 X-1.7218 Y1.2358
N455 X-1.6647 Y1.2511
N460 X-1.6497 Y1.2544
N465 X-1.6347 Y1.2576
N470 X-1.6197 Y1.2602
N475 X-1.5897 Y1.2632
N480 X-1.5597 Y1.2658
N485 X-1.5447 Y1.2671
N490 X-1.5147 Y1.2694
N495 X-1.4997 Y1.2698
N500 X-1.4697 Y1.27
N505 X1.4697
N510 X1.4997 Y1.2698
N515 X1.5147 Y1.2694
N520 X1.5447 Y1.2671
N525 X1.5747 Y1.2645
N530 X1.5897 Y1.2632
N535 X1.6197 Y1.2602
N540 X1.6347 Y1.2576
N545 X1.6497 Y1.2544
N550 X1.6647 Y1.2511
N555 X1.7218 Y1.2358
N560 X1.7739 Y1.2246
N565 X1.8172 Y1.2162
N570 X1.87 Y1.2086
N575 X1.9224 Y1.1989
N580 X1.9706 Y1.1761
N585 X2.013 Y1.1439
N590 X2.0493 Y1.1049
N595 X2.0796 Y1.061
N600 X2.1043 Y1.0138
N605 X2.1241 Y0.9643
N610 X2.1271 Y0.9546
N615 X2.1317 Y0.9419
N620 X2.1376 Y0.9297
N625 X2.1448 Y0.9182
N630 X2.1532 Y0.9062
N635 X2.1596 Y0.8967
N640 X2.1627 Y0.8912
N645 X2.1789 Y0.8613
N650 X2.186 Y0.8463
N655 X2.2139 Y0.7864
N660 X2.2198 Y0.7714
N665 X2.2254 Y0.7564
N670 X2.2305 Y0.7415
N675 X2.2496 Y0.6701
N680 X2.2505 Y0.6666
N685 X2.2575 Y0.6366
N690 X2.2597 Y0.6216
N695 X2.2614 Y0.6066
N700 X2.263 Y0.5917
N705 X2.2682 Y0.5317
N710 X2.2694 Y0.5168
N715 X2.2699 Y0.4868
N720 X2.27 Y0.4718
N725 Y-0.4718
N730 X2.2699 Y-0.4868
N735 X2.2694 Y-0.5168
N740 X2.2682 Y-0.5317
N745 X2.263 Y-0.5917
N750 X2.2614 Y-0.6066
N755 X2.2597 Y-0.6216
N760 X2.2575 Y-0.6366
N765 X2.2505 Y-0.6666
N770 X2.2496 Y-0.6701
N775 X2.2346 Y-0.726
N780 X2.2234 Y-0.7781
N785 X2.2186 Y-0.8043
N790 X2.2105 Y-0.857
N795 X2.2044 Y-0.9099
N800 X2.1846 Y-0.9594
N805 X2.1545 Y-1.0034
N810 X2.117 Y-1.0413
N815 X2.0742 Y-1.073
N820 X2.0277 Y-1.0991
N825 X1.9787 Y-1.12
N830 X1.9495 Y-1.1296
N835 X1.9379 Y-1.1341
N840 X1.9267 Y-1.1396
N845 X1.9162 Y-1.1461
N850 X1.8948 Y-1.1609
N855 X1.8897 Y-1.164
N860 X1.8597 Y-1.1794
N865 X1.8447 Y-1.1868
N870 X1.8147 Y-1.2008
N875 X1.7847 Y-1.2145
N880 X1.7696 Y-1.2208
N885 X1.7397 Y-1.2309
N890 X1.7218 Y-1.2358
N895 X1.6647 Y-1.2511
N900 X1.6497 Y-1.2544
N905 X1.6347 Y-1.2576
N910 X1.6197 Y-1.2602
N915 X1.5897 Y-1.2632
N920 X1.5597 Y-1.2658
N925 X1.5447 Y-1.2671
N930 X1.5147 Y-1.2694
N935 X1.4997 Y-1.2698
N940 X1.4697 Y-1.27
N945 X-1.4697
N950 X-1.4997 Y-1.2698
N955 X-1.5147 Y-1.2694
N960 X-1.5447 Y-1.2671
N965 X-1.5747 Y-1.2645
N970 X-1.5897 Y-1.2632
N975 X-1.6197 Y-1.2602
N980 X-1.6347 Y-1.2576
N985 X-1.6497 Y-1.2544
N990 X-1.6647 Y-1.2511
N995 X-1.7247 Y-1.235
N1000 X-1.7397 Y-1.2309
N1005 X-1.7697 Y-1.2207
N1010 X-1.7847 Y-1.2145
N1015 X-1.8147 Y-1.2008
N1020 X-1.8447 Y-1.1868
N1025 X-1.8597 Y-1.1794
N1030 X-1.8897 Y-1.164
N1035 X-1.8948 Y-1.1609
N1040 X-1.9197 Y-1.1438
N1045 X-1.9381 Y-1.1309
N1050 X-1.9647 Y-1.1123
N1055 X-1.9797 Y-1.1009
N1060 X-1.9991 Y-1.086
N1065 X-2.0096 Y-1.0763
N1070 X-2.0151 Y-1.071
N1075 X-2.0246 Y-1.0616
N1080 X-2.0602 Y-1.0261
N1085 X-2.0751 Y-1.0111
N1090 X-2.0846 Y-1.
N1095 X-2.0998 Y-0.9811
N1100 X-2.1113 Y-0.9661
N1105 X-2.1532 Y-0.9062
N1110 X-2.1596 Y-0.8967
N1115 X-2.1627 Y-0.8912
N1120 X-2.1789 Y-0.8613
N1125 X-2.184 Y-0.8506
N1130 X-2.1844 Y-0.85 Z-0.9899
N1135 X-2.1849 Y-0.8495
N1140 G2 X-2.2458 Y-0.8023 Z-0.982 I0.576 J0.8064
N1145 X-2.374 Y-0.6729 I0.6369 J0.7592
N1150 X-2.3854 Y-0.6428 I0.0386 J0.0318
N1155 G1 X-2.4223 Y0.5054
N1160 G2 X-2.4129 Y0.5362 I0.05 J0.0016
N1165 X-2.2931 Y0.6738 I0.804 J-0.5793
N1170 X-2.2356 Y0.7245 Z-0.9898 I0.6841 J-0.7169
N1175 G1 X-2.235 Y0.7252 Z-0.9899
N1180 X-2.2346 Y0.726 Z-0.99
N1185 X-2.2305 Y0.7415
N1190 X-2.2254 Y0.7564
N1195 X-2.2196 Y0.772
N1200 X-2.2139 Y0.7864
N1205 X-2.186 Y0.8463
N1210 X-2.1789 Y0.8613
N1215 X-2.1627 Y0.8912
N1220 X-2.1596 Y0.8967
N1225 X-2.1532 Y0.9062
N1230 X-2.1113 Y0.9661
N1235 X-2.0996 Y0.9814
N1240 X-2.0846 Y1.
N1245 X-2.0751 Y1.0111
N1250 X-2.0546 Y1.0316
N1255 X-2.0246 Y1.0616
N1260 X-2.0151 Y1.071
N1265 X-2.0096 Y1.0763
N1270 X-1.9991 Y1.086
N1275 X-1.9796 Y1.1009
N1280 X-1.9647 Y1.1123
N1285 X-1.9347 Y1.1333
N1290 X-1.9178 Y1.145
N1295 G3 X-1.9001 Y1.1697 I-0.0298 J0.0401
N1300 G1 X-1.8984 Y1.1751 Z-0.9897
N1305 X-1.8967 Y1.1803 Z-0.9887
N1310 X-1.895 Y1.1854 Z-0.9872
N1315 X-1.8934 Y1.1904 Z-0.985
N1320 X-1.8919 Y1.195 Z-0.9823
N1325 X-1.8905 Y1.1994 Z-0.9791
N1330 X-1.8892 Y1.2034 Z-0.9754
N1335 X-1.888 Y1.2069 Z-0.9712
N1340 X-1.887 Y1.21 Z-0.9666
N1345 X-1.8862 Y1.2126 Z-0.9617
N1350 X-1.8855 Y1.2146 Z-0.9565
N1355 X-1.8851 Y1.2161 Z-0.9511
N1360 X-1.8848 Y1.217 Z-0.9456
N1365 X-1.8847 Y1.2173 Z-0.94
N1370 G0 Z0.2
N1375 X1.6605 Y1.2877
N1380 Z-0.89
N1385 G1 Z-0.94 F180.
N1390 X1.6607 Y1.2874 Z-0.9456
N1395 X1.6614 Y1.2868 Z-0.9511
N1400 X1.6625 Y1.2856 Z-0.9565
N1405 X1.664 Y1.2841 Z-0.9617
N1410 X1.6659 Y1.2822 Z-0.9666
N1415 X1.6681 Y1.2798 Z-0.9712
N1420 X1.6707 Y1.2772 Z-0.9754
N1425 X1.6737 Y1.2742 Z-0.9791
N1430 X1.6769 Y1.2709 Z-0.9823
N1435 X1.6803 Y1.2674 Z-0.985
N1440 X1.6839 Y1.2637 Z-0.9872
N1445 X1.6877 Y1.2598 Z-0.9887
N1450 X1.6915 Y1.2559 Z-0.9897
N1455 X1.6954 Y1.2519 Z-0.99
N1460 G3 X1.7218 Y1.2358 I0.0446 J0.0435
N1465 G1 X1.7397 Y1.2309
N1470 X1.7697 Y1.2207
N1475 X1.7847 Y1.2145
N1480 X1.8147 Y1.2008
N1485 X1.8447 Y1.1868
N1490 X1.8597 Y1.1794
N1495 X1.8897 Y1.164
N1500 X1.8948 Y1.1609
N1505 X1.9197 Y1.1438
N1510 X1.9381 Y1.1309
N1515 X1.9647 Y1.1123
N1520 X1.9797 Y1.1009
N1525 X1.9991 Y1.086
N1530 X2.0096 Y1.0763
N1535 X2.0151 Y1.071
N1540 X2.0246 Y1.0616
N1545 X2.0602 Y1.0261
N1550 X2.0751 Y1.0111
N1555 X2.0846 Y1.
N1560 X2.0998 Y0.9811
N1565 X2.1113 Y0.9661
N1570 X2.1448 Y0.9182
N1575 X2.1455 Y0.9176 Z-0.9899
N1580 G2 X2.2073 Y0.8708 Z-0.982 I-0.6003 J-0.8565
N1585 X2.3467 Y0.733 I-0.662 J-0.8097
N1590 X2.3583 Y0.7036 I-0.0383 J-0.0321
N1595 G1 X2.4237 Y-0.4887
N1600 G2 X2.4154 Y-0.5192 I-0.0499 J-0.0027
N1605 X2.2913 Y-0.6719 I-0.8701 J0.5803
N1610 X2.2355 Y-0.7246 Z-0.9898 I-0.7461 J0.733
N1615 G1 X2.235 Y-0.7253 Z-0.9899
N1620 X2.2346 Y-0.726 Z-0.99
N1625 X2.2305 Y-0.7415
N1630 X2.2254 Y-0.7564
N1635 X2.2196 Y-0.772
N1640 X2.2139 Y-0.7864
N1645 X2.186 Y-0.8463
N1650 X2.1789 Y-0.8613
N1655 X2.1627 Y-0.8912
N1660 X2.1596 Y-0.8967
N1665 X2.1532 Y-0.9062
N1670 X2.1113 Y-0.9661
N1675 X2.0996 Y-0.9814
N1680 X2.0846 Y-1.
N1685 X2.0751 Y-1.0111
N1690 X2.0546 Y-1.0316
N1695 X2.0246 Y-1.0616
N1700 X2.0151 Y-1.071
N1705 X2.0096 Y-1.0763
N1710 X1.9991 Y-1.086
N1715 X1.9796 Y-1.1009
N1720 X1.9647 Y-1.1123
N1725 X1.9347 Y-1.1333
N1730 X1.9162 Y-1.1461
N1735 X1.9131 Y-1.1491 Z-0.9897
N1740 X1.9101 Y-1.152 Z-0.9888
N1745 X1.9072 Y-1.1548 Z-0.9873
N1750 X1.9053 Y-1.1578 Z-0.9855
N1755 X1.9035 Y-1.1607 Z-0.9831
N1760 X1.902 Y-1.1632 Z-0.9803
N1765 X1.9006 Y-1.1654 Z-0.9772
N1770 X1.8998 Y-1.1673 Z-0.9739
N1775 X1.8992 Y-1.1689 Z-0.9704
N1780 X1.8988 Y-1.17 Z-0.9667
N1785 X1.8985 Y-1.1706 Z-0.9629
N1790 X1.8984 Y-1.1709 Z-0.9591
N1795 G0 Z0.2
N1800 X0.1355 Y-0.1439
N1805 Z0.1
N1810 G3 X0.07 Y0.1849 Z0.086 I-0.1355 J0.1439 F180.
N1815 X-0.1965 Y-0.0179 Z0.0721 I-0.0699 J-0.1847
N1820 X0.1021 Y-0.1684 Z0.0581 I0.1964 J0.0181
N1825 X0.1066 Y0.1656 Z0.0441 I-0.1021 J0.1684
N1830 X-0.1952 Y0.0235 Z0.0301 I-0.1065 J-0.1654
N1835 X0.0644 Y-0.1853 Z0.0162 I0.1951 J-0.0232
N1840 X0.1383 Y0.1392 Z0.0022 I-0.0645 J0.1853
N1845 X-0.1854 Y0.0635 Z-0.0118 I-0.1382 J-0.139
N1850 X0.0242 Y-0.194 Z-0.0258 I0.1852 J-0.0632
N1855 X0.1636 Y0.1068 Z-0.0397 I-0.0243 J0.194
N1860 X-0.1674 Y0.1004 Z-0.0537 I-0.1635 J-0.1067
N1865 X-0.0168 Y-0.194 Z-0.0677 I0.1673 J-0.1001
N1870 X0.1816 Y0.0701 Z-0.0817 I0.0167 J0.194
N1875 X-0.1423 Y0.1326 Z-0.0956 I-0.1815 J-0.0699
N1880 X-0.0567 Y-0.1855 Z-0.1096 I0.1422 J-0.1324
N1885 X0.1915 Y0.0305 Z-0.1236 I0.0566 J0.1856
N1890 X-0.1111 Y0.1588 Z-0.1376 I-0.1914 J-0.0304
N1895 X-0.0939 Y-0.169 Z-0.1515 I0.111 J-0.1585
N1900 X0.1929 Y-0.0101 Z-0.1655 I0.0937 J0.169
N1905 X-0.0752 Y0.1778 Z-0.1795 I-0.1928 J0.0102
N1910 X-0.1266 Y-0.1451 Z-0.1935 I0.0752 J-0.1775
N1915 X0.1858 Y-0.05 Z-0.2074 I0.1265 J0.1452
N1920 X-0.0363 Y0.1889 Z-0.2214 I-0.1857 J0.05
N1925 X-0.1536 Y-0.115 Z-0.2354 I0.0363 J-0.1886
N1930 X0.1706 Y-0.0873 Z-0.2494 I0.1534 J0.1152
N1935 X0.0039 Y0.1916 Z-0.2633 I-0.1705 J0.0874
N1940 X-0.1736 Y-0.0801 Z-0.2773 I-0.0038 J-0.1913
N1945 X0.148 Y-0.1206 Z-0.2913 I0.1734 J0.0803
N1950 X0.0436 Y0.1858 Z-0.3053 I-0.148 J0.1206
N1955 X-0.1858 Y-0.042 Z-0.3192 I-0.0435 J-0.1856
N1960 X0.1191 Y-0.1482 Z-0.3332 I0.1856 J0.0422
N1965 X0.0811 Y0.172 Z-0.3472 I-0.1191 J0.1482
N1970 X-0.1898 Y-0.0022 Z-0.3612 I-0.081 J-0.1718
N1975 X0.0851 Y-0.1692 Z-0.3751 I0.1896 J0.0025
N1980 X0.1147 Y0.1507 Z-0.3891 I-0.0852 J0.1692
N1985 X-0.1854 Y0.0373 Z-0.4031 I-0.1146 J-0.1505
N1990 X0.0477 Y-0.1825 Z-0.4171 I0.1852 J-0.037
N1995 X0.143 Y0.1229 Z-0.431 I-0.0478 J0.1825
N2000 X-0.1729 Y0.0749 Z-0.445 I-0.1429 J-0.1228
N2005 X0.0085 Y-0.1877 Z-0.459 I0.1728 J-0.0746
N2010 X0.1649 Y0.09 Z-0.4729 I-0.0086 J0.1877
N2015 X-0.1529 Y0.1089 Z-0.4869 I-0.1648 J-0.0899
N2020 X-0.0308 Y-0.1846 Z-0.5009 I0.1528 J-0.1086
N2025 X0.1793 Y0.0534 Z-0.5149 I0.0306 J0.1847
N2030 X-0.1263 Y0.1378 Z-0.5288 I-0.1792 J-0.0533
N2035 X-0.0684 Y-0.1735 Z-0.5428 I0.1262 J-0.1376
N2040 X0.1857 Y0.0147 Z-0.5568 I0.0683 J0.1735
N2045 X-0.0944 Y0.1605 Z-0.5708 I-0.1856 J-0.0146
N2050 X-0.1027 Y-0.1548 Z-0.5847 I0.0944 J-0.1603
N2055 X0.184 Y-0.0243 Z-0.5987 I0.1026 J0.1548
N2060 X-0.0586 Y0.176 Z-0.6127 I-0.1839 J0.0243
N2065 X-0.1323 Y-0.1294 Z-0.6267 I0.0586 J-0.1757
N2070 X0.1741 Y-0.0619 Z-0.6406 I0.1321 J0.1295
N2075 X-0.0205 Y0.1836 Z-0.6546 I-0.1741 J0.0619
N2080 X-0.1558 Y-0.0985 Z-0.6686 I0.0206 J-0.1834
N2085 X0.1567 Y-0.0965 Z-0.6826 I0.1556 J0.0987
N2090 X0.0182 Y0.1831 Z-0.6965 I-0.1567 J0.0965
N2095 X-0.1723 Y-0.0636 Z-0.7105 I-0.0181 J-0.1829
N2100 X0.1326 Y-0.1266 Z-0.7245 I0.1721 J0.0638
N2105 X0.0557 Y0.1746 Z-0.7385 I-0.1325 J0.1266
N2110 X-0.1811 Y-0.0261 Z-0.7524 I-0.0557 J-0.1744
N2115 X0.1028 Y-0.1509 Z-0.7664 I0.1809 J0.0263
N2120 X0.0906 Y0.1585 Z-0.7804 I-0.1028 J0.1509
N2125 X-0.1818 Y0.0122 Z-0.7944 I-0.0905 J-0.1583
N2130 X0.0687 Y-0.1683 Z-0.8083 I0.1817 J-0.012
N2135 X0.1211 Y0.1355 Z-0.8223 I-0.0687 J0.1683
N2140 X-0.1746 Y0.0497 Z-0.8363 I-0.121 J-0.1354
N2145 X0.0319 Y-0.1783 Z-0.8503 I0.1745 J-0.0494
N2150 X0.1462 Y0.1068 Z-0.8642 I-0.032 J0.1783
N2155 X-0.1598 Y0.0847 Z-0.8782 I-0.146 J-0.1067
N2160 X-0.006 Y-0.1803 Z-0.8922 I0.1597 J-0.0844
N2165 X0.1645 Y0.0737 Z-0.9062 I0.0059 J0.1803
N2170 X-0.138 Y0.1157 Z-0.9201 I-0.1644 J-0.0735
N2175 X-0.0434 Y-0.1743 Z-0.9341 I0.138 J-0.1154
N2180 X0.1755 Y0.0375 Z-0.9481 I0.0433 J0.1744
N2185 X-0.1104 Y0.1414 Z-0.9621 I-0.1754 J-0.0374
N2190 X-0.0785 Y-0.1608 Z-0.976 I0.1104 J-0.1411
N2195 X0.1788 Y0.0001 Z-0.99 I0.0784 J0.1608
N2200 X-0.1791 I-0.1789 J0.
N2205 X0.1788 I0.1789 J0.
N2210 G1 X0.1796 Y0.0533
N2215 X0.1804 Y0.0566
N2220 X0.1815 Y0.0625
N2225 X0.1821 Y0.0684
N2230 X0.1823 Y0.0744
N2235 X0.1821 Y0.0804
N2240 X0.1815 Y0.0864
N2245 X0.1806 Y0.0923
N2250 X0.1794 Y0.0982
N2255 X0.1778 Y0.1042
N2260 X0.1759 Y0.1104
N2265 X0.1736 Y0.1167
N2270 X0.1709 Y0.1232
N2275 X0.1678 Y0.1297
N2280 X0.1642 Y0.1363
N2285 X0.1602 Y0.1429
N2290 X0.1558 Y0.1495
N2295 X0.1509 Y0.156
N2300 X0.1456 Y0.1625
N2305 X0.1398 Y0.1688
N2310 X0.1336 Y0.175
N2315 X0.127 Y0.1809
N2320 X0.1199 Y0.1867
N2325 X0.1125 Y0.1922
N2330 X0.1047 Y0.1974
N2335 X0.0965 Y0.2023
N2340 X0.0879 Y0.2069
N2345 X0.0791 Y0.2111
N2350 X0.0699 Y0.2149
N2355 X0.0605 Y0.2182
N2360 X0.0508 Y0.2212
N2365 X0.0432 Y0.2231
N2370 X0.0405 Y0.2237
N2375 X0.0347 Y0.225
N2380 X0.03 Y0.226
N2385 X0.015 Y0.2277
N2390 X0. Y0.2288
N2395 X-0.015 Y0.2277
N2400 X-0.03 Y0.226
N2405 X-0.0704 Y0.2172
N2410 X-0.075 Y0.216
N2415 X-0.09 Y0.2097
N2420 X-0.1061 Y0.2022
N2425 X-0.12 Y0.1944
N2430 X-0.135 Y0.1839
N2435 X-0.15 Y0.1726
N2440 X-0.1728 Y0.1498
N2445 X-0.1788 Y0.1423
N2450 X-0.195 Y0.1192
N2455 X-0.1992 Y0.1123
N2460 X-0.21 Y0.0895
N2465 X-0.2133 Y0.0824
N2470 X-0.2181 Y0.0674
N2475 X-0.2221 Y0.0524
N2480 X-0.225 Y0.0365
N2485 X-0.227 Y0.0225
N2490 X-0.2283 Y0.0075
N2495 X-0.2288 Y0.
N2500 X-0.2282 Y-0.0075
N2505 X-0.2244 Y-0.0374
N2510 X-0.2221 Y-0.0524
N2515 X-0.2181 Y-0.0674
N2520 X-0.2133 Y-0.0824
N2525 X-0.2024 Y-0.1056
N2530 X-0.1992 Y-0.1123
N2535 X-0.195 Y-0.1192
N2540 X-0.1788 Y-0.1423
N2545 X-0.1728 Y-0.1498
N2550 X-0.15 Y-0.1726
N2555 X-0.135 Y-0.1839
N2560 X-0.12 Y-0.1944
N2565 X-0.1061 Y-0.2022
N2570 X-0.09 Y-0.2097
N2575 X-0.075 Y-0.216
N2580 X-0.0704 Y-0.2172
N2585 X-0.03 Y-0.226
N2590 X-0.015 Y-0.2277
N2595 X0. Y-0.2288
N2600 X0.015 Y-0.2277
N2605 X0.03 Y-0.226
N2610 X0.0704 Y-0.2172
N2615 X0.075 Y-0.216
N2620 X0.09 Y-0.2097
N2625 X0.1061 Y-0.2022
N2630 X0.12 Y-0.1944
N2635 X0.135 Y-0.1839
N2640 X0.15 Y-0.1726
N2645 X0.1728 Y-0.1498
N2650 X0.1788 Y-0.1423
N2655 X0.195 Y-0.1192
N2660 X0.1992 Y-0.1123
N2665 X0.21 Y-0.0895
N2670 X0.2133 Y-0.0824
N2675 X0.2181 Y-0.0674
N2680 X0.2221 Y-0.0524
N2685 X0.225 Y-0.0365
N2690 X0.227 Y-0.0225
N2695 X0.2283 Y-0.0075
N2700 X0.2288 Y0.
N2705 X0.2282 Y0.0075
N2710 X0.2244 Y0.0374
N2715 X0.2221 Y0.0524
N2720 X0.2181 Y0.0674
N2725 X0.2133 Y0.0824
N2730 X0.2063 Y0.0974
N2735 X0.1992 Y0.1123
N2740 X0.195 Y0.1192
N2745 X0.1788 Y0.1423
N2750 X0.1728 Y0.1498
N2755 X0.15 Y0.1726
N2760 X0.135 Y0.1839
N2765 X0.12 Y0.1944
N2770 X0.1061 Y0.2022
N2775 X0.09 Y0.2097
N2780 X0.075 Y0.216
N2785 X0.0704 Y0.2172
N2790 X0.0405 Y0.2237
N2795 G3 X0.0104 Y0.2198 I-0.009 J-0.0492
N2800 G1 X0.0053 Y0.2174 Z-0.9897
N2805 X0.0003 Y0.2151 Z-0.9887
N2810 X-0.0046 Y0.2128 Z-0.9872
N2815 X-0.0093 Y0.2106 Z-0.985
N2820 X-0.0137 Y0.2085 Z-0.9823
N2825 X-0.0179 Y0.2066 Z-0.9791
N2830 X-0.0217 Y0.2048 Z-0.9754
N2835 X-0.025 Y0.2032 Z-0.9712
N2840 X-0.028 Y0.2019 Z-0.9666
N2845 X-0.0304 Y0.2007 Z-0.9617
N2850 X-0.0324 Y0.1998 Z-0.9565
N2855 X-0.0338 Y0.1991 Z-0.9511
N2860 X-0.0346 Y0.1987 Z-0.9456
N2865 X-0.0349 Y0.1986 Z-0.94
N2870 G0 Z0.6
N2875 M5
N2880 G53 Z0.
(FACE1)
N2885 M9
N2890 T48 M6
N2895 S3000 M3
N2900 G54
N2905 G64 P0.0004 Q0.0004
N2910 M8
N2915 G0 X4.5991 Y0.
N2920 G43 Z0.6 H48
N2925 G0 Z0.3837
N2930 G18 G3 X4.2054 Z-0.01 I-0.3937 K0. F90.
N2935 G1 X4.0089
N2940 X-4.0089
N2945 G3 X-4.4026 Z0.3837 I0. K0.3937
N2950 G0 Z0.6
N2955 G17
N2960 M5
N2965 G53 G0 Z0.
(DRILL1)
N2970 M9
N2975 T52 M6
N2980 S5000 M3
N2985 G54
N2990 M8
N2995 G0 X-0.6 Y0.6
N3000 G43 Z0.39 H52
N3005 G0 Z0.19
N3010 G98 G81 X-0.6 Y0.6 Z-1.01 R0.19 F50.
N3015 G80
N3020 G0 Z0.39
N3025 M5
N3030 G53 Z0.
(2D CONTOUR1)
N3035 M9
N3040 T8 M6
N3045 S6000 M3
N3050 G54
N3055 G64 P0.0004 Q0.0004
N3060 M8
N3065 G0 X0.1 Y-0.05
N3070 G43 Z0.6 H8
N3075 G0 Z0.2
N3080 G1 Z0.0394 F90.
N3085 Z-0.96
N3090 G18 G2 X0.15 Z-1.01 I0.05 K0.
N3095 G1 X0.2
N3100 G17 G3 X0.25 Y0. I0. J0.05
N3105 X-0.25 I-0.25 J0.
N3110 X0.25 I0.25 J0.
N3115 X0.2 Y0.05 I-0.05 J0.
N3120 G1 X0.15
N3125 G18 G3 X0.1 Z-0.96 I0. K0.05
N3130 G0 Z0.2
N3135 X-1.55 Y1.4
N3140 G1 Z0.0394 F90.
N3145 Z-0.96
N3150 G19 G2 Y1.35 Z-1.01 J-0.05 K0.
N3155 G1 Y1.3
N3160 G17 G3 X-1.5 Y1.25 I0.05 J0.
N3165 G1 X1.5
N3170 G2 X2.25 Y0.5 I0. J-0.75
N3175 G1 Y-0.5
N3180 G2 X1.5 Y-1.25 I-0.75 J0.
N3185 G1 X-1.5
N3190 G2 X-2.25 Y-0.5 I0. J0.75
N3195 G1 Y0.5
N3200 G2 X-1.5 Y1.25 I0.75 J0.
N3205 G3 X-1.45 Y1.3 I0. J0.05
N3210 G1 Y1.35
N3215 G19 G3 Y1.4 Z-0.96 J0. K0.05
N3220 G0 Z0.6
N3225 G17
N3230 M5
N3235 G53 G0 Z0.
(2D CHAMFER1)
N3240 M9
N3245 T21 M6
N3250 S5000 M3
N3255 G54
N3260 M8
N3265 G0 X0.3954 Y-0.1061
N3270 G43 Z0.6 H21
N3275 G0 Z0.2
N3280 G1 Z0.08 F100.
N3285 Z0.
N3290 X0.3956 Y-0.1058 Z-0.0056
N3295 X0.3962 Y-0.1052 Z-0.0111
N3300 X0.3973 Y-0.1041 Z-0.0165
N3305 X0.3989 Y-0.1026 Z-0.0217
N3310 X0.4008 Y-0.1006 Z-0.0266
N3315 X0.4031 Y-0.0984 Z-0.0312
N3320 X0.4057 Y-0.0957 Z-0.0354
N3325 X0.4087 Y-0.0928 Z-0.0391
N3330 X0.4119 Y-0.0895 Z-0.0423
N3335 X0.4154 Y-0.0861 Z-0.045
N3340 X0.419 Y-0.0824 Z-0.0472
N3345 X0.4228 Y-0.0786 Z-0.0487
N3350 X0.4268 Y-0.0747 Z-0.0497
N3355 X0.4307 Y-0.0707 Z-0.05
N3360 G3 X0.46 Y0. I-0.0707 J0.0707
N3365 X-0.46 I-0.46 J0.
N3370 X0.46 I0.46 J0.
N3375 X0.4307 Y0.0707 I-0.1 J0.
N3380 G1 X0.4268 Y0.0747 Z-0.0497
N3385 X0.4228 Y0.0786 Z-0.0487
N3390 X0.419 Y0.0824 Z-0.0472
N3395 X0.4154 Y0.0861 Z-0.045
N3400 X0.4119 Y0.0895 Z-0.0423
N3405 X0.4087 Y0.0928 Z-0.0391
N3410 X0.4057 Y0.0957 Z-0.0354
N3415 X0.4031 Y0.0984 Z-0.0312
N3420 X0.4008 Y0.1006 Z-0.0266
N3425 X0.3989 Y0.1026 Z-0.0217
N3430 X0.3973 Y0.1041 Z-0.0165
N3435 X0.3962 Y0.1052 Z-0.0111
N3440 X0.3956 Y0.1058 Z-0.0056
N3445 X0.3954 Y0.1061 Z0.
N3450 G0 Z0.2
N3455 X-1.6061 Y1.1046
N3460 G1 Z0.08 F100.
N3465 Z0.
N3470 X-1.6058 Y1.1044 Z-0.0056
N3475 X-1.6052 Y1.1038 Z-0.0111
N3480 X-1.6041 Y1.1027 Z-0.0165
N3485 X-1.6026 Y1.1011 Z-0.0217
N3490 X-1.6006 Y1.0992 Z-0.0266
N3495 X-1.5984 Y1.0969 Z-0.0312
N3500 X-1.5957 Y1.0943 Z-0.0354
N3505 X-1.5928 Y1.0913 Z-0.0391
N3510 X-1.5895 Y1.0881 Z-0.0423
N3515 X-1.5861 Y1.0846 Z-0.045
N3520 X-1.5824 Y1.081 Z-0.0472
N3525 X-1.5786 Y1.0772 Z-0.0487
N3530 X-1.5747 Y1.0732 Z-0.0497
N3535 X-1.5707 Y1.0693 Z-0.05
N3540 G3 X-1.5 Y1.04 I0.0707 J0.0707
N3545 G1 X1.5
N3550 G2 X2.04 Y0.5 I0. J-0.54
N3555 G1 Y-0.5
N3560 G2 X1.5 Y-1.04 I-0.54 J0.
N3565 G1 X-1.5
N3570 G2 X-2.04 Y-0.5 I0. J0.54
N3575 G1 Y0.5
N3580 G2 X-1.5 Y1.04 I0.54 J0.
N3585 G3 X-1.4293 Y1.0693 I0. J0.1
N3590 G1 X-1.4253 Y1.0732 Z-0.0497
N3595 X-1.4214 Y1.0772 Z-0.0487
N3600 X-1.4176 Y1.081 Z-0.0472
N3605 X-1.4139 Y1.0846 Z-0.045
N3610 X-1.4105 Y1.0881 Z-0.0423
N3615 X-1.4072 Y1.0913 Z-0.0391
N3620 X-1.4043 Y1.0943 Z-0.0354
N3625 X-1.4016 Y1.0969 Z-0.0312
N3630 X-1.3994 Y1.0992 Z-0.0266
N3635 X-1.3974 Y1.1011 Z-0.0217
N3640 X-1.3959 Y1.1027 Z-0.0165
N3645 X-1.3948 Y1.1038 Z-0.0111
N3650 X-1.3942 Y1.1044 Z-0.0056
N3655 X-1.3939 Y1.1046 Z0.
N3660 G0 Z0.6
N3665 M5
N3670 M9
N3675 M30
%
