%
(DUPLICATE_TOOL_TEST_GCODE)
(MACHINE)
(  VENDOR BOOST CONCEPTS)
(  MODEL XK7130)
(  DESCRIPTION XK7130)
(T8  D=0.5 CR=0. - ZMIN=-1.01 - FLAT END MILL)
(T21  D=0.25 CR=0. TAPER=45DEG - ZMIN=-0.05 - CHAMFER MILL)
(T48  D=3.937 CR=0.0118 TAPER=45DEG - ZMIN=-0.01 - FACE MILL)
(T52  D=0.201 CR=0. TAPER=135DEG - ZMIN=-1.01 - DRILL)
G90 G94 G17 G91.1
G20
G53 G0 Z0.
(ADAPTIVE1)
T8 M6
S6000 M3
G54
G64 P0.004 Q0.004
M8
G0 X-2.0913 Y-1.612
G43 Z0.6 H8
G0 Z0.2
Z-0.89
G1 Z-0.94 F180.
X-2.0912 Y-1.6117 Z-0.9456
X-2.091 Y-1.6108 Z-0.9511
X-2.0906 Y-1.6093 Z-0.9565
X-2.09 Y-1.6072 Z-0.9617
X-2.0894 Y-1.6045 Z-0.9666
X-2.0886 Y-1.6014 Z-0.9712
X-2.0876 Y-1.5978 Z-0.9754
X-2.0866 Y-1.5937 Z-0.9791
X-2.0855 Y-1.5893 Z-0.9823
X-2.0842 Y-1.5846 Z-0.985
X-2.083 Y-1.5795 Z-0.9872
X-2.0816 Y-1.5743 Z-0.9887
X-2.0803 Y-1.569 Z-0.9897
X-2.0789 Y-1.5635 Z-0.99
G3 X-2.0397 Y-1.2913 I-1.2366 J0.3167
G1 Y-1.2857
X-2.0717 Y-1.2431
X-2.098 Y-1.1967
X-2.1191 Y-1.1478
X-2.1359 Y-1.0972
X-2.149 Y-1.0455
X-2.1591 Y-0.9932
X-2.1668 Y-0.9405
X-2.1722 Y-0.8922
X-2.1745 Y-0.8779
X-2.1785 Y-0.864
X-2.184 Y-0.8506
X-2.186 Y-0.8463
X-2.2139 Y-0.7864
X-2.2198 Y-0.7714
X-2.2254 Y-0.7564
X-2.2305 Y-0.7415
X-2.2496 Y-0.6701
X-2.2505 Y-0.6666
X-2.2575 Y-0.6366
X-2.2597 Y-0.6216
X-2.2614 Y-0.6066
X-2.263 Y-0.5917
X-2.2682 Y-0.5317
X-2.2694 Y-0.5168
X-2.2699 Y-0.4868
X-2.27 Y-0.4718
Y0.4718
X-2.2699 Y0.4868
X-2.2694 Y0.5168
X-2.2682 Y0.5317
X-2.263 Y0.5917
X-2.2614 Y0.6066
X-2.2597 Y0.6216
X-2.2575 Y0.6366
X-2.2505 Y0.6666
X-2.2496 Y0.6701
X-2.2346 Y0.726
X-2.2234 Y0.7781
X-2.2185 Y0.8043
X-2.2102 Y0.857
X-2.2044 Y0.9099
X-2.1844 Y0.9594
X-2.1542 Y1.0033
X-2.1166 Y1.0411
X-2.0738 Y1.0727
X-2.0273 Y1.0987
X-1.9782 Y1.1196
X-1.9512 Y1.1285
X-1.9396 Y1.1329
X-1.9284 Y1.1384
X-1.9178 Y1.145
X-1.8948 Y1.1609
X-1.8897 Y1.164
X-1.8597 Y1.1794
X-1.8447 Y1.1868
X-1.8147 Y1.2008
X-1.7847 Y1.2145
X-1.7696 Y1.2208
X-1.7397 Y1.2309
X-1.7218 Y1.2358
X-1.6647 Y1.2511
X-1.6497 Y1.2544
X-1.6347 Y1.2576
X-1.6197 Y1.2602
X-1.5897 Y1.2632
X-1.5597 Y1.2658
X-1.5447 Y1.2671
X-1.5147 Y1.2694
X-1.4997 Y1.2698
X-1.4697 Y1.27
X1.4697
X1.4997 Y1.2698
X1.5147 Y1.2694
X1.5447 Y1.2671
X1.5747 Y1.2645
X1.5897 Y1.2632
X1.6197 Y1.2602
X1.6347 Y1.2576
X1.6497 Y1.2544
X1.6647 Y1.2511
X1.7218 Y1.2358
X1.7739 Y1.2246
X1.8172 Y1.2162
X1.87 Y1.2086
X1.9224 Y1.1989
X1.9706 Y1.1761
X2.013 Y1.1439
X2.0493 Y1.1049
X2.0796 Y1.061
X2.1043 Y1.0138
X2.1241 Y0.9643
X2.1271 Y0.9546
X2.1317 Y0.9419
X2.1376 Y0.9297
X2.1448 Y0.9182
X2.1532 Y0.9062
X2.1596 Y0.8967
X2.1627 Y0.8912
X2.1789 Y0.8613
X2.186 Y0.8463
X2.2139 Y0.7864
X2.2198 Y0.7714
X2.2254 Y0.7564
X2.2305 Y0.7415
X2.2496 Y0.6701
X2.2505 Y0.6666
X2.2575 Y0.6366
X2.2597 Y0.6216
X2.2614 Y0.6066
X2.263 Y0.5917
X2.2682 Y0.5317
X2.2694 Y0.5168
X2.2699 Y0.4868
X2.27 Y0.4718
Y-0.4718
X2.2699 Y-0.4868
X2.2694 Y-0.5168
X2.2682 Y-0.5317
X2.263 Y-0.5917
X2.2614 Y-0.6066
X2.2597 Y-0.6216
X2.2575 Y-0.6366
X2.2505 Y-0.6666
X2.2496 Y-0.6701
X2.2346 Y-0.726
X2.2234 Y-0.7781
X2.2186 Y-0.8043
X2.2105 Y-0.857
X2.2044 Y-0.9099
X2.1846 Y-0.9594
X2.1545 Y-1.0034
X2.117 Y-1.0413
X2.0742 Y-1.073
X2.0277 Y-1.0991
X1.9787 Y-1.12
X1.9495 Y-1.1296
X1.9379 Y-1.1341
X1.9267 Y-1.1396
X1.9162 Y-1.1461
X1.8948 Y-1.1609
X1.8897 Y-1.164
X1.8597 Y-1.1794
X1.8447 Y-1.1868
X1.8147 Y-1.2008
X1.7847 Y-1.2145
X1.7696 Y-1.2208
X1.7397 Y-1.2309
X1.7218 Y-1.2358
X1.6647 Y-1.2511
X1.6497 Y-1.2544
X1.6347 Y-1.2576
X1.6197 Y-1.2602
X1.5897 Y-1.2632
X1.5597 Y-1.2658
X1.5447 Y-1.2671
X1.5147 Y-1.2694
X1.4997 Y-1.2698
X1.4697 Y-1.27
X-1.4697
X-1.4997 Y-1.2698
X-1.5147 Y-1.2694
X-1.5447 Y-1.2671
X-1.5747 Y-1.2645
X-1.5897 Y-1.2632
X-1.6197 Y-1.2602
X-1.6347 Y-1.2576
X-1.6497 Y-1.2544
X-1.6647 Y-1.2511
X-1.7247 Y-1.235
X-1.7397 Y-1.2309
X-1.7697 Y-1.2207
X-1.7847 Y-1.2145
X-1.8147 Y-1.2008
X-1.8447 Y-1.1868
X-1.8597 Y-1.1794
X-1.8897 Y-1.164
X-1.8948 Y-1.1609
X-1.9197 Y-1.1438
X-1.9381 Y-1.1309
X-1.9647 Y-1.1123
X-1.9797 Y-1.1009
X-1.9991 Y-1.086
X-2.0096 Y-1.0763
X-2.0151 Y-1.071
X-2.0246 Y-1.0616
X-2.0602 Y-1.0261
X-2.0751 Y-1.0111
X-2.0846 Y-1.
X-2.0998 Y-0.9811
X-2.1113 Y-0.9661
X-2.1532 Y-0.9062
X-2.1596 Y-0.8967
X-2.1627 Y-0.8912
X-2.1789 Y-0.8613
X-2.184 Y-0.8506
X-2.1844 Y-0.85 Z-0.9899
X-2.1849 Y-0.8495
G2 X-2.2458 Y-0.8023 Z-0.982 I0.576 J0.8064
X-2.374 Y-0.6729 I0.6369 J0.7592
X-2.3854 Y-0.6428 I0.0386 J0.0318
G1 X-2.4223 Y0.5054
G2 X-2.4129 Y0.5362 I0.05 J0.0016
X-2.2931 Y0.6738 I0.804 J-0.5793
X-2.2356 Y0.7245 Z-0.9898 I0.6841 J-0.7169
G1 X-2.235 Y0.7252 Z-0.9899
X-2.2346 Y0.726 Z-0.99
X-2.2305 Y0.7415
X-2.2254 Y0.7564
X-2.2196 Y0.772
X-2.2139 Y0.7864
X-2.186 Y0.8463
X-2.1789 Y0.8613
X-2.1627 Y0.8912
X-2.1596 Y0.8967
X-2.1532 Y0.9062
X-2.1113 Y0.9661
X-2.0996 Y0.9814
X-2.0846 Y1.
X-2.0751 Y1.0111
X-2.0546 Y1.0316
X-2.0246 Y1.0616
X-2.0151 Y1.071
X-2.0096 Y1.0763
X-1.9991 Y1.086
X-1.9796 Y1.1009
X-1.9647 Y1.1123
X-1.9347 Y1.1333
X-1.9178 Y1.145
G3 X-1.9001 Y1.1697 I-0.0298 J0.0401
G1 X-1.8984 Y1.1751 Z-0.9897
X-1.8967 Y1.1803 Z-0.9887
X-1.895 Y1.1854 Z-0.9872
X-1.8934 Y1.1904 Z-0.985
X-1.8919 Y1.195 Z-0.9823
X-1.8905 Y1.1994 Z-0.9791
X-1.8892 Y1.2034 Z-0.9754
X-1.888 Y1.2069 Z-0.9712
X-1.887 Y1.21 Z-0.9666
X-1.8862 Y1.2126 Z-0.9617
X-1.8855 Y1.2146 Z-0.9565
X-1.8851 Y1.2161 Z-0.9511
X-1.8848 Y1.217 Z-0.9456
X-1.8847 Y1.2173 Z-0.94
G0 Z0.2
X1.6605 Y1.2877
Z-0.89
G1 Z-0.94 F180.
X1.6607 Y1.2874 Z-0.9456
X1.6614 Y1.2868 Z-0.9511
X1.6625 Y1.2856 Z-0.9565
X1.664 Y1.2841 Z-0.9617
X1.6659 Y1.2822 Z-0.9666
X1.6681 Y1.2798 Z-0.9712
X1.6707 Y1.2772 Z-0.9754
X1.6737 Y1.2742 Z-0.9791
X1.6769 Y1.2709 Z-0.9823
X1.6803 Y1.2674 Z-0.985
X1.6839 Y1.2637 Z-0.9872
X1.6877 Y1.2598 Z-0.9887
X1.6915 Y1.2559 Z-0.9897
X1.6954 Y1.2519 Z-0.99
G3 X1.7218 Y1.2358 I0.0446 J0.0435
G1 X1.7397 Y1.2309
X1.7697 Y1.2207
X1.7847 Y1.2145
X1.8147 Y1.2008
X1.8447 Y1.1868
X1.8597 Y1.1794
X1.8897 Y1.164
X1.8948 Y1.1609
X1.9197 Y1.1438
X1.9381 Y1.1309
X1.9647 Y1.1123
X1.9797 Y1.1009
X1.9991 Y1.086
X2.0096 Y1.0763
X2.0151 Y1.071
X2.0246 Y1.0616
X2.0602 Y1.0261
X2.0751 Y1.0111
X2.0846 Y1.
X2.0998 Y0.9811
X2.1113 Y0.9661
X2.1448 Y0.9182
X2.1455 Y0.9176 Z-0.9899
G2 X2.2073 Y0.8708 Z-0.982 I-0.6003 J-0.8565
X2.3467 Y0.733 I-0.662 J-0.8097
X2.3583 Y0.7036 I-0.0383 J-0.0321
G1 X2.4237 Y-0.4887
G2 X2.4154 Y-0.5192 I-0.0499 J-0.0027
X2.2913 Y-0.6719 I-0.8701 J0.5803
X2.2355 Y-0.7246 Z-0.9898 I-0.7461 J0.733
G1 X2.235 Y-0.7253 Z-0.9899
X2.2346 Y-0.726 Z-0.99
X2.2305 Y-0.7415
X2.2254 Y-0.7564
X2.2196 Y-0.772
X2.2139 Y-0.7864
X2.186 Y-0.8463
X2.1789 Y-0.8613
X2.1627 Y-0.8912
X2.1596 Y-0.8967
X2.1532 Y-0.9062
X2.1113 Y-0.9661
X2.0996 Y-0.9814
X2.0846 Y-1.
X2.0751 Y-1.0111
X2.0546 Y-1.0316
X2.0246 Y-1.0616
X2.0151 Y-1.071
X2.0096 Y-1.0763
X1.9991 Y-1.086
X1.9796 Y-1.1009
X1.9647 Y-1.1123
X1.9347 Y-1.1333
X1.9162 Y-1.1461
X1.9131 Y-1.1491 Z-0.9897
X1.9101 Y-1.152 Z-0.9888
X1.9072 Y-1.1548 Z-0.9873
X1.9053 Y-1.1578 Z-0.9855
X1.9035 Y-1.1607 Z-0.9831
X1.902 Y-1.1632 Z-0.9803
X1.9006 Y-1.1654 Z-0.9772
X1.8998 Y-1.1673 Z-0.9739
X1.8992 Y-1.1689 Z-0.9704
X1.8988 Y-1.17 Z-0.9667
X1.8985 Y-1.1706 Z-0.9629
X1.8984 Y-1.1709 Z-0.9591
G0 Z0.2
X0.1355 Y-0.1439
Z0.1
G3 X0.07 Y0.1849 Z0.086 I-0.1355 J0.1439 F180.
X-0.1965 Y-0.0179 Z0.0721 I-0.0699 J-0.1847
X0.1021 Y-0.1684 Z0.0581 I0.1964 J0.0181
X0.1066 Y0.1656 Z0.0441 I-0.1021 J0.1684
X-0.1952 Y0.0235 Z0.0301 I-0.1065 J-0.1654
X0.0644 Y-0.1853 Z0.0162 I0.1951 J-0.0232
X0.1383 Y0.1392 Z0.0022 I-0.0645 J0.1853
X-0.1854 Y0.0635 Z-0.0118 I-0.1382 J-0.139
X0.0242 Y-0.194 Z-0.0258 I0.1852 J-0.0632
X0.1636 Y0.1068 Z-0.0397 I-0.0243 J0.194
X-0.1674 Y0.1004 Z-0.0537 I-0.1635 J-0.1067
X-0.0168 Y-0.194 Z-0.0677 I0.1673 J-0.1001
X0.1816 Y0.0701 Z-0.0817 I0.0167 J0.194
X-0.1423 Y0.1326 Z-0.0956 I-0.1815 J-0.0699
X-0.0567 Y-0.1855 Z-0.1096 I0.1422 J-0.1324
X0.1915 Y0.0305 Z-0.1236 I0.0566 J0.1856
X-0.1111 Y0.1588 Z-0.1376 I-0.1914 J-0.0304
X-0.0939 Y-0.169 Z-0.1515 I0.111 J-0.1585
X0.1929 Y-0.0101 Z-0.1655 I0.0937 J0.169
X-0.0752 Y0.1778 Z-0.1795 I-0.1928 J0.0102
X-0.1266 Y-0.1451 Z-0.1935 I0.0752 J-0.1775
X0.1858 Y-0.05 Z-0.2074 I0.1265 J0.1452
X-0.0363 Y0.1889 Z-0.2214 I-0.1857 J0.05
X-0.1536 Y-0.115 Z-0.2354 I0.0363 J-0.1886
X0.1706 Y-0.0873 Z-0.2494 I0.1534 J0.1152
X0.0039 Y0.1916 Z-0.2633 I-0.1705 J0.0874
X-0.1736 Y-0.0801 Z-0.2773 I-0.0038 J-0.1913
X0.148 Y-0.1206 Z-0.2913 I0.1734 J0.0803
X0.0436 Y0.1858 Z-0.3053 I-0.148 J0.1206
X-0.1858 Y-0.042 Z-0.3192 I-0.0435 J-0.1856
X0.1191 Y-0.1482 Z-0.3332 I0.1856 J0.0422
X0.0811 Y0.172 Z-0.3472 I-0.1191 J0.1482
X-0.1898 Y-0.0022 Z-0.3612 I-0.081 J-0.1718
X0.0851 Y-0.1692 Z-0.3751 I0.1896 J0.0025
X0.1147 Y0.1507 Z-0.3891 I-0.0852 J0.1692
X-0.1854 Y0.0373 Z-0.4031 I-0.1146 J-0.1505
X0.0477 Y-0.1825 Z-0.4171 I0.1852 J-0.037
X0.143 Y0.1229 Z-0.431 I-0.0478 J0.1825
X-0.1729 Y0.0749 Z-0.445 I-0.1429 J-0.1228
X0.0085 Y-0.1877 Z-0.459 I0.1728 J-0.0746
X0.1649 Y0.09 Z-0.4729 I-0.0086 J0.1877
X-0.1529 Y0.1089 Z-0.4869 I-0.1648 J-0.0899
X-0.0308 Y-0.1846 Z-0.5009 I0.1528 J-0.1086
X0.1793 Y0.0534 Z-0.5149 I0.0306 J0.1847
X-0.1263 Y0.1378 Z-0.5288 I-0.1792 J-0.0533
X-0.0684 Y-0.1735 Z-0.5428 I0.1262 J-0.1376
X0.1857 Y0.0147 Z-0.5568 I0.0683 J0.1735
X-0.0944 Y0.1605 Z-0.5708 I-0.1856 J-0.0146
X-0.1027 Y-0.1548 Z-0.5847 I0.0944 J-0.1603
X0.184 Y-0.0243 Z-0.5987 I0.1026 J0.1548
X-0.0586 Y0.176 Z-0.6127 I-0.1839 J0.0243
X-0.1323 Y-0.1294 Z-0.6267 I0.0586 J-0.1757
X0.1741 Y-0.0619 Z-0.6406 I0.1321 J0.1295
X-0.0205 Y0.1836 Z-0.6546 I-0.1741 J0.0619
X-0.1558 Y-0.0985 Z-0.6686 I0.0206 J-0.1834
X0.1567 Y-0.0965 Z-0.6826 I0.1556 J0.0987
X0.0182 Y0.1831 Z-0.6965 I-0.1567 J0.0965
X-0.1723 Y-0.0636 Z-0.7105 I-0.0181 J-0.1829
X0.1326 Y-0.1266 Z-0.7245 I0.1721 J0.0638
X0.0557 Y0.1746 Z-0.7385 I-0.1325 J0.1266
X-0.1811 Y-0.0261 Z-0.7524 I-0.0557 J-0.1744
X0.1028 Y-0.1509 Z-0.7664 I0.1809 J0.0263
X0.0906 Y0.1585 Z-0.7804 I-0.1028 J0.1509
X-0.1818 Y0.0122 Z-0.7944 I-0.0905 J-0.1583
X0.0687 Y-0.1683 Z-0.8083 I0.1817 J-0.012
X0.1211 Y0.1355 Z-0.8223 I-0.0687 J0.1683
X-0.1746 Y0.0497 Z-0.8363 I-0.121 J-0.1354
X0.0319 Y-0.1783 Z-0.8503 I0.1745 J-0.0494
X0.1462 Y0.1068 Z-0.8642 I-0.032 J0.1783
X-0.1598 Y0.0847 Z-0.8782 I-0.146 J-0.1067
X-0.006 Y-0.1803 Z-0.8922 I0.1597 J-0.0844
X0.1645 Y0.0737 Z-0.9062 I0.0059 J0.1803
X-0.138 Y0.1157 Z-0.9201 I-0.1644 J-0.0735
X-0.0434 Y-0.1743 Z-0.9341 I0.138 J-0.1154
X0.1755 Y0.0375 Z-0.9481 I0.0433 J0.1744
X-0.1104 Y0.1414 Z-0.9621 I-0.1754 J-0.0374
X-0.0785 Y-0.1608 Z-0.976 I0.1104 J-0.1411
X0.1788 Y0.0001 Z-0.99 I0.0784 J0.1608
X-0.1791 I-0.1789 J0.
X0.1788 I0.1789 J0.
G1 X0.1796 Y0.0533
X0.1804 Y0.0566
X0.1815 Y0.0625
X0.1821 Y0.0684
X0.1823 Y0.0744
X0.1821 Y0.0804
X0.1815 Y0.0864
X0.1806 Y0.0923
X0.1794 Y0.0982
X0.1778 Y0.1042
X0.1759 Y0.1104
X0.1736 Y0.1167
X0.1709 Y0.1232
X0.1678 Y0.1297
X0.1642 Y0.1363
X0.1602 Y0.1429
X0.1558 Y0.1495
X0.1509 Y0.156
X0.1456 Y0.1625
X0.1398 Y0.1688
X0.1336 Y0.175
X0.127 Y0.1809
X0.1199 Y0.1867
X0.1125 Y0.1922
X0.1047 Y0.1974
X0.0965 Y0.2023
X0.0879 Y0.2069
X0.0791 Y0.2111
X0.0699 Y0.2149
X0.0605 Y0.2182
X0.0508 Y0.2212
X0.0432 Y0.2231
X0.0405 Y0.2237
X0.0347 Y0.225
X0.03 Y0.226
X0.015 Y0.2277
X0. Y0.2288
X-0.015 Y0.2277
X-0.03 Y0.226
X-0.0704 Y0.2172
X-0.075 Y0.216
X-0.09 Y0.2097
X-0.1061 Y0.2022
X-0.12 Y0.1944
X-0.135 Y0.1839
X-0.15 Y0.1726
X-0.1728 Y0.1498
X-0.1788 Y0.1423
X-0.195 Y0.1192
X-0.1992 Y0.1123
X-0.21 Y0.0895
X-0.2133 Y0.0824
X-0.2181 Y0.0674
X-0.2221 Y0.0524
X-0.225 Y0.0365
X-0.227 Y0.0225
X-0.2283 Y0.0075
X-0.2288 Y0.
X-0.2282 Y-0.0075
X-0.2244 Y-0.0374
X-0.2221 Y-0.0524
X-0.2181 Y-0.0674
X-0.2133 Y-0.0824
X-0.2024 Y-0.1056
X-0.1992 Y-0.1123
X-0.195 Y-0.1192
X-0.1788 Y-0.1423
X-0.1728 Y-0.1498
X-0.15 Y-0.1726
X-0.135 Y-0.1839
X-0.12 Y-0.1944
X-0.1061 Y-0.2022
X-0.09 Y-0.2097
X-0.075 Y-0.216
X-0.0704 Y-0.2172
X-0.03 Y-0.226
X-0.015 Y-0.2277
X0. Y-0.2288
X0.015 Y-0.2277
X0.03 Y-0.226
X0.0704 Y-0.2172
X0.075 Y-0.216
X0.09 Y-0.2097
X0.1061 Y-0.2022
X0.12 Y-0.1944
X0.135 Y-0.1839
X0.15 Y-0.1726
X0.1728 Y-0.1498
X0.1788 Y-0.1423
X0.195 Y-0.1192
X0.1992 Y-0.1123
X0.21 Y-0.0895
X0.2133 Y-0.0824
X0.2181 Y-0.0674
X0.2221 Y-0.0524
X0.225 Y-0.0365
X0.227 Y-0.0225
X0.2283 Y-0.0075
X0.2288 Y0.
X0.2282 Y0.0075
X0.2244 Y0.0374
X0.2221 Y0.0524
X0.2181 Y0.0674
X0.2133 Y0.0824
X0.2063 Y0.0974
X0.1992 Y0.1123
X0.195 Y0.1192
X0.1788 Y0.1423
X0.1728 Y0.1498
X0.15 Y0.1726
X0.135 Y0.1839
X0.12 Y0.1944
X0.1061 Y0.2022
X0.09 Y0.2097
X0.075 Y0.216
X0.0704 Y0.2172
X0.0405 Y0.2237
G3 X0.0104 Y0.2198 I-0.009 J-0.0492
G1 X0.0053 Y0.2174 Z-0.9897
X0.0003 Y0.2151 Z-0.9887
X-0.0046 Y0.2128 Z-0.9872
X-0.0093 Y0.2106 Z-0.985
X-0.0137 Y0.2085 Z-0.9823
X-0.0179 Y0.2066 Z-0.9791
X-0.0217 Y0.2048 Z-0.9754
X-0.025 Y0.2032 Z-0.9712
X-0.028 Y0.2019 Z-0.9666
X-0.0304 Y0.2007 Z-0.9617
X-0.0324 Y0.1998 Z-0.9565
X-0.0338 Y0.1991 Z-0.9511
X-0.0346 Y0.1987 Z-0.9456
X-0.0349 Y0.1986 Z-0.94
G0 Z0.6
M5
G54 Z1.
(FACE1)
M9
T48 M6
S3000 M3
G54
G64 P0.0004 Q0.0004
M8
G0 X4.5991 Y0.
G43 Z0.6 H48
G0 Z0.3837
G18 G3 X4.2054 Z-0.01 I-0.3937 K0. F90.
G1 X4.0089
X-4.0089
G3 X-4.4026 Z0.3837 I0. K0.3937
G0 Z0.6
G17
M5
G54 G0 Z1.
(DRILL1)
M9
T52 M6
S5000 M3
G54
M8
G0 X-0.6 Y0.6
G43 Z0.39 H52
G0 Z0.19
G98 G81 X-0.6 Y0.6 Z-1.01 R0.19 F50.
G80
G0 Z0.39
M5
G54 Z1.
(2D CONTOUR1)
M9
T8 M6
S6000 M3
G54
G64 P0.0004 Q0.0004
M8
G0 X0.1 Y-0.05
G43 Z0.6 H8
G0 Z0.2
G1 Z0.0394 F90.
Z-0.96
G18 G2 X0.15 Z-1.01 I0.05 K0.
G1 X0.2
G17 G3 X0.25 Y0. I0. J0.05
X-0.25 I-0.25 J0.
X0.25 I0.25 J0.
X0.2 Y0.05 I-0.05 J0.
G1 X0.15
G18 G3 X0.1 Z-0.96 I0. K0.05
G0 Z0.2
X-1.55 Y1.4
G1 Z0.0394 F90.
Z-0.96
G19 G2 Y1.35 Z-1.01 J-0.05 K0.
G1 Y1.3
G17 G3 X-1.5 Y1.25 I0.05 J0.
G1 X1.5
G2 X2.25 Y0.5 I0. J-0.75
G1 Y-0.5
G2 X1.5 Y-1.25 I-0.75 J0.
G1 X-1.5
G2 X-2.25 Y-0.5 I0. J0.75
G1 Y0.5
G2 X-1.5 Y1.25 I0.75 J0.
G3 X-1.45 Y1.3 I0. J0.05
G1 Y1.35
G19 G3 Y1.4 Z-0.96 J0. K0.05
G0 Z0.6
G17
M5
G54 G0 Z1.
(2D CHAMFER1)
M9
T21 M6
S5000 M3
G54
M8
G0 X0.3954 Y-0.1061
G43 Z0.6 H21
G0 Z0.2
G1 Z0.08 F100.
Z0.
X0.3956 Y-0.1058 Z-0.0056
X0.3962 Y-0.1052 Z-0.0111
X0.3973 Y-0.1041 Z-0.0165
X0.3989 Y-0.1026 Z-0.0217
X0.4008 Y-0.1006 Z-0.0266
X0.4031 Y-0.0984 Z-0.0312
X0.4057 Y-0.0957 Z-0.0354
X0.4087 Y-0.0928 Z-0.0391
X0.4119 Y-0.0895 Z-0.0423
X0.4154 Y-0.0861 Z-0.045
X0.419 Y-0.0824 Z-0.0472
X0.4228 Y-0.0786 Z-0.0487
X0.4268 Y-0.0747 Z-0.0497
X0.4307 Y-0.0707 Z-0.05
G3 X0.46 Y0. I-0.0707 J0.0707
X-0.46 I-0.46 J0.
X0.46 I0.46 J0.
X0.4307 Y0.0707 I-0.1 J0.
G1 X0.4268 Y0.0747 Z-0.0497
X0.4228 Y0.0786 Z-0.0487
X0.419 Y0.0824 Z-0.0472
X0.4154 Y0.0861 Z-0.045
X0.4119 Y0.0895 Z-0.0423
X0.4087 Y0.0928 Z-0.0391
X0.4057 Y0.0957 Z-0.0354
X0.4031 Y0.0984 Z-0.0312
X0.4008 Y0.1006 Z-0.0266
X0.3989 Y0.1026 Z-0.0217
X0.3973 Y0.1041 Z-0.0165
X0.3962 Y0.1052 Z-0.0111
X0.3956 Y0.1058 Z-0.0056
X0.3954 Y0.1061 Z0.
G0 Z0.2
X-1.6061 Y1.1046
G1 Z0.08 F100.
Z0.
X-1.6058 Y1.1044 Z-0.0056
X-1.6052 Y1.1038 Z-0.0111
X-1.6041 Y1.1027 Z-0.0165
X-1.6026 Y1.1011 Z-0.0217
X-1.6006 Y1.0992 Z-0.0266
X-1.5984 Y1.0969 Z-0.0312
X-1.5957 Y1.0943 Z-0.0354
X-1.5928 Y1.0913 Z-0.0391
X-1.5895 Y1.0881 Z-0.0423
X-1.5861 Y1.0846 Z-0.045
X-1.5824 Y1.081 Z-0.0472
X-1.5786 Y1.0772 Z-0.0487
X-1.5747 Y1.0732 Z-0.0497
X-1.5707 Y1.0693 Z-0.05
G3 X-1.5 Y1.04 I0.0707 J0.0707
G1 X1.5
G2 X2.04 Y0.5 I0. J-0.54
G1 Y-0.5
G2 X1.5 Y-1.04 I-0.54 J0.
G1 X-1.5
G2 X-2.04 Y-0.5 I0. J0.54
G1 Y0.5
G2 X-1.5 Y1.04 I0.54 J0.
G3 X-1.4293 Y1.0693 I0. J0.1
G1 X-1.4253 Y1.0732 Z-0.0497
X-1.4214 Y1.0772 Z-0.0487
X-1.4176 Y1.081 Z-0.0472
X-1.4139 Y1.0846 Z-0.045
X-1.4105 Y1.0881 Z-0.0423
X-1.4072 Y1.0913 Z-0.0391
X-1.4043 Y1.0943 Z-0.0354
X-1.4016 Y1.0969 Z-0.0312
X-1.3994 Y1.0992 Z-0.0266
X-1.3974 Y1.1011 Z-0.0217
X-1.3959 Y1.1027 Z-0.0165
X-1.3948 Y1.1038 Z-0.0111
X-1.3942 Y1.1044 Z-0.0056
X-1.3939 Y1.1046 Z0.
G0 Z0.6
M5
M9
M30
%
