%
(1005)
(T24  D=4. CR=0. - FLAT END MILL)
G90 G93 G17 G91.1
G64 P0.001
G20
G53 G0 Z0.000000
(2D CONTOUR3)
M9
T24 M6
(4MM 4 FLUTE FLAT)
S5000 M3
G54
G0 A0.000000
M8
G0 X-4.623071 Y0.000000
G43 Z2.362205 H24
G1 A54.000000 F999999.
G0 Z1.482283
G94 G1 Z1.316929 F13.123358
Z1.222441
G93 G1 X-4.621496 A55.000000 F1345.7702
X-4.619921 A56.000000 F1345.7737
X-4.618307 A58.000000 F1345.7715
X-4.616732 A59.000000 F1345.771
X-4.615157 A60.000000 F1345.7723
X-4.613583 A62.000000 F1345.7708
X-4.612008 A63.000000 F1345.7709
X-4.610433 A65.000000 F1345.7715
X-4.608858 A66.000000 F1345.7711
X-4.607283 A67.000000 F1345.772
X-4.605709 A69.000000 F1345.7715
X-4.604134 A70.000000 F1345.7714
X-4.602559 A71.000000 F1345.7725
X-4.600984 A73.000000 F1345.7706
X-4.599409 A74.000000 F1345.7718
X-4.597835 A75.000000 F1345.7711
X-4.596260 A77.000000 F1345.7714
X-4.594685 A78.000000 F1345.771
X-4.593110 A80.000000 F1345.7719
X-4.591535 A81.000000 F1345.7713
X-4.589961 A82.000000 F1345.7715
X-4.588386 A84.000000 F1345.7721
X-4.586811 A85.000000 F1345.7712
X-4.585236 A86.000000 F1345.7716
X-4.583661 A88.000000 F1345.7714
X-4.582087 A89.000000 F1345.7714
X-4.580512 A91.000000 F1345.7715
X-4.578937 A92.000000 F1345.7714
X-4.577362 A93.000000 F1345.7715
X-4.575787 A95.000000 F1345.772
X-4.574213 A96.000000 F1345.7713
X-4.572638 A97.000000 F1345.7717
X-4.571063 A99.000000 F1345.7713
X-4.569488 A100.000000 F1345.7715
X-4.567913 A101.000000 F1345.7712
X-4.566339 A103.000000 F1345.7719
X-4.564764 A104.000000 F1345.7704
X-4.563189 A106.000000 F1345.7715
X-4.561614 A107.000000 F1345.7729
X-4.560039 A108.000000 F1345.7713
X-4.558465 A110.000000 F1345.7715
X-4.556890 A111.000000 F1345.7715
X-4.555315 A112.000000 F1345.7715
X-4.553740 A114.000000 F1345.7707
X-4.552165 A115.000000 F1345.7714
X-4.550591 A117.000000 F1345.7714
X-4.548976 A118.000000 F1345.771
X-4.547402 A119.000000 F1345.7729
X-4.545827 A121.000000 F1345.7719
X-4.544252 A122.000000 F1345.7705
X-4.542677 A123.000000 F1345.771
X-4.541102 A125.000000 F1345.7707
X-4.539528 A126.000000 F1345.7726
X-4.537953 A128.000000 F1345.7713
X-4.536378 A129.000000 F1345.7717
X-4.534803 A130.000000 F1345.77
X-4.533228 A132.000000 F1345.7717
X-4.531654 A133.000000 F1345.7728
X-4.530079 A134.000000 F1345.7719
X-4.528504 A136.000000 F1345.7705
X-4.526929 A137.000000 F1345.7713
X-4.525354 A138.000000 F1345.7721
X-4.523780 A140.000000 F1345.7712
X-4.522205 A141.000000 F1345.7708
X-4.520630 A143.000000 F1345.7716
X-4.519055 A144.000000 F1345.7725
X-4.517480 A145.000000 F1345.771
X-4.515906 A147.000000 F1345.7728
X-4.514331 A148.000000 F1345.7709
X-4.512756 A149.000000 F1345.7716
X-4.511181 A151.000000 F1345.7702
X-4.509606 A152.000000 F1345.7719
X-4.508031 A154.000000 F1345.7734
X-4.506457 A155.000000 F1345.7708
X-4.504882 A156.000000 F1345.771
X-4.503307 A158.000000 F1345.7712
X-4.501732 A159.000000 F1345.772
X-4.500157 A160.000000 F1345.7705
X-4.498583 A162.000000 F1345.7731
X-4.497008 A163.000000 F1345.7702
X-4.495433 A164.000000 F1345.7711
X-4.493858 A166.000000 F1345.7725
X-4.492283 A167.000000 F1345.7716
X-4.490709 A169.000000 F1345.7709
X-4.489134 A170.000000 F1345.7724
X-4.487559 A171.000000 F1345.7711
X-4.485984 A173.000000 F1345.7712
X-4.484409 A174.000000 F1345.7715
X-4.482835 A175.000000 F1345.7713
X-4.481260 A177.000000 F1345.7723
X-4.479646 A178.000000 F1345.7713
X-4.478071 A180.000000 F1345.7714
X-4.476496 A181.000000 F1345.7714
X-4.474921 A182.000000 F1345.7715
X-4.473346 A184.000000 F1345.7712
X-4.471772 A185.000000 F1345.7713
X-4.470197 A186.000000 F1345.7715
X-4.468622 A188.000000 F1345.7718
X-4.467047 A189.000000 F1345.7721
X-4.465472 A190.000000 F1345.7709
X-4.463898 A192.000000 F1345.7722
X-4.462323 A193.000000 F1345.7709
X-4.460748 A195.000000 F1345.7715
X-4.459173 A196.000000 F1345.7705
X-4.457598 A197.000000 F1345.7725
X-4.456024 A199.000000 F1345.77
X-4.454449 A200.000000 F1345.7731
X-4.452874 A201.000000 F1345.7713
X-4.451299 A203.000000 F1345.7723
X-4.449724 A204.000000 F1345.7711
X-4.448150 A206.000000 F1345.7711
X-4.446575 A207.000000 F1345.7701
X-4.445000 A208.000000 F1345.7727
X-4.443425 A210.000000 F1345.7714
X-4.441850 A211.000000 F1345.7717
X-4.440276 A212.000000 F1345.7705
X-4.438701 A214.000000 F1345.7734
X-4.437126 A215.000000 F1345.7714
X-4.435551 A217.000000 F1345.7696
X-4.433976 A218.000000 F1345.7728
X-4.432402 A219.000000 F1345.7707
X-4.430827 A221.000000 F1345.7716
X-4.429252 A222.000000 F1345.7723
X-4.427677 A223.000000 F1345.7724
X-4.426102 A225.000000 F1345.771
X-4.424528 A226.000000 F1345.77
X-4.422953 A227.000000 F1345.7737
X-4.421378 A229.000000 F1345.7725
X-4.419961 A230.000000 F1499.1914
X-4.418504 A231.000000 F1499.0695
A231.000000 F368115.0631
X-4.417087 A233.000000 F1498.9652
X-4.415630 A234.000000 F1498.8643
A234.000000 F367888.7036
X-4.414213 A235.000000 F1498.7538
X-4.412756 A236.000000 F1498.4045
A236.000000 F370039.8724
X-4.411339 A237.000000 F1498.5436
X-4.409882 A239.000000 F1498.4366
A239.000000 F367876.1152
X-4.408465 A240.000000 F1498.3505
X-4.407008 A241.000000 F1498.4381
X-4.405551 A242.000000 F1495.1468
A242.000000 F373033.8061
X-4.404134 A244.000000 F1498.5436
X-4.402677 A245.000000 F1496.9045
X-4.401220 A246.000000 F1496.906
A246.000000 F372964.2599
X-4.399803 A247.000000 F1498.7696
X-4.398346 A249.000000 F1498.8777
X-4.396890 A250.000000 F1496.0497
X-4.395433 A251.000000 F1496.0488
A251.000000 F373914.0958
X-4.394016 A252.000000 F1499.6035
X-4.392559 A253.000000 F1499.5108
X-4.391102 A255.000000 F1496.6886
X-4.389646 A256.000000 F1496.6901
X-4.388189 A257.000000 F1496.9
X-4.386732 A258.000000 F1496.6416
A258.000000 F369966.5062
X-4.385315 A260.000000 F1499.8138
X-4.383858 A261.000000 F1497.969
X-4.382402 A262.000000 F1497.9687
X-4.380945 A263.000000 F1495.9757
X-4.379488 A265.000000 F1496.0898
X-4.378031 A266.000000 F1496.722
X-4.376575 A267.000000 F1495.4408
X-4.375118 A268.000000 F1493.3376
X-4.374016 A269.000000 F1994.2172
X-4.372913 A270.000000 F1994.2155
X-4.371850 A271.000000 F1994.2171
X-4.370748 A272.000000 F1994.217
X-4.369291 A273.000000 F1496.3421
X-4.367795 A274.000000 F1498.6867
A274.000000 F369883.2878
X-4.366339 A276.000000 F1495.6029
X-4.364882 A277.000000 F1493.3378
X-4.363425 A278.000000 F1495.7657
X-4.361969 A279.000000 F1498.632
X-4.360472 A281.000000 F1498.5234
A281.000000 F370002.775
X-4.359016 A282.000000 F1495.6104
X-4.357559 A283.000000 F1495.6116
X-4.356102 A284.000000 F1498.6311
X-4.354606 A285.000000 F1498.524
A285.000000 F389769.4399
X-4.353150 A287.000000 F1497.7452
X-4.351693 A288.000000 F1498.4876
X-4.350197 A289.000000 F1500.8022
A289.000000 F351067.4882
X-4.348740 A290.000000 F1495.7823
X-4.347283 A292.000000 F1500.7682
X-4.345787 A293.000000 F1498.3599
A293.000000 F389816.3828
X-4.344331 A294.000000 F1500.6173
X-4.342835 A295.000000 F1498.363
A295.000000 F369789.0645
X-4.341378 A297.000000 F1498.7966
X-4.339882 A298.000000 F1500.8211
A298.000000 F351131.6503
X-4.338425 A299.000000 F1498.6309
X-4.336929 A300.000000 F1498.5055
A300.000000 F371007.2593
X-4.335472 A301.000000 F1498.4707
X-4.333976 A303.000000 F1496.2145
A303.000000 F390897.1859
X-4.332520 A304.000000 F1498.6468
X-4.331024 A305.000000 F1498.509
A305.000000 F370059.6899
X-4.329567 A306.000000 F1498.4838
X-4.328071 A308.000000 F1496.3782
X-4.326575 A309.000000 F1495.6585
A309.000000 F369894.7946
X-4.325118 A310.000000 F1498.4661
X-4.323622 A311.000000 F1496.3807
X-4.322126 A313.000000 F1495.5698
X-4.320630 A314.000000 F1495.5664
A314.000000 F369740.7846
X-4.319173 A315.000000 F1498.6523
X-4.318031 A316.000000 F1995.391
X-4.316929 A317.000000 F1995.3953
X-4.315787 A318.000000 F1995.3975
X-4.314685 A319.000000 F1995.3881
X-4.313189 A320.000000 F1497.7676
A320.000000 F351076.8544
X-4.311732 A321.000000 F1498.8133
X-4.310236 A322.000000 F1500.8006
X-4.308740 A324.000000 F1495.3339
X-4.307244 A325.000000 F1497.7641
X-4.305748 A326.000000 F1495.331
X-4.304252 A327.000000 F1497.7692
X-4.302756 A329.000000 F1495.3307
X-4.301260 A330.000000 F1497.7638
X-4.299764 A331.000000 F1495.1696
X-4.298268 A332.000000 F1495.4789
X-4.296772 A334.000000 F1495.4779
X-4.295630 A334.000000 F1993.9904
X-4.294528 A335.000000 F1993.9916
X-4.293386 A336.000000 F1993.9961
X-4.292283 A337.000000 F1993.9877
X-4.290787 A338.000000 F1496.2172
X-4.289252 A340.000000 F1498.5258
A340.000000 F371885.8759
X-4.287756 A341.000000 F1495.4599
X-4.286260 A342.000000 F1493.1963
X-4.284764 A343.000000 F1495.6572
X-4.283268 A345.000000 F1498.3607
X-4.281732 A346.000000 F1496.0868
A346.000000 F390905.3346
X-4.280236 A347.000000 F1495.4938
X-4.278740 A348.000000 F1495.4944
X-4.277244 A350.000000 F1498.4906
X-4.275709 A351.000000 F1498.3947
A351.000000 F390884.9908
X-4.274213 A352.000000 F1497.6029
X-4.272717 A353.000000 F1498.1964
X-4.271181 A354.000000 F1498.3948
A354.000000 F390830.4377
X-4.269685 A356.000000 F1497.6031
X-4.268189 A357.000000 F1498.3601
X-4.266654 A358.000000 F1500.6747
A358.000000 F369905.7756
X-4.265157 A359.000000 F1500.4774
X-4.263622 A1.000000 F1498.231
A1.000000 F369847.0797
X-4.262126 A2.000000 F1498.6865
X-4.260591 A3.000000 F1500.6749
A3.000000 F351027.8986
X-4.259094 A4.000000 F1498.5228
X-4.257559 A6.000000 F1498.362
A6.000000 F369840.1641
X-4.256063 A7.000000 F1498.5242
X-4.254528 A8.000000 F1496.8777
X-4.252992 A9.000000 F1496.8771
A9.000000 F369974.4281
X-4.251496 A10.000000 F1498.4903
X-4.249961 A12.000000 F1498.3936
X-4.248425 A13.000000 F1492.9066
A13.000000 F390960.2096
X-4.246929 A14.000000 F1498.5221
X-4.245394 A15.000000 F1498.3935
X-4.243858 A17.000000 F1492.9075
A17.000000 F390845.0457
X-4.242362 A18.000000 F1498.5229
X-4.241220 A19.000000 F1995.152
X-4.240079 A20.000000 F1995.149
X-4.238898 A21.000000 F1995.1471
X-4.237756 A22.000000 F1995.1504
A22.000000 F369952.1375
X-4.236260 A23.000000 F1498.5232
X-4.235118 A24.000000 F1995.2237
X-4.233976 A25.000000 F1995.2219
X-4.232795 A26.000000 F1995.2225
X-4.231654 A26.000000 F1995.222
X-4.230118 A28.000000 F1497.6378
X-4.228583 A29.000000 F1495.2024
X-4.227047 A30.000000 F1497.6366
X-4.225512 A31.000000 F1495.2045
X-4.223976 A33.000000 F1497.6341
X-4.222441 A34.000000 F1495.2055
X-4.220906 A35.000000 F1497.6343
X-4.219370 A36.000000 F1495.0418
X-4.217835 A38.000000 F1495.5245
X-4.216299 A39.000000 F1497.6378
X-4.214764 A40.000000 F1495.0106
X-4.213228 A41.000000 F1495.3635
X-4.211693 A42.000000 F1493.068
X-4.210157 A44.000000 F1495.4477
X-4.208622 A45.000000 F1495.4464
X-4.207087 A46.000000 F1498.197
X-4.205512 A47.000000 F1495.956
A47.000000 F393168.4294
X-4.203976 A49.000000 F1495.3489
X-4.202441 A50.000000 F1495.3481
X-4.200906 A51.000000 F1496.0884
X-4.199331 A52.000000 F1498.4241
A52.000000 F369969.0163
X-4.197795 A54.000000 F1495.362
X-4.196260 A55.000000 F1498.3653
X-4.194685 A56.000000 F1498.2609
A56.000000 F369857.8846
X-4.193150 A57.000000 F1495.3666
X-4.191614 A59.000000 F1498.3899
X-4.190039 A60.000000 F1498.2316
A60.000000 F393136.0141
X-4.188504 A61.000000 F1497.4717
X-4.186969 A62.000000 F1498.2307
X-4.185394 A63.000000 F1500.5423
A63.000000 F351008.2187
X-4.183858 A65.000000 F1498.5589
X-4.182283 A66.000000 F1500.5423
A66.000000 F350879.2005
X-4.180748 A67.000000 F1498.5576
X-4.179173 A68.000000 F1500.5425
A68.000000 F350926.4552
X-4.177638 A70.000000 F1498.5585
X-4.176063 A71.000000 F1500.5417
X-4.174488 A72.000000 F1494.8773
A72.000000 F369787.5929
X-4.172953 A73.000000 F1498.3934
X-4.171378 A75.000000 F1498.2617
A75.000000 F369890.0767
X-4.169843 A76.000000 F1498.3618
X-4.168268 A77.000000 F1498.2607
X-4.166693 A78.000000 F1492.7749
A78.000000 F390888.3857
X-4.165157 A79.000000 F1498.3945
X-4.163583 A81.000000 F1498.262
X-4.162008 A82.000000 F1492.9359
X-4.160433 A83.000000 F1495.3963
A83.000000 F369841.4452
X-4.158898 A84.000000 F1498.3622
X-4.157323 A86.000000 F1498.2608
X-4.155748 A87.000000 F1492.9371
X-4.154173 A88.000000 F1495.3141
X-4.152598 A89.000000 F1495.3149
A89.000000 F369849.7871
X-4.151063 A91.000000 F1498.3936
X-4.149488 A92.000000 F1498.4248
X-4.147913 A93.000000 F1497.5043
X-4.146339 A94.000000 F1495.0388
X-4.144764 A95.000000 F1497.5357
X-4.143189 A97.000000 F1495.0383
X-4.141614 A98.000000 F1497.538
X-4.140039 A99.000000 F1495.0378
X-4.138465 A100.000000 F1497.5358
X-4.136890 A102.000000 F1495.0382
X-4.135315 A103.000000 F1497.5371
X-4.133740 A104.000000 F1494.8757
X-4.132165 A105.000000 F1495.2312
X-4.130591 A107.000000 F1495.2338
X-4.129016 A108.000000 F1498.2303
X-4.127402 A109.000000 F1498.1261
A109.000000 F369796.5151
X-4.125827 A110.000000 F1495.2336
X-4.124252 A111.000000 F1495.2178
X-4.122677 A113.000000 F1495.2173
X-4.121102 A114.000000 F1495.9556
X-4.119488 A115.000000 F1498.2871
A115.000000 F369942.283
X-4.117913 A116.000000 F1495.2317
X-4.116339 A118.000000 F1492.9377
X-4.114764 A119.000000 F1498.4259
X-4.113150 A120.000000 F1498.0927
A120.000000 F371832.445
X-4.111575 A121.000000 F1498.2272
X-4.109961 A123.000000 F1498.1261
A123.000000 F369837.7314
X-4.108386 A124.000000 F1495.236
X-4.106811 A125.000000 F1498.2278
X-4.105197 A126.000000 F1498.1234
A126.000000 F369921.3104
X-4.103622 A127.000000 F1498.4247
X-4.102008 A129.000000 F1500.4424
A129.000000 F348951.0446
X-4.100433 A130.000000 F1498.4258
X-4.098819 A131.000000 F1500.4395
A131.000000 F349146.9079
X-4.097244 A132.000000 F1498.4245
X-4.095630 A134.000000 F1500.4402
A134.000000 F349046.6144
X-4.094055 A135.000000 F1498.4256
X-4.092441 A136.000000 F1500.4381
A136.000000 F349171.2978
X-4.090866 A137.000000 F1498.2647
X-4.089252 A139.000000 F1498.2877
X-4.087638 A140.000000 F1497.4007
A140.000000 F349144.0433
X-4.086063 A141.000000 F1498.2595
X-4.084449 A142.000000 F1498.0964
A142.000000 F350922.289
X-4.082874 A143.000000 F1496.2809
X-4.081693 A144.000000 F1994.8658
X-4.080472 A145.000000 F1994.8661
X-4.079252 A146.000000 F1994.865
X-4.078031 A147.000000 F1994.8688
A147.000000 F350989.0456
X-4.076457 A148.000000 F1496.3117
X-4.074843 A150.000000 F1496.6763
X-4.073228 A151.000000 F1496.676
X-4.071614 A152.000000 F1492.8024
X-4.070000 A153.000000 F1495.2588
A153.000000 F369980.5311
X-4.068425 A155.000000 F1498.2599
X-4.066811 A156.000000 F1495.8864
X-4.065197 A157.000000 F1495.8862
X-4.063583 A158.000000 F1495.8856
X-4.061969 A160.000000 F1495.8868
X-4.060354 A161.000000 F1497.4017
X-4.058740 A162.000000 F1494.7381
X-4.057126 A163.000000 F1495.2621
X-4.055512 A164.000000 F1497.3017
X-4.053898 A166.000000 F1497.3033
X-4.052283 A167.000000 F1494.9032
X-4.050669 A168.000000 F1497.4007
X-4.049055 A169.000000 F1494.7405
X-4.047441 A171.000000 F1495.2598
X-4.045827 A172.000000 F1500.242
X-4.044213 A173.000000 F1497.7922
X-4.044173 A173.000000 F369784.6941
X-4.042992 A174.000000 F1993.4628
X-4.041772 A175.000000 F1993.4641
X-4.040551 A176.000000 F1993.4652
X-4.039331 A177.000000 F1993.4625
X-4.037717 A178.000000 F1497.9301
X-4.036102 A179.000000 F1495.6833
X-4.036063 A179.000000 F390782.9223
X-4.034449 A180.000000 F1495.0976
X-4.032835 A182.000000 F1495.0977
X-4.031220 A183.000000 F1495.8207
X-4.029606 A184.000000 F1498.1506
X-4.029567 A184.000000 F369781.2235
X-4.027953 A185.000000 F1495.0981
X-4.026339 A187.000000 F1497.8974
X-4.024724 A188.000000 F1495.6832
X-4.024685 A188.000000 F395268.2544
X-4.023071 A189.000000 F1495.0977
X-4.021457 A190.000000 F1498.0931
X-4.019843 A192.000000 F1497.955
X-4.019803 A192.000000 F395302.6888
X-4.018189 A193.000000 F1500.0468
X-4.016575 A194.000000 F1497.8224
X-4.016535 A194.000000 F369872.9786
X-4.014921 A195.000000 F1498.2889
X-4.013307 A196.000000 F1500.2974
X-4.013268 A196.000000 F347505.9933
X-4.011654 A198.000000 F1498.2886
X-4.010039 A199.000000 F1500.3001
X-4.010000 A199.000000 F350816.0405
X-4.008386 A200.000000 F1498.289
X-4.006772 A201.000000 F1500.2987
X-4.005118 A203.000000 F1494.5692
X-4.005079 A203.000000 F395414.1218
X-4.003465 A204.000000 F1500.0455
X-4.001850 A205.000000 F1497.8224
X-4.001811 A205.000000 F369756.6689
X-4.000197 A206.000000 F1498.0937
X-3.998976 A207.000000 F1994.6091
X-3.997756 A208.000000 F1994.6103
X-3.996496 A209.000000 F1994.607
X-3.995276 A210.000000 F1994.6071
X-3.995236 A210.000000 F369875.1877
X-3.993622 A211.000000 F1498.0921
X-3.992008 A212.000000 F1498.0214
X-3.990354 A214.000000 F1492.6321
X-3.988701 A215.000000 F1495.1529
X-3.988661 A215.000000 F369845.369
X-3.987047 A216.000000 F1497.8963
X-3.985433 A217.000000 F1495.8781
X-3.983780 A219.000000 F1495.025
X-3.982126 A220.000000 F1495.0238
X-3.980472 A221.000000 F1492.696
X-3.978819 A222.000000 F1495.0256
X-3.977165 A224.000000 F1495.0238
X-3.977126 A224.000000 F369777.6596
X-3.975512 A225.000000 F1498.2879
X-3.973898 A226.000000 F1500.2997
X-3.972244 A227.000000 F1494.6354
X-3.970591 A228.000000 F1495.0865
X-3.968937 A230.000000 F1497.2941
X-3.967283 A231.000000 F1497.7612
X-3.965591 A232.000000 F1500.1564
A232.000000 F350851.0924
X-3.963937 A233.000000 F1495.0869
X-3.962283 A235.000000 F1497.2969
X-3.960630 A236.000000 F1494.7631
X-3.958976 A237.000000 F1497.227
X-3.957323 A238.000000 F1494.5703
X-3.955669 A240.000000 F1495.1547
X-3.954016 A241.000000 F1500.1021
X-3.952323 A242.000000 F1497.6817
A242.000000 F369764.3934
X-3.950669 A243.000000 F1494.9598
X-3.949016 A244.000000 F1492.6317
X-3.947362 A246.000000 F1498.1494
X-3.945669 A247.000000 F1497.8122
A247.000000 F369660.6357
X-3.944016 A248.000000 F1494.9604
X-3.942362 A249.000000 F1495.6833
X-3.940669 A251.000000 F1498.0075
A251.000000 F369782.7181
X-3.939016 A252.000000 F1494.9596
X-3.937362 A253.000000 F1497.825
X-3.935669 A254.000000 F1495.4736
A254.000000 F395256.3266
X-3.934016 A256.000000 F1494.9596
X-3.932362 A257.000000 F1497.9549
X-3.930669 A258.000000 F1497.878
A258.000000 F390726.9318
X-3.929016 A259.000000 F1499.972
X-3.927323 A260.000000 F1497.6161
A260.000000 F369777.5618
X-3.925669 A262.000000 F1498.151
X-3.923976 A263.000000 F1500.1559
A263.000000 F350856.5721
X-3.922323 A264.000000 F1498.1509
X-3.920630 A265.000000 F1500.1561
X-3.918937 A267.000000 F1494.4267
A267.000000 F395261.3514
X-3.917283 A268.000000 F1499.9058
X-3.915591 A269.000000 F1497.6172
A269.000000 F373721.3594
X-3.913937 A270.000000 F1498.1507
X-3.912244 A272.000000 F1500.156
X-3.910551 A273.000000 F1494.4278
X-3.908858 A274.000000 F1494.8173
A274.000000 F369724.154
X-3.907205 A275.000000 F1497.9544
X-3.905512 A277.000000 F1497.8134
X-3.903819 A278.000000 F1492.3596
A278.000000 F395280.5062
X-3.902165 A279.000000 F1497.9539
X-3.900472 A280.000000 F1497.8127
X-3.898780 A281.000000 F1492.4917
X-3.897087 A283.000000 F1494.914
X-3.895394 A284.000000 F1494.914
X-3.893701 A285.000000 F1492.4904
X-3.892008 A286.000000 F1495.0123
A286.000000 F369690.7544
X-3.890354 A288.000000 F1497.9538
X-3.888228 A289.000000 F1196.365
X-3.886102 A291.000000 F1196.3618
X-3.883976 A292.000000 F1196.3648
X-3.881890 A294.000000 F1196.3625
X-3.880197 A295.000000 F1497.0853
X-3.878504 A296.000000 F1494.6246
X-3.876811 A297.000000 F1497.1491
X-3.875118 A299.000000 F1497.617
X-3.873386 A300.000000 F1500.0117
A300.000000 F369604.4844
X-3.871693 A301.000000 F1496.956
X-3.870000 A302.000000 F1494.6226
X-3.868307 A304.000000 F1497.1523
X-3.866614 A305.000000 F1494.4285
X-3.864921 A306.000000 F1494.8158
X-3.863228 A307.000000 F1497.8137
X-3.861496 A309.000000 F1497.6645
A309.000000 F369588.7116
X-3.859803 A310.000000 F1495.4714
X-3.858110 A311.000000 F1495.6317
X-3.856378 A312.000000 F1494.9367
X-3.854685 A313.000000 F1494.9358
X-3.852992 A315.000000 F1492.7712
X-3.851260 A316.000000 F1495.2145
X-3.849567 A317.000000 F1494.2533
X-3.847874 A318.000000 F1492.9496
X-3.846142 A320.000000 F1494.9583
X-3.844449 A321.000000 F1492.7549
X-3.842717 A322.000000 F1495.199
X-3.841024 A323.000000 F1494.4361
X-3.839724 A324.000000 F1993.1937
X-3.838465 A325.000000 F1993.1986
X-3.837165 A326.000000 F1993.1949
X-3.835866 A327.000000 F1993.1958
X-3.834173 A328.000000 F1497.2074
X-3.832441 A329.000000 F1494.797
X-3.830748 A331.000000 F1494.6131
X-3.829016 A332.000000 F1497.1623
X-3.827323 A333.000000 F1497.1617
X-3.825591 A334.000000 F1494.7833
X-3.823858 A336.000000 F1496.9325
X-3.822165 A337.000000 F1497.1781
X-3.820433 A338.000000 F1494.2122
X-3.818701 A339.000000 F1497.441
X-3.817008 A341.000000 F1494.7659
X-3.815276 A342.000000 F1494.6506
X-3.813543 A343.000000 F1497.295
X-3.811811 A344.000000 F1493.807
X-3.810118 A345.000000 F1493.218
X-3.808386 A347.000000 F1495.141
X-3.806654 A348.000000 F1494.1173
X-3.804921 A349.000000 F1494.7664
X-3.803189 A350.000000 F1492.8785
X-3.801457 A352.000000 F1494.8807
X-3.799724 A353.000000 F1492.3608
X-3.798031 A354.000000 F1495.1408
X-3.796299 A355.000000 F1494.9964
X-3.794567 A357.000000 F1492.152
X-3.792835 A358.000000 F1494.7513
X-3.791102 A359.000000 F1495.2568
X-3.789370 A0.000000 F1494.9821
X-3.787638 A1.000000 F1494.3474
X-3.785866 A3.000000 F1494.8851
X-3.784134 A4.000000 F1494.8836
X-3.782402 A5.000000 F1496.9901
X-3.780669 A6.000000 F1494.4625
X-3.778937 A8.000000 F1497.0556
X-3.777205 A9.000000 F1494.7729
X-3.775472 A10.000000 F1496.6658
X-3.773740 A11.000000 F1494.9023
X-3.771969 A13.000000 F1497.0396
X-3.770236 A14.000000 F1494.7587
X-3.768504 A15.000000 F1496.6487
X-3.767205 A16.000000 F1992.8657
X-3.765866 A17.000000 F1992.8655
X-3.764567 A18.000000 F1992.8669
X-3.763268 A19.000000 F1992.8646
X-3.761535 A20.000000 F1494.9544
X-3.759764 A21.000000 F1494.8726
X-3.758031 A22.000000 F1494.1073
X-3.756299 A24.000000 F1492.8052
X-3.754528 A25.000000 F1494.7751
X-3.752795 A26.000000 F1494.7771
X-3.751024 A27.000000 F1492.5298
X-3.749291 A29.000000 F1494.678
X-3.747520 A30.000000 F1494.759
X-3.745787 A31.000000 F1494.7604
X-3.744016 A32.000000 F1492.5983
X-3.742283 A34.000000 F1495.0386
X-3.740512 A35.000000 F1494.2703
X-3.738780 A36.000000 F1495.1057
X-3.737008 A37.000000 F1496.8496
X-3.735276 A38.000000 F1494.3875
X-3.733504 A40.000000 F1496.9851
X-3.731732 A41.000000 F1494.6933
X-3.730000 A42.000000 F1496.5927
X-3.728228 A43.000000 F1494.8277
X-3.726457 A45.000000 F1496.9017
X-3.724724 A46.000000 F1494.6985
X-3.722953 A47.000000 F1497.1467
X-3.721181 A48.000000 F1494.1643
X-3.719409 A50.000000 F1494.4364
X-3.717638 A51.000000 F1497.2788
X-3.715906 A52.000000 F1494.603
X-3.714134 A53.000000 F1493.9685
X-3.712362 A54.000000 F1492.5528
X-3.711024 A55.000000 F1992.9718
X-3.709724 A56.000000 F1992.9775
X-3.708386 A57.000000 F1992.9791
X-3.707047 A58.000000 F1992.9826
X-3.705276 A59.000000 F1492.4566
X-3.703504 A61.000000 F1494.6651
X-3.701732 A62.000000 F1494.7865
X-3.699961 A63.000000 F1492.1956
X-3.698189 A64.000000 F1494.7184
X-3.696417 A66.000000 F1494.8481
X-3.694646 A67.000000 F1494.7672
X-3.692874 A68.000000 F1494.1999
X-3.691102 A69.000000 F1494.6708
X-3.689331 A70.000000 F1494.6717
X-3.687559 A72.000000 F1494.9621
X-3.685787 A73.000000 F1497.0872
X-3.684016 A74.000000 F1494.0523
X-3.682244 A75.000000 F1497.0877
X-3.680433 A77.000000 F1494.2979
X-3.678661 A78.000000 F1496.8913
X-3.676890 A79.000000 F1494.6086
X-3.675118 A80.000000 F1496.4992
X-3.673307 A82.000000 F1494.5436
X-3.671535 A83.000000 F1494.6728
X-3.669764 A84.000000 F1496.8107
X-3.667953 A85.000000 F1494.3479
X-3.666181 A86.000000 F1494.7886
X-3.664409 A88.000000 F1494.153
X-3.662598 A89.000000 F1494.7235
X-3.660827 A90.000000 F1492.1369
X-3.659055 A91.000000 F1494.9825
X-3.657244 A93.000000 F1494.7084
X-3.655472 A94.000000 F1491.8778
X-3.653661 A95.000000 F1494.6753
X-3.651890 A96.000000 F1494.6757
X-3.650079 A98.000000 F1492.4454
X-3.648307 A99.000000 F1494.8879
X-3.646496 A100.000000 F1494.1881
X-3.644724 A101.000000 F1494.5623
X-3.642913 A102.000000 F1494.5624
X-3.641102 A104.000000 F1494.9527
X-3.639331 A105.000000 F1497.0108
X-3.637520 A106.000000 F1493.7168
X-3.635709 A107.000000 F1494.9381
X-3.633937 A109.000000 F1496.6852
X-3.632126 A110.000000 F1494.2224
X-3.630315 A111.000000 F1496.7499
X-3.628543 A112.000000 F1494.484
X-3.626732 A114.000000 F1496.9937
X-3.624921 A115.000000 F1494.2068
X-3.623110 A116.000000 F1496.7339
X-3.621299 A117.000000 F1494.2735
X-3.619488 A118.000000 F1494.7118
X-3.617717 A120.000000 F1494.075
X-3.615906 A121.000000 F1494.4826
X-3.614094 A122.000000 F1494.487
X-3.612283 A123.000000 F1494.4849
X-3.610472 A125.000000 F1494.4826
X-3.608661 A126.000000 F1492.566
X-3.606850 A127.000000 F1494.4375
X-3.605039 A128.000000 F1494.4352
X-3.603228 A130.000000 F1492.047
X-3.601417 A131.000000 F1494.566
X-3.599606 A132.000000 F1494.698
X-3.597795 A133.000000 F1494.6166
X-3.595984 A135.000000 F1492.0286
X-3.594173 A136.000000 F1494.7436
X-3.592362 A137.000000 F1496.8201
X-3.590551 A138.000000 F1494.407
X-3.588701 A139.000000 F1494.0286
X-3.586890 A141.000000 F1494.8636
X-3.585079 A142.000000 F1496.6706
X-3.583268 A143.000000 F1494.4087
X-3.581457 A144.000000 F1496.9171
X-3.579606 A146.000000 F1495.9553
X-3.577795 A147.000000 F1494.6494
X-3.575984 A148.000000 F1496.5912
X-3.574134 A149.000000 F1493.9385
X-3.572323 A151.000000 F1494.6477
X-3.570512 A152.000000 F1494.7664
X-3.568661 A153.000000 F1496.6409
X-3.566850 A154.000000 F1493.7422
X-3.565039 A155.000000 F1492.5508
X-3.563189 A157.000000 F1494.1169
X-3.561378 A158.000000 F1494.5679
X-3.559528 A159.000000 F1494.6195
X-3.557717 A160.000000 F1491.9708
X-3.555866 A162.000000 F1494.3592
X-3.554055 A163.000000 F1494.3592
X-3.552205 A164.000000 F1492.2944
X-3.549921 A166.000000 F1195.547
X-3.547638 A167.000000 F1195.5472
X-3.545354 A169.000000 F1195.5481
X-3.543031 A170.000000 F1195.5475
X-3.541220 A171.000000 F1494.522
X-3.539370 A173.000000 F1494.2142
X-3.537520 A174.000000 F1496.856
X-3.535709 A175.000000 F1494.3276
X-3.533858 A176.000000 F1496.9054
X-3.532008 A178.000000 F1493.7441
X-3.530157 A179.000000 F1496.8401
X-3.528346 A180.000000 F1494.0526
X-3.526496 A181.000000 F1496.5783
X-3.524646 A183.000000 F1493.9883
X-3.522795 A184.000000 F1496.7102
X-3.520512 A185.000000 F1195.4062
X-3.518189 A187.000000 F1195.4065
X-3.515866 A188.000000 F1195.406
X-3.513583 A190.000000 F1195.4062
X-3.511732 A191.000000 F1492.2153
X-3.509882 A192.000000 F1494.2976
X-3.508031 A194.000000 F1494.606
X-3.506181 A195.000000 F1492.2003
X-3.504331 A196.000000 F1494.0203
X-3.502480 A197.000000 F1494.4782
X-3.500630 A199.000000 F1494.5249
X-3.498740 A200.000000 F1491.8745
X-3.496890 A201.000000 F1494.3979
X-3.495039 A202.000000 F1494.4594
X-3.493189 A203.000000 F1494.5099
X-3.491339 A205.000000 F1494.0709
X-3.489488 A206.000000 F1496.7766
X-3.487638 A207.000000 F1493.7944
X-3.485748 A208.000000 F1494.7036
X-3.483898 A210.000000 F1496.7621
X-3.482047 A211.000000 F1493.6638
X-3.480197 A212.000000 F1496.8275
X-3.478307 A213.000000 F1493.9092
X-3.476457 A215.000000 F1496.5019
X-3.474606 A216.000000 F1494.2325
X-3.472717 A217.000000 F1496.8132
X-3.470866 A218.000000 F1493.6955
X-3.469016 A219.000000 F1494.1714
X-3.467126 A221.000000 F1494.7209
X-3.465276 A222.000000 F1493.5699
X-3.463386 A223.000000 F1494.4124
X-3.461535 A224.000000 F1494.3013
X-3.459646 A226.000000 F1494.3
X-3.457795 A227.000000 F1491.8116
X-3.455906 A228.000000 F1494.2702
X-3.454055 A229.000000 F1494.267
X-3.452165 A231.000000 F1492.3135
X-3.450787 A232.000000 F1992.2498
X-3.449370 A232.000000 F1992.2518
X-3.447953 A233.000000 F1992.249
X-3.446535 A234.000000 F1992.2444
X-3.444685 A236.000000 F1492.0584
X-3.442795 A237.000000 F1494.6264
X-3.440945 A238.000000 F1496.1254
X-3.439055 A239.000000 F1494.1701
X-3.437165 A240.000000 F1494.6257
X-3.435276 A242.000000 F1496.6814
X-3.433425 A243.000000 F1493.6516
X-3.431535 A244.000000 F1496.6821
X-3.429646 A245.000000 F1493.8945
X-3.427756 A247.000000 F1496.3555
X-3.425906 A248.000000 F1493.8949
X-3.424016 A249.000000 F1496.4857
X-3.422126 A250.000000 F1494.1388
X-3.420236 A252.000000 F1494.1391
X-3.418346 A253.000000 F1494.2682
X-3.416457 A254.000000 F1496.3402
X-3.414567 A255.000000 F1493.748
X-3.412677 A256.000000 F1492.253
X-3.411260 A257.000000 F1992.1636
X-3.409843 A258.000000 F1992.166
X-3.408425 A259.000000 F1992.1609
X-3.407008 A260.000000 F1992.164
X-3.405118 A261.000000 F1491.7343
X-3.403228 A263.000000 F1494.5775
X-3.401339 A264.000000 F1494.3022
X-3.399449 A265.000000 F1491.7176
X-3.397559 A266.000000 F1494.2374
X-3.395669 A268.000000 F1494.3009
X-3.393780 A269.000000 F1494.2862
X-3.391890 A270.000000 F1493.8462
X-3.389961 A271.000000 F1494.1558
X-3.388071 A272.000000 F1494.1558
X-3.386181 A274.000000 F1494.4803
X-3.384291 A275.000000 F1496.6665
X-3.382402 A276.000000 F1493.4413
X-3.380472 A277.000000 F1496.6657
X-3.378583 A279.000000 F1493.8161
X-3.376693 A280.000000 F1496.275
X-3.374764 A281.000000 F1494.2027
X-3.372874 A282.000000 F1496.521
X-3.370984 A284.000000 F1493.7983
X-3.369055 A285.000000 F1496.2591
X-3.367165 A286.000000 F1493.6691
X-3.365236 A287.000000 F1493.9282
X-3.363346 A288.000000 F1494.3185
X-3.361417 A290.000000 F1494.1083
X-3.359528 A291.000000 F1494.106
X-3.357598 A292.000000 F1491.7185
X-3.355709 A293.000000 F1494.1714
X-3.353780 A295.000000 F1494.173
X-3.351890 A296.000000 F1494.2884
X-3.349961 A297.000000 F1491.7014
X-3.348071 A298.000000 F1494.0245
X-3.346142 A300.000000 F1494.0268
X-3.344213 A301.000000 F1491.9628
X-3.342323 A302.000000 F1494.2061
X-3.340394 A303.000000 F1494.2042
X-3.338465 A304.000000 F1493.8933
X-3.336575 A306.000000 F1494.5144
X-3.334646 A307.000000 F1495.8225
X-3.332717 A308.000000 F1493.8791
X-3.330827 A309.000000 F1494.3841
X-3.328898 A311.000000 F1496.3212
X-3.326969 A312.000000 F1493.7345
X-3.325039 A313.000000 F1496.1967
X-3.323110 A314.000000 F1496.1913
X-3.321181 A316.000000 F1493.9767
X-3.319291 A317.000000 F1494.1097
X-3.317362 A318.000000 F1496.1765
X-3.315433 A319.000000 F1493.4552
X-3.313504 A320.000000 F1494.2378
X-3.311102 A322.000000 F1195.1707
X-3.308661 A324.000000 F1195.1685
X-3.306260 A325.000000 F1195.1699
X-3.303858 A327.000000 F1195.1675
X-3.301929 A328.000000 F1491.7688
X-3.300000 A329.000000 F1494.1386
X-3.298071 A330.000000 F1494.1402
X-3.296142 A332.000000 F1491.6201
X-3.294173 A333.000000 F1494.3339
X-3.292244 A334.000000 F1494.1891
X-3.290315 A335.000000 F1493.5534
X-3.288858 A336.000000 F1992.0825
X-3.287402 A337.000000 F1992.0751
X-3.285984 A338.000000 F1992.0785
X-3.284528 A339.000000 F1992.0805
X-3.282559 A340.000000 F1494.0401
X-3.280630 A341.000000 F1493.7985
X-3.278701 A343.000000 F1496.5028
X-3.276772 A344.000000 F1493.6524
X-3.274803 A345.000000 F1496.1114
X-3.272874 A346.000000 F1493.9126
X-3.270945 A348.000000 F1496.487
X-3.268976 A349.000000 F1493.3752
X-3.267047 A350.000000 F1495.8516
X-3.265079 A351.000000 F1494.2851
X-3.263150 A353.000000 F1494.1389
X-3.261220 A354.000000 F1495.834
X-3.259252 A355.000000 F1493.8141
X-3.257323 A356.000000 F1493.814
X-3.255354 A357.000000 F1491.5556
X-3.253425 A359.000000 F1494.0092
X-3.251457 A0.000000 F1494.0103
X-3.249488 A1.000000 F1494.1219
X-3.247559 A2.000000 F1491.2807
X-3.245591 A4.000000 F1494.2672
X-3.243661 A5.000000 F1494.3669
X-3.241693 A6.000000 F1490.8924
X-3.239724 A7.000000 F1494.252
X-3.237795 A9.000000 F1493.9119
X-3.235827 A10.000000 F1493.9107
X-3.233858 A11.000000 F1493.9103
X-3.231929 A12.000000 F1493.9121
X-3.229961 A13.000000 F1494.0883
X-3.227992 A15.000000 F1493.7152
X-3.226024 A16.000000 F1496.4189
X-3.224094 A17.000000 F1493.8313
X-3.222126 A18.000000 F1496.2737
X-3.220157 A20.000000 F1493.3076
X-3.218189 A21.000000 F1496.4032
X-3.216220 A22.000000 F1493.1815
X-3.214252 A23.000000 F1496.4025
X-3.212283 A25.000000 F1493.8127
X-3.210315 A26.000000 F1496.3857
X-3.208386 A27.000000 F1493.0345
X-3.206417 A28.000000 F1493.7961
X-3.204449 A29.000000 F1493.7941
X-3.202480 A31.000000 F1493.796
X-3.200512 A32.000000 F1493.7967
X-3.198504 A33.000000 F1491.718
X-3.196535 A34.000000 F1493.9271
X-3.194567 A36.000000 F1493.8416
X-3.192598 A37.000000 F1493.8469
X-3.190630 A38.000000 F1491.695
X-3.188661 A39.000000 F1493.7817
X-3.186693 A41.000000 F1494.0233
X-3.184724 A42.000000 F1491.0665
X-3.182717 A43.000000 F1494.0898
X-3.180748 A44.000000 F1494.0868
X-3.178780 A45.000000 F1494.0072
X-3.176811 A47.000000 F1493.6283
X-3.174843 A48.000000 F1496.3391
X-3.172835 A49.000000 F1493.2272
X-3.170866 A50.000000 F1493.8752
X-3.168898 A52.000000 F1496.3365
X-3.166890 A53.000000 F1496.0582
X-3.164921 A54.000000 F1493.2098
X-3.162953 A55.000000 F1495.6855
X-3.160945 A57.000000 F1494.249
X-3.158976 A58.000000 F1496.3012
X-3.156969 A59.000000 F1492.9498
X-3.154488 A61.000000 F1195.0122
X-3.152008 A62.000000 F1195.0108
X-3.149528 A64.000000 F1195.0121
X-3.147047 A65.000000 F1195.0097
X-3.145039 A66.000000 F1493.8282
X-3.143071 A68.000000 F1493.1904
X-3.141063 A69.000000 F1491.7629
X-3.139055 A70.000000 F1494.2152
X-3.137087 A71.000000 F1493.8082
X-3.135079 A73.000000 F1490.9862
X-3.133071 A74.000000 F1493.8082
X-3.131102 A75.000000 F1493.8091
X-3.129094 A76.000000 F1493.8072
X-3.127087 A77.000000 F1493.809
X-3.125118 A79.000000 F1493.9209
X-3.123110 A80.000000 F1493.2895
X-3.121102 A81.000000 F1493.8566
X-3.119094 A82.000000 F1493.8568
X-3.117126 A84.000000 F1495.9894
X-3.115118 A85.000000 F1493.6456
X-3.113110 A86.000000 F1495.7292
X-3.111102 A87.000000 F1493.7756
X-3.109094 A89.000000 F1495.974
X-3.107087 A90.000000 F1493.3843
X-3.105079 A91.000000 F1495.9742
X-3.103071 A92.000000 F1493.6283
X-3.101063 A94.000000 F1493.5143
X-3.099055 A95.000000 F1496.0873
X-3.097047 A96.000000 F1493.4971
X-3.095039 A97.000000 F1493.7419
X-3.093031 A98.000000 F1493.1079
X-3.091024 A100.000000 F1491.6772
X-3.089016 A101.000000 F1493.6767
X-3.087008 A102.000000 F1493.676
X-3.085000 A103.000000 F1491.1591
X-3.082992 A105.000000 F1494.1283
X-3.080984 A106.000000 F1493.7244
X-3.078937 A107.000000 F1491.014
X-3.076929 A108.000000 F1494.0005
X-3.074921 A110.000000 F1494.0964
X-3.072913 A111.000000 F1492.9448
X-3.070906 A112.000000 F1493.7233
X-3.068858 A113.000000 F1493.7711
X-3.066850 A114.000000 F1493.7724
X-3.064843 A116.000000 F1495.9036
X-3.062795 A117.000000 F1493.3184
X-3.060787 A118.000000 F1494.0798
X-3.058780 A119.000000 F1495.7567
X-3.056732 A121.000000 F1493.0558
X-3.054724 A122.000000 F1496.4101
X-3.052677 A123.000000 F1495.8714
X-3.050669 A124.000000 F1492.781
X-3.048661 A126.000000 F1493.6739
X-3.046614 A127.000000 F1495.6262
X-3.044606 A128.000000 F1493.5414
X-3.042559 A129.000000 F1493.6743
X-3.040551 A130.000000 F1493.7879
X-3.038504 A132.000000 F1493.1482
X-3.036457 A133.000000 F1493.7855
X-3.034449 A134.000000 F1491.0776
X-3.032402 A135.000000 F1493.6518
X-3.030394 A137.000000 F1493.7867
X-3.028346 A138.000000 F1493.7684
X-3.026299 A139.000000 F1490.8149
X-3.024291 A140.000000 F1493.704
X-3.022244 A142.000000 F1493.7034
X-3.020197 A143.000000 F1491.4273
X-3.018189 A144.000000 F1493.6378
X-3.016142 A145.000000 F1493.6217
X-3.014094 A146.000000 F1493.1178
X-3.012047 A148.000000 F1494.01
X-3.010000 A149.000000 F1495.8168
X-3.007992 A150.000000 F1493.4741
X-3.005945 A151.000000 F1495.4295
X-3.003898 A153.000000 F1493.733
X-3.001850 A154.000000 F1495.8015
X-2.999803 A155.000000 F1493.0857
X-2.997756 A156.000000 F1495.8016
X-2.995709 A158.000000 F1493.716
X-2.993661 A159.000000 F1495.7831
X-2.991614 A160.000000 F1492.5646
X-2.989567 A161.000000 F1493.9774
X-2.987520 A162.000000 F1493.6986
X-2.985472 A164.000000 F1493.0666
X-2.983425 A165.000000 F1493.4393
X-2.981378 A166.000000 F1493.4379
X-2.979331 A167.000000 F1493.438
X-2.977283 A169.000000 F1493.4405
X-2.975236 A170.000000 F1491.3755
X-2.973189 A171.000000 F1493.8129
X-2.971102 A172.000000 F1492.9182
X-2.969055 A174.000000 F1491.4901
X-2.967008 A175.000000 F1493.9394
X-2.964961 A176.000000 F1493.5357
X-2.962913 A177.000000 F1493.1603
X-2.960827 A178.000000 F1493.4037
X-2.958780 A180.000000 F1493.405
X-2.956732 A181.000000 F1493.4037
X-2.954646 A182.000000 F1493.4038
X-2.952598 A183.000000 F1493.7948
X-2.950551 A185.000000 F1495.9751
X-2.948465 A186.000000 F1493.1264
X-2.946417 A187.000000 F1495.5848
X-2.944331 A188.000000 F1493.1268
X-2.942283 A190.000000 F1495.7151
X-2.940236 A191.000000 F1493.628
X-2.938150 A192.000000 F1495.5668
X-2.936102 A193.000000 F1492.8504
X-2.934016 A195.000000 F1493.4989
X-2.931969 A196.000000 F1495.8268
X-2.929882 A197.000000 F1493.3508
X-2.927795 A198.000000 F1492.9817
X-2.925748 A199.000000 F1493.4808
X-2.923661 A201.000000 F1491.033
X-2.921614 A202.000000 F1493.7412
X-2.919528 A203.000000 F1493.5927
X-2.917441 A204.000000 F1490.7542
X-2.915394 A206.000000 F1493.3517
X-2.913307 A207.000000 F1493.5937
X-2.911220 A208.000000 F1491.2576
X-2.909173 A209.000000 F1493.0725
X-2.907087 A211.000000 F1493.5944
X-2.905512 A211.000000 F1991.261
X-2.903976 A212.000000 F1991.2644
X-2.902402 A213.000000 F1991.261
X-2.900827 A214.000000 F1991.2642
X-2.898780 A215.000000 F1493.558
X-2.896693 A217.000000 F1495.2528
X-2.894606 A218.000000 F1493.2993
X-2.892520 A219.000000 F1493.4282
X-2.890433 A220.000000 F1495.4964
X-2.888346 A222.000000 F1495.4979
X-2.886260 A223.000000 F1493.2978
X-2.884173 A224.000000 F1495.8702
X-2.882087 A225.000000 F1492.6313
X-2.880000 A227.000000 F1493.54
X-2.877913 A228.000000 F1495.6118
X-2.875827 A229.000000 F1493.2598
X-2.873740 A230.000000 F1492.8926
X-2.872165 A231.000000 F1991.0206
X-2.870630 A232.000000 F1991.0161
X-2.869055 A233.000000 F1991.0211
X-2.867480 A234.000000 F1991.0191
X-2.865394 A235.000000 F1491.203
X-2.863307 A236.000000 F1493.4391
X-2.861181 A238.000000 F1493.4399
X-2.859094 A239.000000 F1492.615
X-2.857008 A240.000000 F1491.7053
X-2.854921 A241.000000 F1493.7465
X-2.852835 A243.000000 F1492.5974
X-2.850709 A244.000000 F1491.297
X-2.848622 A245.000000 F1493.2943
X-2.846535 A246.000000 F1493.2916
X-2.844409 A247.000000 F1493.3595
X-2.842323 A249.000000 F1495.5548
X-2.840236 A250.000000 F1493.211
X-2.838110 A251.000000 F1493.34
X-2.836024 A252.000000 F1495.5382
X-2.833937 A254.000000 F1492.9477
X-2.831811 A255.000000 F1495.5387
X-2.829724 A256.000000 F1493.1934
X-2.827598 A257.000000 F1495.1466
X-2.825512 A259.000000 F1493.4524
X-2.823386 A260.000000 F1495.5196
X-2.821299 A261.000000 F1493.1753
X-2.819173 A262.000000 F1492.8031
X-2.816535 A264.000000 F1194.5816
X-2.813898 A265.000000 F1194.5818
X-2.811260 A267.000000 F1194.5815
X-2.808622 A268.000000 F1194.5815
X-2.806535 A270.000000 F1493.4153
X-2.804409 A271.000000 F1490.7091
X-2.802283 A272.000000 F1493.1574
X-2.800157 A273.000000 F1493.1571
X-2.798071 A275.000000 F1491.0967
X-2.795945 A276.000000 F1493.6571
X-2.793819 A277.000000 F1492.7681
X-2.791693 A278.000000 F1493.334
X-2.789606 A279.000000 F1493.3347
X-2.787480 A281.000000 F1493.3812
X-2.785354 A282.000000 F1492.7485
X-2.783228 A283.000000 F1493.3156
X-2.781102 A284.000000 F1493.3156
X-2.778976 A286.000000 F1495.4485
X-2.776850 A287.000000 F1492.7324
X-2.774764 A288.000000 F1495.7077
X-2.772638 A289.000000 F1495.4313
X-2.770472 A291.000000 F1492.8439
X-2.768386 A292.000000 F1495.4282
X-2.766220 A293.000000 F1492.4544
X-2.764134 A294.000000 F1493.6245
X-2.761969 A295.000000 F1495.6703
X-2.759843 A297.000000 F1492.1951
X-2.757717 A298.000000 F1493.3455
X-2.755591 A299.000000 F1493.347
X-2.753465 A300.000000 F1493.3238
X-2.751339 A302.000000 F1490.3798
X-2.749213 A303.000000 F1493.2598
X-2.747087 A304.000000 F1493.2633
X-2.744921 A305.000000 F1490.6204
X-2.742795 A307.000000 F1493.1298
X-2.740669 A308.000000 F1493.1316
X-2.738543 A309.000000 F1491.118
X-2.736929 A310.000000 F1990.7336
X-2.735315 A311.000000 F1990.7381
X-2.733701 A312.000000 F1990.7276
X-2.732126 A313.000000 F1990.7391
X-2.729961 A314.000000 F1493.305
X-2.727835 A315.000000 F1493.227
X-2.725709 A316.000000 F1493.2248
X-2.723543 A318.000000 F1495.3583
X-2.721417 A319.000000 F1492.6433
X-2.719252 A320.000000 F1495.3569
X-2.717126 A321.000000 F1493.03
X-2.715000 A323.000000 F1495.598
X-2.712835 A324.000000 F1492.7519
X-2.710709 A325.000000 F1495.2091
X-2.708543 A326.000000 F1493.0133
X-2.706417 A328.000000 F1495.5826
X-2.704252 A329.000000 F1492.2339
X-2.702638 A330.000000 F1990.7774
X-2.701024 A331.000000 F1990.7771
X-2.699409 A332.000000 F1990.7741
X-2.697795 A332.000000 F1990.7752
X-2.695669 A334.000000 F1493.2371
X-2.693504 A335.000000 F1492.4742
X-2.691339 A336.000000 F1491.0459
X-2.689724 A337.000000 F1990.6359
X-2.688110 A338.000000 F1990.6355
X-2.686496 A339.000000 F1990.6357
X-2.684882 A340.000000 F1990.6351
X-2.682717 A341.000000 F1491.1587
X-2.680591 A342.000000 F1493.0871
X-2.678425 A344.000000 F1492.3301
X-2.676260 A345.000000 F1491.4151
X-2.674094 A346.000000 F1493.459
X-2.671929 A347.000000 F1492.5692
X-2.669803 A348.000000 F1493.3311
X-2.667638 A350.000000 F1495.2657
X-2.665472 A351.000000 F1492.4209
X-2.663307 A352.000000 F1493.07
X-2.661142 A353.000000 F1495.2669
X-2.658976 A355.000000 F1492.9211
X-2.656811 A356.000000 F1494.8761
X-2.654646 A357.000000 F1493.4413
X-2.652480 A358.000000 F1495.4892
X-2.650315 A0.000000 F1492.0137
X-2.648150 A1.000000 F1495.2485
X-2.646535 A2.000000 F1990.4794
X-2.644882 A3.000000 F1990.4814
X-2.643268 A4.000000 F1990.4811
X-2.641654 A4.000000 F1990.4795
X-2.639488 A6.000000 F1493.1622
X-2.637283 A7.000000 F1493.1462
X-2.635118 A8.000000 F1492.5139
X-2.632953 A9.000000 F1492.9486
X-2.630787 A11.000000 F1492.9512
X-2.628622 A12.000000 F1490.8252
X-2.626417 A13.000000 F1493.257
X-2.624252 A14.000000 F1492.2368
X-2.622087 A16.000000 F1491.0664
X-2.619921 A17.000000 F1492.8671
X-2.617717 A18.000000 F1492.8661
X-2.615551 A19.000000 F1493.1267
X-2.613386 A20.000000 F1492.9135
X-2.611181 A22.000000 F1492.9143
X-2.609016 A23.000000 F1492.9146
X-2.606811 A24.000000 F1492.9132
X-2.604646 A25.000000 F1495.1725
X-2.602480 A27.000000 F1492.8475
X-2.600276 A28.000000 F1495.4171
X-2.598110 A29.000000 F1492.4403
X-2.595906 A30.000000 F1495.1555
X-2.593740 A32.000000 F1492.4393
X-2.591535 A33.000000 F1495.2854
X-2.589370 A34.000000 F1492.8133
X-2.587165 A35.000000 F1492.9399
X-2.584961 A36.000000 F1495.0082
X-2.582795 A38.000000 F1492.2918
X-2.580591 A39.000000 F1493.0722
X-2.578386 A40.000000 F1493.0522
X-2.576220 A41.000000 F1492.1638
X-2.574016 A43.000000 F1490.8631
X-2.571811 A44.000000 F1493.3094
X-2.569646 A45.000000 F1493.0359
X-2.567441 A46.000000 F1490.0846
X-2.565236 A48.000000 F1492.9726
X-2.563031 A49.000000 F1492.9659
X-2.560866 A50.000000 F1490.3276
X-2.558661 A51.000000 F1492.9072
X-2.556457 A53.000000 F1493.0299
X-2.554803 A53.000000 F1990.4631
X-2.553150 A54.000000 F1990.4523
X-2.551496 A55.000000 F1990.4599
X-2.549843 A56.000000 F1990.4589
X-2.547638 A57.000000 F1495.0791
X-2.545472 A59.000000 F1492.4953
X-2.543268 A60.000000 F1492.9992
X-2.541063 A61.000000 F1494.6896
X-2.538858 A62.000000 F1492.9972
X-2.536654 A64.000000 F1495.062
X-2.534449 A65.000000 F1492.7195
X-2.532244 A66.000000 F1494.6696
X-2.530000 A67.000000 F1492.72
X-2.527795 A69.000000 F1495.0617
X-2.525591 A70.000000 F1492.9594
X-2.523386 A71.000000 F1492.0698
X-2.521181 A72.000000 F1492.8494
X-2.518976 A73.000000 F1492.9582
X-2.516772 A75.000000 F1492.3308
X-2.514567 A76.000000 F1493.0883
X-2.512323 A77.000000 F1490.4934
X-2.510118 A78.000000 F1492.5702
X-2.507913 A80.000000 F1492.5718
X-2.505709 A81.000000 F1490.8807
X-2.503465 A82.000000 F1492.8118
X-2.501260 A83.000000 F1492.9398
X-2.499055 A85.000000 F1492.9222
X-2.496811 A86.000000 F1492.0325
X-2.494606 A87.000000 F1490.4753
X-2.492402 A88.000000 F1493.3301
X-2.490157 A89.000000 F1495.6188
X-2.487953 A91.000000 F1491.4959
X-2.485709 A92.000000 F1493.0523
X-2.483504 A93.000000 F1495.2285
X-2.481260 A94.000000 F1492.3841
X-2.479055 A96.000000 F1494.9681
X-2.476811 A97.000000 F1492.2544
X-2.474606 A98.000000 F1494.9687
X-2.472362 A99.000000 F1492.6245
X-2.470157 A101.000000 F1494.7081
X-2.467913 A102.000000 F1492.496
X-2.465709 A103.000000 F1492.8847
X-2.463465 A104.000000 F1492.8654
X-2.461220 A105.000000 F1492.2358
X-2.458425 A107.000000 F1194.0846
X-2.455669 A109.000000 F1194.0851
X-2.452874 A110.000000 F1194.0851
X-2.450079 A112.000000 F1194.0842
X-2.447835 A113.000000 F1490.659
X-2.445591 A114.000000 F1492.6509
X-2.443346 A115.000000 F1492.6547
X-2.441142 A117.000000 F1490.139
X-2.438898 A118.000000 F1493.1071
X-2.436654 A119.000000 F1492.8255
X-2.434409 A120.000000 F1492.199
X-2.432165 A121.000000 F1493.0866
X-2.429921 A123.000000 F1492.6836
X-2.427677 A124.000000 F1491.9167
X-2.425433 A125.000000 F1493.0894
X-2.423189 A126.000000 F1495.1356
X-2.420945 A128.000000 F1492.1573
X-2.418701 A129.000000 F1494.8738
X-2.416457 A130.000000 F1492.5506
X-2.414213 A131.000000 F1495.1119
X-2.411969 A133.000000 F1491.9022
X-2.409724 A134.000000 F1495.1164
X-2.407480 A135.000000 F1492.2675
X-2.405236 A136.000000 F1494.8582
X-2.402992 A137.000000 F1492.5106
X-2.400748 A139.000000 F1492.1404
X-2.399055 A140.000000 F1990.0706
X-2.397362 A141.000000 F1990.0766
X-2.395669 A141.000000 F1990.0687
X-2.393976 A142.000000 F1990.0772
X-2.391732 A144.000000 F1490.324
X-2.389488 A145.000000 F1493.0115
X-2.387244 A146.000000 F1491.8614
X-2.384961 A147.000000 F1490.5676
X-2.382717 A149.000000 F1493.0089
X-2.380472 A150.000000 F1492.7322
X-2.378189 A151.000000 F1489.6587
X-2.375945 A152.000000 F1492.9929
X-2.373701 A154.000000 F1492.1037
X-2.371417 A155.000000 F1492.9931
X-2.369173 A156.000000 F1492.7115
X-2.366890 A157.000000 F1492.0861
X-2.364646 A158.000000 F1494.7978
X-2.362362 A160.000000 F1492.7124
X-2.360118 A161.000000 F1494.6497
X-2.357835 A162.000000 F1492.4529
X-2.355591 A163.000000 F1495.019
X-2.353307 A165.000000 F1491.8068
X-2.351063 A166.000000 F1495.0195
X-2.348780 A167.000000 F1492.1743
X-2.346535 A168.000000 F1494.7586
X-2.344252 A170.000000 F1491.7882
X-2.341969 A171.000000 F1492.6928
X-2.339134 A172.000000 F1193.9333
X-2.336299 A174.000000 F1193.9323
X-2.333465 A175.000000 F1193.933
X-2.330630 A177.000000 F1193.9329
X-2.328346 A178.000000 F1490.4688
X-2.326063 A179.000000 F1492.4613
X-2.323780 A181.000000 F1492.462
X-2.321535 A182.000000 F1489.9514
X-2.319252 A183.000000 F1492.9153
X-2.316969 A184.000000 F1492.6369
X-2.314685 A186.000000 F1492.0078
X-2.312402 A187.000000 F1492.5079
X-2.310118 A188.000000 F1490.5784
X-2.307835 A189.000000 F1495.2034
X-2.305551 A190.000000 F1491.47
X-2.303268 A192.000000 F1492.553
X-2.300984 A193.000000 F1492.5518
X-2.298740 A194.000000 F1494.6822
X-2.296457 A195.000000 F1491.9687
X-2.294173 A197.000000 F1494.8101
X-2.291850 A198.000000 F1492.2109
X-2.289567 A199.000000 F1494.4219
X-2.287283 A200.000000 F1492.8564
X-2.285000 A202.000000 F1494.906
X-2.282717 A203.000000 F1491.1688
X-2.280433 A204.000000 F1492.6001
X-2.278150 A205.000000 F1492.3839
X-2.275866 A206.000000 F1492.386
X-2.273543 A208.000000 F1492.3843
X-2.271260 A209.000000 F1492.3847
X-2.268976 A210.000000 F1492.5609
X-2.266693 A211.000000 F1491.6685
X-2.264370 A213.000000 F1490.375
X-2.262087 A214.000000 F1492.8165
X-2.259803 A215.000000 F1492.541
X-2.257480 A216.000000 F1491.6532
X-2.255197 A218.000000 F1490.0955
X-2.252913 A219.000000 F1492.4303
X-2.250591 A220.000000 F1492.5391
X-2.248307 A221.000000 F1492.5394
X-2.245984 A222.000000 F1492.3935
X-2.243701 A224.000000 F1492.023
X-2.241417 A225.000000 F1492.649
X-2.239094 A226.000000 F1494.5835
X-2.236811 A227.000000 F1491.7454
X-2.234488 A229.000000 F1492.6478
X-2.232165 A230.000000 F1494.8263
X-2.229882 A231.000000 F1493.8056
X-2.227559 A232.000000 F1492.4985
X-2.225276 A234.000000 F1494.4358
X-2.222953 A235.000000 F1491.9821
X-2.220630 A236.000000 F1492.4824
X-2.218346 A237.000000 F1494.1765
X-2.216024 A238.000000 F1492.2203
X-2.213701 A240.000000 F1492.223
X-2.211417 A241.000000 F1492.3539
X-2.209094 A242.000000 F1492.4611
X-2.206772 A243.000000 F1489.5185
X-2.205039 A244.000000 F1989.7803
X-2.203307 A245.000000 F1989.7739
X-2.201575 A246.000000 F1989.7756
X-2.199843 A247.000000 F1989.7775
X-2.197520 A248.000000 F1490.0172
X-2.195197 A250.000000 F1492.7028
X-2.192874 A251.000000 F1491.5558
X-2.190551 A252.000000 F1490.2545
X-2.188268 A253.000000 F1492.4443
X-2.185945 A255.000000 F1492.3118
X-2.183622 A256.000000 F1492.4239
X-2.181299 A257.000000 F1492.0541
X-2.178976 A258.000000 F1494.7474
X-2.176654 A259.000000 F1491.6451
X-2.174331 A261.000000 F1492.5535
X-2.172008 A262.000000 F1494.727
X-2.169685 A263.000000 F1491.6442
X-2.167362 A264.000000 F1494.7274
X-2.165039 A266.000000 F1491.7555
X-2.162677 A267.000000 F1494.466
X-2.160354 A268.000000 F1492.1442
X-2.158031 A269.000000 F1494.7075
X-2.155709 A271.000000 F1491.4769
X-2.153386 A272.000000 F1491.7554
X-2.151063 A273.000000 F1492.7723
X-2.148701 A274.000000 F1492.2352
X-2.146378 A275.000000 F1491.7359
X-2.144055 A277.000000 F1492.3646
X-2.141732 A278.000000 F1491.4771
X-2.139370 A279.000000 F1490.5647
X-2.137047 A280.000000 F1492.6046
X-2.134724 A282.000000 F1491.4571
X-2.132362 A283.000000 F1489.8997
X-2.130039 A284.000000 F1492.234
X-2.127717 A285.000000 F1492.3446
X-2.125354 A287.000000 F1489.9002
X-2.123031 A288.000000 F1492.5836
X-2.120669 A289.000000 F1491.6963
X-2.118346 A290.000000 F1492.5867
X-2.115984 A291.000000 F1494.3868
X-2.113661 A293.000000 F1491.4165
X-2.111299 A294.000000 F1492.3239
X-2.108976 A295.000000 F1494.3884
X-2.106614 A296.000000 F1492.1765
X-2.104291 A298.000000 F1494.3665
X-2.101929 A299.000000 F1491.7871
X-2.099567 A300.000000 F1494.3666
X-2.097244 A301.000000 F1491.9163
X-2.094882 A303.000000 F1494.6092
X-2.092520 A304.000000 F1491.5049
X-2.090197 A305.000000 F1492.1595
X-2.087835 A306.000000 F1494.3472
X-2.085472 A307.000000 F1491.7641
X-2.083150 A309.000000 F1492.2667
X-2.080787 A310.000000 F1489.1924
X-2.079016 A311.000000 F1989.5198
X-2.077244 A312.000000 F1989.5102
X-2.075472 A313.000000 F1989.5155
X-2.073740 A314.000000 F1989.5157
X-2.071378 A315.000000 F1490.1878
X-2.069016 A316.000000 F1492.1166
X-2.066654 A317.000000 F1491.6175
X-2.064291 A319.000000 F1492.246
X-2.061929 A320.000000 F1489.9082
X-2.059567 A321.000000 F1492.1155
X-2.057205 A322.000000 F1492.0985
X-2.054843 A323.000000 F1491.7266
X-2.052480 A325.000000 F1492.356
X-2.050118 A326.000000 F1494.2897
X-2.047756 A327.000000 F1491.9439
X-2.045394 A328.000000 F1491.8385
X-2.043031 A330.000000 F1494.2657
X-2.040669 A331.000000 F1494.2681
X-2.038307 A332.000000 F1491.6857
X-2.035945 A333.000000 F1494.2686
X-2.033583 A335.000000 F1491.9255
X-2.031220 A336.000000 F1491.8181
X-2.028819 A337.000000 F1494.5077
X-2.026457 A338.000000 F1491.2795
X-2.024094 A339.000000 F1492.1849
X-2.021732 A341.000000 F1492.1651
X-2.019331 A342.000000 F1491.2788
X-2.016969 A343.000000 F1489.9807
X-2.015197 A344.000000 F1989.2642
X-2.013425 A345.000000 F1989.2672
X-2.011614 A346.000000 F1989.2653
X-2.009843 A347.000000 F1989.2658
X-2.007480 A348.000000 F1489.9617
X-2.005079 A349.000000 F1492.1438
X-2.002717 A351.000000 F1489.4439
X-2.000354 A352.000000 F1491.8863
X-1.997953 A353.000000 F1491.8861
X-1.995591 A354.000000 F1492.1458
X-1.993819 A355.000000 F1989.2125
X-1.992008 A356.000000 F1989.213
X-1.990236 A357.000000 F1989.2125
X-1.988425 A358.000000 F1989.2124
X-1.986063 A359.000000 F1492.3849
X-1.983661 A0.000000 F1494.4277
X-1.981299 A2.000000 F1491.2185
X-1.978898 A3.000000 F1494.4278
X-1.976535 A4.000000 F1491.4571
X-1.974134 A5.000000 F1494.0374
X-1.971732 A7.000000 F1494.0363
X-1.969370 A8.000000 F1492.0851
X-1.966969 A9.000000 F1494.1474
X-1.964567 A10.000000 F1491.1776
X-1.962205 A12.000000 F1491.7618
X-1.959803 A13.000000 F1491.7614
X-1.957402 A14.000000 F1492.0854
X-1.955000 A15.000000 F1491.8043
X-1.952638 A16.000000 F1491.806
X-1.950236 A18.000000 F1491.8075
X-1.947835 A19.000000 F1491.8063
X-1.945433 A20.000000 F1489.7292
X-1.943031 A21.000000 F1491.9373
X-1.940630 A23.000000 F1491.9144
X-1.938268 A24.000000 F1489.4713
X-1.935866 A25.000000 F1491.9157
X-1.933465 A26.000000 F1492.0442
X-1.931063 A28.000000 F1491.8971
X-1.928661 A29.000000 F1489.3216
X-1.926260 A30.000000 F1492.0243
X-1.923858 A31.000000 F1491.8948
X-1.921457 A32.000000 F1494.0893
X-1.919055 A34.000000 F1491.7442
X-1.916654 A35.000000 F1491.6358
X-1.914252 A36.000000 F1494.3257
X-1.911850 A37.000000 F1491.4844
X-1.909409 A39.000000 F1494.3257
X-1.907008 A40.000000 F1494.046
X-1.904606 A41.000000 F1491.0954
X-1.902205 A42.000000 F1494.3073
X-1.899803 A44.000000 F1491.2062
X-1.897402 A45.000000 F1487.7503
X-1.894961 A46.000000 F1497.1352
X-1.892559 A47.000000 F1495.5931
X-1.890157 A48.000000 F1496.0249
X-1.887756 A50.000000 F1496.0242
X-1.887717 A50.000000 F429102.4148
X-1.885315 A51.000000 F1477.4572
X-1.882913 A52.000000 F1498.8344
X-1.880512 A53.000000 F1496.0077
X-1.878071 A55.000000 F1496.0038
A55.000000 F381404.3719
X-1.875669 A56.000000 F1477.8396
X-1.873228 A57.000000 F1498.9458
X-1.870827 A58.000000 F1496.179
X-1.868425 A60.000000 F1495.2901
X-1.868386 A60.000000 F476475.9885
X-1.865984 A61.000000 F1477.4174
X-1.863543 A62.000000 F1496.4746
X-1.861142 A63.000000 F1496.4753
X-1.858740 A64.000000 F1496.4743
X-1.856299 A66.000000 F1496.4753
A66.000000 F490063.6443
X-1.853858 A67.000000 F1477.3972
X-1.851457 A68.000000 F1498.383
X-1.849016 A69.000000 F1495.9185
X-1.846614 A71.000000 F1496.4012
X-1.844173 A72.000000 F1495.1172
X-1.841732 A73.000000 F1495.7694
A73.000000 F490167.9373
X-1.839331 A74.000000 F1477.3772
X-1.837480 A75.000000 F1995.6654
X-1.835669 A76.000000 F1995.6675
X-1.833858 A77.000000 F1995.664
X-1.832047 A78.000000 F1995.6648
X-1.829606 A79.000000 F1496.1198
X-1.827165 A80.000000 F1495.0958
A80.000000 F490167.1206
X-1.824724 A82.000000 F1477.3581
X-1.822323 A83.000000 F1497.2279
X-1.819882 A84.000000 F1497.2298
X-1.817441 A85.000000 F1495.9688
X-1.815000 A87.000000 F1495.2058
A87.000000 F476492.5109
X-1.812559 A88.000000 F1477.4649
X-1.810118 A89.000000 F1497.1434
X-1.807677 A90.000000 F1497.1434
X-1.805276 A92.000000 F1496.0777
X-1.805236 A92.000000 F389779.1863
X-1.802795 A93.000000 F1477.7194
X-1.800394 A94.000000 F1496.4046
X-1.797953 A95.000000 F1496.404
X-1.795512 A96.000000 F1496.4047
X-1.793071 A98.000000 F1496.4036
X-1.793031 A98.000000 F476576.8023
X-1.790591 A99.000000 F1477.1703
X-1.788189 A100.000000 F1498.4293
X-1.786339 A101.000000 F1994.5098
X-1.784488 A102.000000 F1994.5114
X-1.782677 A103.000000 F1994.5124
X-1.780827 A104.000000 F1994.5102
X-1.778386 A105.000000 F1496.035
A105.000000 F373008.3383
X-1.775945 A106.000000 F1477.6788
X-1.774094 A107.000000 F1995.6436
X-1.772283 A108.000000 F1995.6438
X-1.770433 A109.000000 F1995.6428
X-1.768583 A110.000000 F1995.643
X-1.766142 A111.000000 F1496.0154
X-1.763701 A112.000000 F1495.2547
X-1.761260 A114.000000 F1496.0155
X-1.761220 A114.000000 F428621.7304
X-1.758780 A115.000000 F1477.3871
X-1.756339 A116.000000 F1497.0598
X-1.753898 A117.000000 F1497.0618
X-1.751417 A119.000000 F1495.992
X-1.748976 A120.000000 F1494.9723
A120.000000 F476557.5203
X-1.746496 A121.000000 F1477.3648
X-1.744055 A122.000000 F1497.1676
X-1.741614 A124.000000 F1497.1695
X-1.739134 A125.000000 F1495.7127
A125.000000 F389923.8792
X-1.736693 A126.000000 F1477.6206
X-1.734843 A127.000000 F1995.4426
X-1.732992 A128.000000 F1995.4428
X-1.731142 A129.000000 F1995.4423
X-1.729291 A130.000000 F1995.4447
A130.000000 F476514.412
X-1.726850 A131.000000 F1476.818
X-1.724370 A132.000000 F1498.3229
X-1.721929 A133.000000 F1495.6946
X-1.719449 A135.000000 F1495.6904
X-1.717008 A136.000000 F1495.6913
X-1.714528 A137.000000 F1495.6922
A137.000000 F476318.5051
X-1.712047 A138.000000 F1477.3079
X-1.709606 A140.000000 F1498.0217
X-1.707126 A141.000000 F1495.4274
X-1.704646 A142.000000 F1496.1956
X-1.702205 A143.000000 F1495.6496
X-1.699724 A145.000000 F1495.41
X-1.697244 A146.000000 F1495.9096
A146.000000 F408464.1174
X-1.694764 A147.000000 F1477.2844
X-1.692913 A148.000000 F1995.3593
X-1.691063 A149.000000 F1995.3615
X-1.689213 A150.000000 F1995.3595
X-1.687362 A151.000000 F1995.3594
X-1.684882 A152.000000 F1495.8893
A152.000000 F372888.6929
X-1.682402 A153.000000 F1477.5404
X-1.679921 A154.000000 F1499.0252
X-1.677441 A156.000000 F1495.6091
X-1.674961 A157.000000 F1495.1057
A157.000000 F408381.3043
X-1.672480 A158.000000 F1477.5197
X-1.670000 A159.000000 F1496.2609
X-1.667520 A161.000000 F1496.2589
X-1.665039 A162.000000 F1496.2612
X-1.662559 A163.000000 F1496.2594
A163.000000 F476411.4619
X-1.660079 A164.000000 F1476.9683
X-1.657598 A165.000000 F1497.9602
X-1.655748 A166.000000 F1994.1181
X-1.653898 A167.000000 F1994.114
X-1.652008 A168.000000 F1994.1168
X-1.650157 A169.000000 F1994.1149
A169.000000 F476312.5957
X-1.647677 A170.000000 F1476.9493
X-1.645197 A172.000000 F1498.1991
X-1.643307 A173.000000 F1994.2028
X-1.641457 A173.000000 F1994.2032
X-1.639606 A174.000000 F1994.2038
X-1.637717 A175.000000 F1994.2029
X-1.635236 A177.000000 F1495.8049
X-1.632756 A178.000000 F1494.7842
A178.000000 F476346.3346
X-1.630236 A179.000000 F1477.1834
X-1.628386 A180.000000 F1995.2192
X-1.626496 A181.000000 F1995.2193
X-1.624646 A182.000000 F1995.2188
X-1.622795 A183.000000 F1995.2196
X-1.620276 A184.000000 F1495.7828
A184.000000 F372940.7508
X-1.617795 A185.000000 F1477.4378
X-1.615906 A186.000000 F1995.1913
X-1.614055 A187.000000 F1995.1909
X-1.612165 A188.000000 F1995.1905
X-1.610315 A189.000000 F1995.1911
X-1.610276 A189.000000 F476334.035
X-1.607795 A190.000000 F1476.888
X-1.605315 A191.000000 F1498.1353
X-1.603425 A192.000000 F1994.0016
X-1.601575 A193.000000 F1994.0039
X-1.599685 A194.000000 F1994.0024
X-1.597795 A195.000000 F1994.0035
A195.000000 F451431.3876
X-1.595315 A196.000000 F1476.8672
X-1.592795 A197.000000 F1498.1141
X-1.590906 A198.000000 F1993.9754
X-1.589055 A199.000000 F1993.9743
X-1.587165 A200.000000 F1993.9743
X-1.585276 A201.000000 F1993.9736
A201.000000 F408487.0215
X-1.582795 A202.000000 F1477.3763
X-1.580276 A204.000000 F1498.3341
X-1.577795 A205.000000 F1495.218
X-1.575906 A206.000000 F1993.9458
X-1.574016 A207.000000 F1993.9474
X-1.572126 A208.000000 F1993.9445
X-1.570236 A209.000000 F1993.9477
A209.000000 F451538.0223
X-1.567756 A210.000000 F1477.0799
X-1.565236 A211.000000 F1498.0499
X-1.562717 A212.000000 F1495.1989
X-1.560197 A213.000000 F1495.9584
X-1.557677 A215.000000 F1495.6775
X-1.555197 A216.000000 F1494.6548
X-1.555157 A216.000000 F408496.3516
X-1.552677 A217.000000 F1477.338
X-1.550787 A218.000000 F1995.2763
X-1.548898 A219.000000 F1995.2794
X-1.547008 A220.000000 F1995.281
X-1.545118 A221.000000 F1995.2832
X-1.542598 A222.000000 F1495.654
A222.000000 F357375.1629
X-1.540079 A223.000000 F1477.5678
X-1.538189 A224.000000 F1995.0271
X-1.536299 A225.000000 F1995.0199
X-1.534409 A226.000000 F1995.0167
X-1.532520 A227.000000 F1995.0227
A227.000000 F408293.5273
X-1.530000 A228.000000 F1477.0402
X-1.527480 A230.000000 F1498.2711
X-1.525591 A230.000000 F1993.8324
X-1.523701 A231.000000 F1993.8302
X-1.521811 A232.000000 F1993.8365
X-1.519921 A233.000000 F1993.8273
A233.000000 F428495.7739
X-1.517402 A234.000000 F1477.0213
X-1.514882 A236.000000 F1498.2472
X-1.512362 A237.000000 F1495.2876
X-1.509803 A238.000000 F1495.2859
X-1.507283 A239.000000 F1495.289
X-1.504764 A241.000000 F1495.289
A241.000000 F428494.4501
X-1.502244 A242.000000 F1477.2536
X-1.499724 A243.000000 F1498.206
X-1.497165 A244.000000 F1494.833
X-1.494646 A246.000000 F1495.5916
X-1.492126 A247.000000 F1495.5902
X-1.489567 A248.000000 F1495.5706
A248.000000 F372670.7165
X-1.487047 A249.000000 F1477.2356
X-1.484528 A250.000000 F1495.9598
X-1.481969 A252.000000 F1495.9639
X-1.479449 A253.000000 F1495.9612
X-1.476929 A254.000000 F1495.9629
X-1.476890 A254.000000 F408237.6706
X-1.474370 A255.000000 F1477.2128
X-1.472480 A256.000000 F1994.9921
X-1.470551 A257.000000 F1994.993
X-1.468661 A258.000000 F1994.9909
X-1.466772 A259.000000 F1994.9935
X-1.466732 A259.000000 F408250.5728
X-1.464213 A260.000000 F1476.938
X-1.461693 A262.000000 F1498.1618
X-1.459134 A263.000000 F1495.5275
X-1.456614 A264.000000 F1494.7675
X-1.454055 A265.000000 F1495.5267
A265.000000 F408312.1926
X-1.451496 A266.000000 F1477.1707
X-1.448976 A268.000000 F1498.379
X-1.446417 A269.000000 F1494.746
X-1.444528 A270.000000 F1993.6592
X-1.442598 A271.000000 F1993.6607
X-1.440709 A272.000000 F1993.6606
X-1.438780 A273.000000 F1993.6592
A273.000000 F408287.4532
X-1.436220 A274.000000 F1476.8958
X-1.433701 A275.000000 F1498.1187
X-1.431142 A276.000000 F1495.223
X-1.428583 A278.000000 F1495.2229
X-1.426024 A279.000000 F1495.2222
X-1.423465 A280.000000 F1495.2229
A280.000000 F408348.6019
X-1.420945 A281.000000 F1477.13
X-1.418386 A282.000000 F1495.8539
X-1.415827 A284.000000 F1495.854
X-1.413268 A285.000000 F1495.8519
X-1.410709 A286.000000 F1495.8564
A286.000000 F408161.9524
X-1.408150 A287.000000 F1477.36
X-1.405591 A289.000000 F1498.0558
X-1.403031 A290.000000 F1494.6821
X-1.400472 A291.000000 F1495.3072
X-1.397913 A292.000000 F1495.3119
A292.000000 F408126.2113
X-1.395354 A294.000000 F1477.0892
X-1.392795 A295.000000 F1496.593
X-1.390236 A296.000000 F1496.5922
X-1.387677 A297.000000 F1494.4003
A297.000000 F451132.1429
X-1.385118 A298.000000 F1477.3211
X-1.382559 A300.000000 F1498.0109
X-1.380000 A301.000000 F1494.8963
X-1.377441 A302.000000 F1495.1378
X-1.374843 A303.000000 F1494.895
X-1.372283 A305.000000 F1495.3985
A305.000000 F389771.0556
X-1.369724 A306.000000 F1477.3
X-1.367165 A307.000000 F1497.9867
X-1.364606 A308.000000 F1494.875
X-1.362677 A309.000000 F1993.4837
X-1.360748 A310.000000 F1993.4892
X-1.358819 A311.000000 F1993.4837
X-1.356890 A312.000000 F1993.4837
X-1.356850 A312.000000 F389800.3562
X-1.354291 A313.000000 F1477.2795
X-1.351732 A314.000000 F1497.9675
X-1.349173 A316.000000 F1494.8534
X-1.346575 A317.000000 F1495.2244
X-1.344016 A318.000000 F1495.2201
X-1.341417 A319.000000 F1495.3329
A319.000000 F357145.9885
X-1.338858 A321.000000 F1477.2579
X-1.336260 A322.000000 F1497.9473
X-1.333701 A323.000000 F1494.8298
X-1.331142 A324.000000 F1495.0714
X-1.331102 A324.000000 F408144.6681
X-1.328543 A326.000000 F1477.2382
X-1.325984 A327.000000 F1497.9205
X-1.323386 A328.000000 F1494.5515
X-1.320787 A329.000000 F1495.3105
A329.000000 F408091.8394
X-1.318228 A331.000000 F1476.708
X-1.315630 A332.000000 F1496.4856
X-1.313071 A333.000000 F1496.4844
X-1.311102 A334.000000 F1993.3684
X-1.309173 A335.000000 F1993.3697
X-1.307244 A336.000000 F1993.3656
X-1.305315 A337.000000 F1993.3703
X-1.305276 A337.000000 F408147.2653
X-1.302717 A338.000000 F1476.6883
X-1.300118 A339.000000 F1496.4635
X-1.297520 A340.000000 F1496.462
X-1.295591 A341.000000 F1993.3383
X-1.293661 A342.000000 F1993.341
X-1.291693 A343.000000 F1993.3368
X-1.289764 A344.000000 F1993.3432
A344.000000 F408097.1862
X-1.287165 A345.000000 F1476.6657
X-1.284567 A347.000000 F1498.1395
X-1.282008 A348.000000 F1494.9174
X-1.279409 A349.000000 F1494.9179
X-1.276811 A350.000000 F1494.9195
X-1.274213 A351.000000 F1494.9165
A351.000000 F408168.137
X-1.271614 A353.000000 F1476.8996
X-1.269016 A354.000000 F1498.0954
X-1.266417 A355.000000 F1494.4629
X-1.263819 A356.000000 F1495.2208
A356.000000 F389777.5184
X-1.261220 A358.000000 F1476.8755
X-1.258622 A359.000000 F1497.8357
X-1.256024 A0.000000 F1495.0683
X-1.253425 A1.000000 F1495.0684
X-1.250827 A3.000000 F1494.1799
A3.000000 F451145.394
X-1.248228 A4.000000 F1476.8571
X-1.245630 A5.000000 F1498.0504
X-1.243031 A6.000000 F1494.4187
X-1.240394 A7.000000 F1495.1773
X-1.237795 A9.000000 F1494.1579
A9.000000 F451084.0831
X-1.235197 A10.000000 F1477.0889
X-1.232598 A11.000000 F1497.7693
X-1.230000 A12.000000 F1494.3937
X-1.227362 A14.000000 F1494.9174
X-1.224764 A15.000000 F1495.0254
X-1.222165 A16.000000 F1495.0233
A16.000000 F389817.2717
X-1.219528 A17.000000 F1477.0664
X-1.216929 A19.000000 F1497.7464
X-1.214331 A20.000000 F1494.633
X-1.212362 A21.000000 F1993.1613
X-1.210394 A22.000000 F1993.166
X-1.208425 A23.000000 F1993.1623
X-1.206496 A23.000000 F1993.1608
X-1.206457 A23.000000 F389722.9986
X-1.203858 A25.000000 F1476.7914
X-1.201260 A26.000000 F1497.7485
X-1.199291 A27.000000 F1993.1315
X-1.197323 A28.000000 F1993.1342
X-1.195354 A29.000000 F1993.1327
X-1.193386 A30.000000 F1993.1337
A30.000000 F389731.5317
X-1.190787 A31.000000 F1476.7695
X-1.188150 A32.000000 F1497.726
X-1.185551 A33.000000 F1494.9576
X-1.182913 A35.000000 F1494.9559
A35.000000 F389728.4091
X-1.180276 A36.000000 F1476.7483
X-1.177677 A37.000000 F1496.2625
X-1.175039 A38.000000 F1496.2663
X-1.172441 A39.000000 F1495.0649
X-1.169803 A41.000000 F1494.0452
A41.000000 F451029.3419
X-1.167165 A42.000000 F1476.4766
X-1.164567 A43.000000 F1496.2396
X-1.161929 A44.000000 F1496.2428
X-1.159291 A46.000000 F1494.9127
X-1.156654 A47.000000 F1494.9137
X-1.154055 A48.000000 F1494.0264
X-1.154016 A48.000000 F428754.0344
X-1.151417 A49.000000 F1476.9593
X-1.148780 A51.000000 F1497.8959
X-1.146142 A52.000000 F1494.2611
X-1.143504 A53.000000 F1495.0225
X-1.140906 A54.000000 F1494.2612
X-1.138268 A55.000000 F1495.0203
X-1.138228 A55.000000 F451146.0471
X-1.135630 A57.000000 F1476.1564
X-1.132992 A58.000000 F1496.0678
X-1.130354 A59.000000 F1496.0639
X-1.127717 A60.000000 F1494.8694
X-1.125079 A62.000000 F1494.8668
A62.000000 F389837.9342
X-1.122441 A63.000000 F1476.4077
X-1.119803 A64.000000 F1497.8746
X-1.117165 A65.000000 F1494.7172
X-1.114528 A67.000000 F1494.716
X-1.114488 A67.000000 F408031.3078
X-1.111850 A68.000000 F1476.3885
X-1.109882 A69.000000 F1994.233
X-1.107913 A70.000000 F1994.2291
X-1.105945 A71.000000 F1994.2316
X-1.103937 A72.000000 F1994.2298
X-1.101299 A73.000000 F1494.9519
A73.000000 F389677.7039
X-1.098661 A74.000000 F1476.3679
X-1.096654 A75.000000 F1994.2004
X-1.094685 A76.000000 F1994.2019
X-1.092717 A77.000000 F1994.1997
X-1.090709 A78.000000 F1994.1993
X-1.088071 A79.000000 F1494.8018
X-1.085433 A80.000000 F1494.8008
A80.000000 F389597.1116
X-1.082756 A81.000000 F1476.3468
X-1.080787 A82.000000 F1994.1703
X-1.078780 A83.000000 F1994.1713
X-1.076811 A84.000000 F1994.1702
X-1.074843 A85.000000 F1994.1704
X-1.072165 A86.000000 F1494.778
X-1.069528 A88.000000 F1494.7786
A88.000000 F389583.2593
X-1.066850 A89.000000 F1476.3253
X-1.064213 A90.000000 F1497.7829
X-1.061575 A91.000000 F1494.7559
X-1.058898 A92.000000 F1494.756
X-1.056260 A94.000000 F1493.868
X-1.056220 A94.000000 F428625.3471
X-1.053583 A95.000000 F1476.8104
X-1.050945 A96.000000 F1497.7373
X-1.048268 A97.000000 F1494.1063
X-1.045591 A99.000000 F1494.8639
X-1.042953 A100.000000 F1493.8468
A100.000000 F450907.2136
X-1.040276 A101.000000 F1476.5353
X-1.037638 A102.000000 F1497.7157
X-1.034961 A104.000000 F1493.8232
X-1.032283 A105.000000 F1494.6026
A105.000000 F428580.9139
X-1.029646 A106.000000 F1476.5134
X-1.026969 A107.000000 F1496.0152
X-1.024291 A108.000000 F1496.0177
X-1.021654 A110.000000 F1494.8172
X-1.018976 A111.000000 F1494.3202
X-1.016299 A112.000000 F1494.5618
A112.000000 F389569.7656
X-1.013622 A113.000000 F1476.4885
X-1.011614 A114.000000 F1994.0228
X-1.009646 A115.000000 F1994.0199
X-1.007638 A116.000000 F1994.0195
X-1.005630 A117.000000 F1994.0206
X-1.002953 A118.000000 F1494.5373
X-1.000276 A120.000000 F1494.5349
A120.000000 F389627.3413
X-0.997598 A121.000000 F1476.4685
X-0.994921 A122.000000 F1495.9706
X-0.992244 A123.000000 F1495.9738
X-0.990236 A124.000000 F1992.6835
X-0.988228 A125.000000 F1992.6848
X-0.986220 A126.000000 F1992.6842
X-0.984213 A127.000000 F1992.6818
A127.000000 F389532.2651
X-0.981535 A128.000000 F1476.4479
X-0.978858 A129.000000 F1497.6485
X-0.976181 A131.000000 F1494.4923
X-0.973504 A132.000000 F1493.9911
A132.000000 F428432.3903
X-0.970827 A133.000000 F1476.4258
X-0.968150 A134.000000 F1497.3635
X-0.965472 A136.000000 F1494.7258
X-0.962795 A137.000000 F1493.9703
A137.000000 F428338.5826
X-0.960118 A138.000000 F1476.1526
X-0.957402 A139.000000 F1495.1204
X-0.954724 A140.000000 F1495.1215
X-0.952047 A142.000000 F1495.1177
X-0.949370 A143.000000 F1495.1194
A143.000000 F428510.8012
X-0.946693 A144.000000 F1476.3816
X-0.943976 A145.000000 F1495.0984
X-0.941299 A147.000000 F1495.0982
X-0.938622 A148.000000 F1495.0967
X-0.935906 A149.000000 F1495.0957
X-0.933228 A150.000000 F1494.5516
X-0.930551 A152.000000 F1494.552
X-0.930512 A152.000000 F342875.9914
X-0.927835 A153.000000 F1476.8911
X-0.925157 A154.000000 F1497.795
X-0.922441 A155.000000 F1493.8996
X-0.919764 A156.000000 F1494.4249
X-0.917087 A158.000000 F1494.5282
X-0.914370 A159.000000 F1494.5292
A159.000000 F389469.251
X-0.911654 A160.000000 F1476.0874
X-0.908976 A161.000000 F1497.5319
X-0.906299 A163.000000 F1494.6363
X-0.903583 A164.000000 F1493.6199
A164.000000 F428405.6073
X-0.900866 A165.000000 F1476.3157
X-0.898189 A166.000000 F1497.5109
X-0.895472 A168.000000 F1494.6139
X-0.892795 A169.000000 F1493.857
X-0.890079 A170.000000 F1494.6138
A170.000000 F342780.9307
X-0.887362 A171.000000 F1476.5712
X-0.884646 A173.000000 F1496.0489
X-0.881969 A174.000000 F1496.0492
X-0.879252 A175.000000 F1494.5905
X-0.876535 A176.000000 F1493.5733
A176.000000 F428436.7443
X-0.873819 A177.000000 F1476.2721
X-0.871811 A178.000000 F1993.7162
X-0.869764 A179.000000 F1993.716
X-0.867756 A180.000000 F1993.7161
X-0.865709 A181.000000 F1993.7159
X-0.862992 A182.000000 F1494.3084
X-0.860276 A184.000000 F1494.3085
A184.000000 F356919.1346
X-0.857559 A185.000000 F1476.5266
X-0.854882 A186.000000 F1497.7035
X-0.852165 A187.000000 F1494.5451
X-0.849449 A189.000000 F1493.7875
X-0.846732 A190.000000 F1494.2863
X-0.844016 A191.000000 F1494.285
A191.000000 F389389.5597
X-0.841299 A192.000000 F1476.228
X-0.838583 A193.000000 F1495.7201
X-0.835866 A195.000000 F1495.7216
X-0.833150 A196.000000 F1494.5203
X-0.830433 A197.000000 F1493.5046
A197.000000 F428380.7598
X-0.827717 A198.000000 F1476.4609
X-0.825000 A200.000000 F1497.3729
X-0.822244 A201.000000 F1493.7384
X-0.819528 A202.000000 F1494.0038
A202.000000 F428423.0925
X-0.816811 A203.000000 F1476.1812
X-0.814764 A204.000000 F1993.5938
X-0.812717 A205.000000 F1993.5935
X-0.810669 A206.000000 F1993.5947
X-0.808661 A207.000000 F1993.5935
X-0.805906 A208.000000 F1494.4762
A208.000000 F372493.9638
X-0.803189 A209.000000 F1475.9084
X-0.800472 A211.000000 F1497.1096
X-0.797717 A212.000000 F1494.7377
X-0.795000 A213.000000 F1494.4541
X-0.792283 A214.000000 F1493.6931
X-0.789528 A216.000000 F1494.4532
A216.000000 F372755.2185
X-0.786811 A217.000000 F1476.1371
X-0.784764 A218.000000 F1993.6478
X-0.782717 A219.000000 F1993.6425
X-0.780669 A220.000000 F1993.6535
X-0.778622 A221.000000 F1993.6411
X-0.775866 A222.000000 F1494.1689
X-0.773150 A223.000000 F1493.6717
A223.000000 F408143.6787
X-0.770394 A224.000000 F1476.1179
X-0.767677 A225.000000 F1497.3048
X-0.764921 A227.000000 F1494.4042
X-0.762205 A228.000000 F1493.6481
X-0.759449 A229.000000 F1494.4071
A229.000000 F389208.1961
X-0.756693 A230.000000 F1476.0977
X-0.753976 A232.000000 F1495.5813
X-0.751220 A233.000000 F1495.5793
X-0.748504 A234.000000 F1494.3868
X-0.748465 A234.000000 F342702.0545
X-0.745748 A235.000000 F1476.3486
X-0.743701 A236.000000 F1993.6657
X-0.741654 A237.000000 F1993.6755
X-0.739567 A238.000000 F1993.6648
X-0.737520 A239.000000 F1993.6718
X-0.734764 A240.000000 F1494.1033
A240.000000 F342682.4172
X-0.732008 A241.000000 F1476.5779
X-0.729961 A242.000000 F1993.5232
X-0.727913 A243.000000 F1993.5276
X-0.725827 A244.000000 F1993.5227
X-0.723780 A245.000000 F1993.5233
X-0.721024 A246.000000 F1494.3364
A246.000000 F342637.2806
X-0.718268 A248.000000 F1476.3061
X-0.715512 A249.000000 F1494.8582
X-0.712795 A250.000000 F1494.8595
X-0.710039 A251.000000 F1494.8584
X-0.707283 A253.000000 F1494.8579
X-0.704528 A254.000000 F1494.054
X-0.701772 A255.000000 F1494.0539
A255.000000 F342671.3418
X-0.699016 A256.000000 F1476.7891
X-0.696260 A257.000000 F1497.4255
X-0.693504 A259.000000 F1493.2719
X-0.690748 A260.000000 F1494.3131
X-0.687992 A261.000000 F1494.29
A261.000000 F372525.0332
X-0.685236 A262.000000 F1475.9835
X-0.683150 A263.000000 F1993.3147
X-0.681102 A264.000000 F1993.3142
X-0.679016 A265.000000 F1993.3151
X-0.676929 A266.000000 F1993.314
X-0.674173 A267.000000 F1494.2664
A267.000000 F372503.4345
X-0.671417 A269.000000 F1475.9606
X-0.669331 A269.000000 F1993.2823
X-0.667283 A270.000000 F1993.2816
X-0.665197 A271.000000 F1993.2816
X-0.663110 A272.000000 F1993.2823
A272.000000 F408089.4012
X-0.660354 A274.000000 F1475.6831
X-0.657598 A275.000000 F1496.8776
X-0.654843 A276.000000 F1494.5046
X-0.652047 A277.000000 F1494.2188
X-0.649291 A278.000000 F1493.2022
A278.000000 F372492.3656
X-0.646535 A280.000000 F1476.1945
X-0.643740 A281.000000 F1494.8057
X-0.640984 A282.000000 F1494.8061
X-0.638228 A283.000000 F1494.8046
X-0.635433 A285.000000 F1494.8071
X-0.632677 A286.000000 F1493.9374
X-0.629882 A287.000000 F1493.4379
A287.000000 F407863.4807
X-0.627126 A288.000000 F1475.895
X-0.624331 A290.000000 F1495.5011
X-0.621575 A291.000000 F1495.4984
X-0.618780 A292.000000 F1494.1736
X-0.616024 A293.000000 F1493.1549
X-0.615984 A293.000000 F408075.6456
X-0.613228 A294.000000 F1476.1213
X-0.610433 A296.000000 F1495.3493
X-0.607677 A297.000000 F1495.346
X-0.604882 A298.000000 F1494.1498
X-0.602126 A299.000000 F1493.132
X-0.602087 A299.000000 F428089.5979
X-0.599331 A301.000000 F1475.8479
X-0.597244 A302.000000 F1993.0156
X-0.595157 A302.000000 F1993.0113
X-0.593071 A303.000000 F1993.0064
X-0.590984 A304.000000 F1993.0143
A304.000000 F407972.5942
X-0.588189 A306.000000 F1475.8219
X-0.585394 A307.000000 F1496.7605
X-0.583307 A308.000000 F1991.8202
X-0.581220 A309.000000 F1991.8198
X-0.579134 A310.000000 F1991.8208
X-0.577047 A310.000000 F1991.8195
A310.000000 F407982.8773
X-0.574252 A312.000000 F1475.8038
X-0.571457 A313.000000 F1496.7129
X-0.568661 A314.000000 F1493.6046
X-0.565866 A315.000000 F1494.1032
X-0.563110 A317.000000 F1494.0769
X-0.560315 A318.000000 F1493.5805
X-0.557520 A319.000000 F1493.8176
X-0.557480 A319.000000 F342613.2101
X-0.554724 A320.000000 F1476.0606
X-0.551929 A322.000000 F1495.5129
X-0.549134 A323.000000 F1495.512
X-0.546339 A324.000000 F1494.0553
X-0.543543 A325.000000 F1493.5548
X-0.540748 A326.000000 F1493.798
X-0.540709 A326.000000 F372332.531
X-0.537913 A328.000000 F1476.01
X-0.535118 A329.000000 F1495.228
X-0.532323 A330.000000 F1495.2309
X-0.529528 A331.000000 F1494.0296
A331.000000 F342595.1423
X-0.526732 A333.000000 F1476.0139
X-0.523937 A334.000000 F1495.4635
X-0.521142 A335.000000 F1495.4684
X-0.518307 A336.000000 F1494.0047
X-0.515512 A338.000000 F1492.9904
A338.000000 F408042.1824
X-0.512717 A339.000000 F1475.9613
X-0.510591 A340.000000 F1992.8254
X-0.508504 A341.000000 F1992.8216
X-0.506378 A342.000000 F1992.8195
X-0.504291 A342.000000 F1992.8211
A342.000000 F372390.0994
X-0.501457 A344.000000 F1475.9675
X-0.498661 A345.000000 F1497.1147
X-0.495866 A346.000000 F1493.2277
X-0.493071 A347.000000 F1494.244
X-0.490236 A349.000000 F1493.9583
X-0.487441 A350.000000 F1492.9441
X-0.484606 A351.000000 F1493.7214
A351.000000 F407952.8254
X-0.481811 A352.000000 F1475.6656
X-0.478976 A354.000000 F1495.2639
X-0.476181 A355.000000 F1495.264
X-0.473346 A356.000000 F1493.935
X-0.470551 A357.000000 F1493.1799
X-0.467717 A358.000000 F1493.9352
A358.000000 F372358.8826
X-0.464882 A0.000000 F1475.6435
X-0.462795 A1.000000 F1992.9568
X-0.460669 A2.000000 F1992.9568
X-0.458543 A2.000000 F1992.9577
X-0.456457 A3.000000 F1992.9561
X-0.453622 A5.000000 F1493.6543
A5.000000 F372326.5559
X-0.450787 A6.000000 F1475.6205
X-0.448661 A7.000000 F1992.8091
X-0.446575 A8.000000 F1992.8099
X-0.444449 A9.000000 F1992.8083
X-0.442323 A10.000000 F1992.8086
A10.000000 F407832.6917
X-0.439488 A11.000000 F1475.5985
X-0.437362 A12.000000 F1992.7762
X-0.435276 A13.000000 F1992.7772
X-0.433150 A14.000000 F1992.7778
X-0.431024 A14.000000 F1992.778
A14.000000 F356988.3193
X-0.428189 A16.000000 F1476.1026
X-0.425354 A17.000000 F1496.7373
X-0.422559 A18.000000 F1493.3659
X-0.419724 A19.000000 F1493.7358
X-0.416890 A21.000000 F1493.7346
X-0.414055 A22.000000 F1493.8388
X-0.414016 A22.000000 F329467.8054
X-0.411220 A23.000000 F1476.0803
X-0.408386 A24.000000 F1494.363
X-0.405551 A26.000000 F1494.3612
X-0.402717 A27.000000 F1494.3613
X-0.399882 A28.000000 F1494.3635
X-0.397047 A29.000000 F1493.8146
X-0.394213 A30.000000 F1492.8015
A30.000000 F407597.1613
X-0.391378 A32.000000 F1475.5302
X-0.388543 A33.000000 F1495.2508
X-0.385709 A34.000000 F1495.247
X-0.382835 A35.000000 F1493.5358
X-0.380000 A37.000000 F1493.0325
A37.000000 F389239.4885
X-0.377165 A38.000000 F1475.7605
X-0.374331 A39.000000 F1495.0959
X-0.371496 A40.000000 F1495.0961
X-0.368622 A42.000000 F1493.7664
A42.000000 F329435.7063
X-0.365787 A43.000000 F1475.7608
X-0.362953 A44.000000 F1494.2892
X-0.360118 A45.000000 F1494.2892
X-0.357244 A47.000000 F1494.2877
X-0.354409 A48.000000 F1494.2906
A48.000000 F407691.269
X-0.351535 A49.000000 F1475.2042
X-0.348701 A50.000000 F1496.3808
X-0.345866 A51.000000 F1493.7423
X-0.343031 A53.000000 F1493.745
X-0.340157 A54.000000 F1493.4603
A54.000000 F342582.3247
X-0.337283 A55.000000 F1475.7129
X-0.333740 A57.000000 F1195.2671
X-0.330157 A58.000000 F1195.2677
X-0.326614 A60.000000 F1195.2677
X-0.323031 A61.000000 F1195.2687
X-0.320197 A63.000000 F1493.6955
X-0.320157 A63.000000 F356832.0984
X-0.317323 A64.000000 F1475.4119
X-0.314449 A65.000000 F1496.5758
X-0.311614 A66.000000 F1493.4313
X-0.308740 A67.000000 F1493.6867
X-0.305906 A69.000000 F1493.1631
X-0.305866 A69.000000 F372222.3463
X-0.303031 A70.000000 F1475.6498
X-0.300157 A71.000000 F1496.5414
X-0.297283 A72.000000 F1493.4106
X-0.294449 A74.000000 F1493.4032
X-0.291575 A75.000000 F1493.3982
A75.000000 F372382.673
X-0.288701 A76.000000 F1475.3709
X-0.285827 A77.000000 F1496.5236
X-0.282992 A79.000000 F1493.3846
X-0.280118 A80.000000 F1493.3792
A80.000000 F372279.0834
X-0.277244 A81.000000 F1475.356
X-0.274370 A82.000000 F1496.5032
X-0.271496 A83.000000 F1493.3654
X-0.268622 A85.000000 F1493.3624
X-0.265748 A86.000000 F1493.3554
A86.000000 F372254.1965
X-0.262874 A87.000000 F1475.5859
X-0.260039 A88.000000 F1496.4796
X-0.257165 A90.000000 F1493.3433
X-0.254291 A91.000000 F1493.3384
X-0.251417 A92.000000 F1493.3336
X-0.248543 A93.000000 F1493.3287
X-0.245630 A95.000000 F1493.3235
A95.000000 F356895.519
X-0.242756 A96.000000 F1475.5562
X-0.239882 A97.000000 F1496.4459
X-0.237008 A98.000000 F1493.3094
X-0.234134 A99.000000 F1493.3066
X-0.231260 A101.000000 F1493.3002
A101.000000 F356949.6688
X-0.228386 A102.000000 F1475.5327
X-0.225512 A103.000000 F1496.4214
X-0.222598 A104.000000 F1493.2868
X-0.219724 A106.000000 F1493.2831
X-0.216850 A107.000000 F1493.2751
A107.000000 F372287.2839
X-0.213937 A108.000000 F1475.2604
X-0.211063 A109.000000 F1496.6588
X-0.208189 A111.000000 F1493.0044
X-0.205315 A112.000000 F1493.2588
X-0.205276 A112.000000 F372348.5111
X-0.202402 A113.000000 F1475.4909
X-0.199528 A114.000000 F1496.3808
X-0.196654 A115.000000 F1493.2468
X-0.193740 A117.000000 F1493.2381
X-0.190866 A118.000000 F1493.2342
A118.000000 F356847.2805
X-0.187953 A119.000000 F1475.4718
X-0.185079 A120.000000 F1496.3566
X-0.182165 A122.000000 F1493.2216
X-0.179291 A123.000000 F1493.2189
X-0.176378 A124.000000 F1493.2119
X-0.173504 A125.000000 F1493.2058
A125.000000 F356917.4146
X-0.170591 A127.000000 F1475.441
X-0.167717 A128.000000 F1496.3294
X-0.164803 A129.000000 F1493.1966
X-0.161929 A130.000000 F1493.1856
X-0.159016 A131.000000 F1493.1816
X-0.156102 A133.000000 F1493.1804
A133.000000 F372162.0354
X-0.153228 A134.000000 F1475.4182
X-0.150315 A135.000000 F1496.3016
X-0.147402 A136.000000 F1493.1647
X-0.144528 A138.000000 F1493.157
X-0.141614 A139.000000 F1492.9007
A139.000000 F372408.7101
X-0.138701 A140.000000 F1475.3895
X-0.135787 A141.000000 F1496.2782
X-0.132874 A143.000000 F1493.1388
X-0.130000 A144.000000 F1493.1371
X-0.129961 A144.000000 F356994.3605
X-0.127087 A145.000000 F1475.3731
X-0.124173 A146.000000 F1496.2594
X-0.121260 A148.000000 F1493.125
X-0.118346 A149.000000 F1493.1182
X-0.115433 A150.000000 F1493.1098
A150.000000 F372171.724
X-0.112520 A151.000000 F1475.1014
X-0.109606 A152.000000 F1496.495
X-0.106693 A154.000000 F1492.8398
X-0.103780 A155.000000 F1493.3521
X-0.100866 A156.000000 F1493.0908
X-0.097953 A157.000000 F1492.8266
A157.000000 F372289.7462
X-0.095039 A159.000000 F1475.3231
X-0.092126 A160.000000 F1496.2075
X-0.089213 A161.000000 F1493.0721
X-0.086299 A162.000000 F1493.0642
X-0.083386 A164.000000 F1493.061
X-0.080472 A165.000000 F1493.0566
X-0.077559 A166.000000 F1493.0509
X-0.077520 A166.000000 F356845.7914
X-0.074606 A167.000000 F1475.2924
X-0.071693 A168.000000 F1496.1748
X-0.068780 A170.000000 F1493.0377
X-0.065866 A171.000000 F1493.0317
X-0.062953 A172.000000 F1493.0293
X-0.062913 A172.000000 F372137.8647
X-0.060000 A173.000000 F1475.0177
X-0.057087 A175.000000 F1496.409
X-0.054173 A176.000000 F1493.0126
X-0.051220 A177.000000 F1492.7516
A177.000000 F372120.3356
X-0.048307 A178.000000 F1475.2522
X-0.045394 A180.000000 F1496.1313
X-0.042441 A181.000000 F1492.995
X-0.039528 A182.000000 F1492.9894
X-0.039488 A182.000000 F356776.4584
X-0.036575 A183.000000 F1475.2332
X-0.033661 A184.000000 F1496.1119
X-0.030709 A186.000000 F1492.9747
X-0.027795 A187.000000 F1492.9729
X-0.024843 A188.000000 F1492.9654
X-0.021929 A189.000000 F1492.9617
A189.000000 F356817.62
X-0.018976 A191.000000 F1475.2042
X-0.016063 A192.000000 F1496.0834
X-0.013110 A193.000000 F1492.9489
X-0.010197 A194.000000 F1492.943
X-0.007244 A196.000000 F1493.1919
X-0.004291 A197.000000 F1492.6759
X-0.001378 A198.000000 F1492.9277
X-0.001339 A198.000000 F356736.9195
X0.001575 A199.000000 F1475.1749
X0.004528 A200.000000 F1496.3094
X0.007441 A202.000000 F1492.9126
X0.010394 A203.000000 F1492.9074
X0.013346 A204.000000 F1492.6495
A204.000000 F372043.0272
X0.016299 A205.000000 F1475.1507
X0.019252 A207.000000 F1496.0243
X0.022165 A208.000000 F1492.8907
X0.025118 A209.000000 F1492.8835
X0.025157 A209.000000 F356822.4976
X0.028071 A210.000000 F1475.1318
X0.031024 A212.000000 F1496.0027
X0.033976 A213.000000 F1492.8727
X0.036929 A214.000000 F1492.8677
X0.039882 A215.000000 F1492.8604
A215.000000 F356553.2265
X0.042835 A216.000000 F1475.1117
X0.045787 A218.000000 F1496.2395
X0.048740 A219.000000 F1492.8472
X0.051693 A220.000000 F1492.842
X0.054646 A221.000000 F1492.5796
A221.000000 F371987.3701
X0.057598 A223.000000 F1475.0861
X0.060551 A224.000000 F1495.9581
X0.063504 A225.000000 F1492.8202
X0.066457 A226.000000 F1492.8162
X0.069409 A228.000000 F1492.8129
X0.072362 A229.000000 F1492.8105
X0.072402 A229.000000 F356500.9828
X0.075354 A230.000000 F1475.0602
X0.078661 A231.000000 F1335.7648
X0.081969 A233.000000 F1335.76
X0.085276 A234.000000 F1335.7651
X0.088583 A236.000000 F1335.7614
X0.091890 A237.000000 F1335.7632
X0.095197 A238.000000 F1335.7642
X0.098504 A240.000000 F1335.7605
X0.101811 A241.000000 F1335.7639
X0.105118 A242.000000 F1335.7641
X0.108425 A244.000000 F1335.762
X0.111732 A245.000000 F1335.7622
X0.115039 A247.000000 F1335.7633
X0.118346 A248.000000 F1335.763
X0.121654 A249.000000 F1335.7638
X0.124961 A251.000000 F1335.7617
X0.128268 A252.000000 F1335.7625
X0.131575 A253.000000 F1335.7635
X0.134882 A255.000000 F1335.7623
X0.138189 A256.000000 F1335.7629
X0.141496 A257.000000 F1335.7628
X0.144803 A259.000000 F1335.7627
X0.148110 A260.000000 F1335.7628
X0.151417 A262.000000 F1335.7629
X0.154724 A263.000000 F1335.7631
X0.158031 A264.000000 F1335.763
X0.161339 A266.000000 F1335.7625
X0.164646 A267.000000 F1335.7629
X0.167953 A268.000000 F1335.7629
X0.171260 A270.000000 F1335.7628
X0.174567 A271.000000 F1335.7629
X0.177874 A273.000000 F1335.7627
X0.181181 A274.000000 F1335.7629
X0.184488 A275.000000 F1335.7627
X0.187795 A277.000000 F1335.7627
X0.191102 A278.000000 F1335.7633
X0.194409 A279.000000 F1335.7622
X0.197717 A281.000000 F1335.7629
X0.201024 A282.000000 F1335.7629
X0.204331 A284.000000 F1335.7631
X0.207638 A285.000000 F1335.7627
X0.210945 A286.000000 F1335.7639
X0.214252 A288.000000 F1335.7606
X0.217559 A289.000000 F1335.7639
X0.220866 A290.000000 F1335.7626
X0.224173 A292.000000 F1335.7625
X0.227480 A293.000000 F1335.7637
X0.230787 A295.000000 F1335.7631
X0.234094 A296.000000 F1335.7618
X0.237402 A297.000000 F1335.7629
X0.240709 A299.000000 F1335.7633
X0.244016 A300.000000 F1335.7631
X0.247323 A301.000000 F1335.7616
X0.250630 A303.000000 F1335.7637
X0.253937 A304.000000 F1335.7646
X0.257244 A306.000000 F1335.7616
X0.260551 A307.000000 F1335.7606
X0.263858 A308.000000 F1335.7635
X0.267165 A310.000000 F1335.7636
X0.270472 A311.000000 F1335.761
X0.273780 A312.000000 F1335.766
X0.277087 A314.000000 F1335.761
X0.280394 A315.000000 F1335.7621
X0.283701 A317.000000 F1335.7642
X0.287008 A318.000000 F1335.7626
X0.290315 A319.000000 F1335.763
X0.293622 A321.000000 F1335.7635
X0.296929 A322.000000 F1335.7617
X0.300236 A323.000000 F1335.762
X0.303543 A325.000000 F1335.7647
X0.306850 A326.000000 F1335.7616
X0.310157 A328.000000 F1335.7642
X0.313465 A329.000000 F1335.7616
X0.316772 A330.000000 F1335.7626
X0.320079 A332.000000 F1335.7626
X0.323386 A333.000000 F1335.7639
X0.326693 A334.000000 F1335.7625
X0.330000 A336.000000 F1335.7637
X0.333307 A337.000000 F1335.7613
X0.336614 A338.000000 F1335.7626
X0.339921 A340.000000 F1335.7626
X0.343228 A341.000000 F1335.7636
X0.346535 A343.000000 F1335.7637
X0.349843 A344.000000 F1335.7623
X0.353150 A345.000000 F1335.762
X0.356457 A347.000000 F1335.763
X0.359764 A348.000000 F1335.7635
X0.363071 A349.000000 F1335.7625
X0.366378 A351.000000 F1335.7626
X0.369685 A352.000000 F1335.7631
X0.372992 A354.000000 F1335.7629
X0.376299 A355.000000 F1335.7631
X0.379606 A356.000000 F1335.7625
X0.382913 A358.000000 F1335.763
X0.386220 A359.000000 F1335.7627
X0.389528 A0.000000 F1335.763
X0.392835 A2.000000 F1335.7627
X0.396142 A3.000000 F1335.7631
X0.399449 A5.000000 F1335.7624
X0.402756 A6.000000 F1335.7633
X0.406063 A7.000000 F1335.7625
X0.409370 A9.000000 F1335.7635
X0.412677 A10.000000 F1335.7625
X0.415984 A11.000000 F1335.7621
X0.419291 A13.000000 F1335.7636
X0.422598 A14.000000 F1335.7627
X0.425906 A16.000000 F1335.763
X0.429213 A17.000000 F1335.763
X0.432520 A18.000000 F1335.7628
X0.435827 A20.000000 F1335.7615
X0.439173 A21.000000 F1335.7633
X0.442480 A22.000000 F1335.7636
X0.445787 A24.000000 F1335.7621
X0.449094 A25.000000 F1335.7627
X0.452402 A27.000000 F1335.7636
X0.455709 A28.000000 F1335.7627
X0.459016 A29.000000 F1335.7622
X0.462323 A31.000000 F1335.765
X0.465630 A32.000000 F1335.7623
X0.468937 A33.000000 F1335.7623
X0.472244 A35.000000 F1335.7599
X0.475551 A36.000000 F1335.7663
X0.478858 A38.000000 F1335.7614
X0.482165 A39.000000 F1335.7642
X0.485472 A40.000000 F1335.7606
X0.488780 A42.000000 F1335.7634
X0.492087 A43.000000 F1335.7614
X0.495394 A44.000000 F1335.7636
X0.498701 A46.000000 F1335.764
G0 Z2.362205
G49
M9
M30
%
