%
(1005)
(T24  D=4. CR=0. - FLAT END MILL)
N10 G90 G93 G17 G91.1
N15 G64 P0.01
N20 G21
N25 G53 G0 Z0.
(2D CONTOUR3)
N30 M9
N35 T24 M6
(4MM 4 FLUTE FLAT)
N40 S5000 M3
N45 G54
N50 G0 A0.
N55 M8
N60 G0 X-117.426 Y0.
N65 G43 Z60. H24
N70 G1 A54.073 F999999.
N75 G0 Z37.65
N80 G94 G1 Z33.45 F333.3333
N85 Z31.05
N90 G93 G1 X-117.386 A55.442 F1345.7702
N95 X-117.346 A56.811 F1345.7737
N100 X-117.305 A58.18 F1345.7715
N105 X-117.265 A59.55 F1345.771
N110 X-117.225 A60.919 F1345.7723
N115 X-117.185 A62.288 F1345.7708
N120 X-117.145 A63.657 F1345.7709
N125 X-117.105 A65.026 F1345.7715
N130 X-117.065 A66.395 F1345.7711
N135 X-117.025 A67.765 F1345.772
N140 X-116.985 A69.134 F1345.7715
N145 X-116.945 A70.503 F1345.7714
N150 X-116.905 A71.872 F1345.7725
N155 X-116.865 A73.241 F1345.7706
N160 X-116.825 A74.611 F1345.7718
N165 X-116.785 A75.98 F1345.7711
N170 X-116.745 A77.349 F1345.7714
N175 X-116.705 A78.718 F1345.771
N180 X-116.665 A80.087 F1345.7719
N185 X-116.625 A81.456 F1345.7713
N190 X-116.585 A82.826 F1345.7715
N195 X-116.545 A84.195 F1345.7721
N200 X-116.505 A85.564 F1345.7712
N205 X-116.465 A86.933 F1345.7716
N210 X-116.425 A88.302 F1345.7714
N215 X-116.385 A89.671 F1345.7714
N220 X-116.345 A91.041 F1345.7715
N225 X-116.305 A92.41 F1345.7714
N230 X-116.265 A93.779 F1345.7715
N235 X-116.225 A95.148 F1345.772
N240 X-116.185 A96.517 F1345.7713
N245 X-116.145 A97.887 F1345.7717
N250 X-116.105 A99.256 F1345.7713
N255 X-116.065 A100.625 F1345.7715
N260 X-116.025 A101.994 F1345.7712
N265 X-115.985 A103.363 F1345.7719
N270 X-115.945 A104.732 F1345.7704
N275 X-115.905 A106.102 F1345.7715
N280 X-115.865 A107.471 F1345.7729
N285 X-115.825 A108.84 F1345.7713
N290 X-115.785 A110.209 F1345.7715
N295 X-115.745 A111.578 F1345.7715
N300 X-115.705 A112.947 F1345.7715
N305 X-115.665 A114.317 F1345.7707
N310 X-115.625 A115.686 F1345.7714
N315 X-115.585 A117.055 F1345.7714
N320 X-115.544 A118.424 F1345.771
N325 X-115.504 A119.793 F1345.7729
N330 X-115.464 A121.162 F1345.7719
N335 X-115.424 A122.532 F1345.7705
N340 X-115.384 A123.901 F1345.771
N345 X-115.344 A125.27 F1345.7707
N350 X-115.304 A126.639 F1345.7726
N355 X-115.264 A128.008 F1345.7713
N360 X-115.224 A129.378 F1345.7717
N365 X-115.184 A130.747 F1345.77
N370 X-115.144 A132.116 F1345.7717
N375 X-115.104 A133.485 F1345.7728
N380 X-115.064 A134.854 F1345.7719
N385 X-115.024 A136.223 F1345.7705
N390 X-114.984 A137.593 F1345.7713
N395 X-114.944 A138.962 F1345.7721
N400 X-114.904 A140.331 F1345.7712
N405 X-114.864 A141.7 F1345.7708
N410 X-114.824 A143.069 F1345.7716
N415 X-114.784 A144.438 F1345.7725
N420 X-114.744 A145.808 F1345.771
N425 X-114.704 A147.177 F1345.7728
N430 X-114.664 A148.546 F1345.7709
N435 X-114.624 A149.915 F1345.7716
N440 X-114.584 A151.284 F1345.7702
N445 X-114.544 A152.653 F1345.7719
N450 X-114.504 A154.023 F1345.7734
N455 X-114.464 A155.392 F1345.7708
N460 X-114.424 A156.761 F1345.771
N465 X-114.384 A158.13 F1345.7712
N470 X-114.344 A159.499 F1345.772
N475 X-114.304 A160.869 F1345.7705
N480 X-114.264 A162.238 F1345.7731
N485 X-114.224 A163.607 F1345.7702
N490 X-114.184 A164.976 F1345.7711
N495 X-114.144 A166.345 F1345.7725
N500 X-114.104 A167.714 F1345.7716
N505 X-114.064 A169.084 F1345.7709
N510 X-114.024 A170.453 F1345.7724
N515 X-113.984 A171.822 F1345.7711
N520 X-113.944 A173.191 F1345.7712
N525 X-113.904 A174.56 F1345.7715
N530 X-113.864 A175.929 F1345.7713
N535 X-113.824 A177.299 F1345.7723
N540 X-113.783 A178.668 F1345.7713
N545 X-113.743 A180.037 F1345.7714
N550 X-113.703 A181.406 F1345.7714
N555 X-113.663 A182.775 F1345.7715
N560 X-113.623 A184.145 F1345.7712
N565 X-113.583 A185.514 F1345.7713
N570 X-113.543 A186.883 F1345.7715
N575 X-113.503 A188.252 F1345.7718
N580 X-113.463 A189.621 F1345.7721
N585 X-113.423 A190.99 F1345.7709
N590 X-113.383 A192.36 F1345.7722
N595 X-113.343 A193.729 F1345.7709
N600 X-113.303 A195.098 F1345.7715
N605 X-113.263 A196.467 F1345.7705
N610 X-113.223 A197.836 F1345.7725
N615 X-113.183 A199.205 F1345.77
N620 X-113.143 A200.575 F1345.7731
N625 X-113.103 A201.944 F1345.7713
N630 X-113.063 A203.313 F1345.7723
N635 X-113.023 A204.682 F1345.7711
N640 X-112.983 A206.051 F1345.7711
N645 X-112.943 A207.42 F1345.7701
N650 X-112.903 A208.79 F1345.7727
N655 X-112.863 A210.159 F1345.7714
N660 X-112.823 A211.528 F1345.7717
N665 X-112.783 A212.897 F1345.7705
N670 X-112.743 A214.266 F1345.7734
N675 X-112.703 A215.636 F1345.7714
N680 X-112.663 A217.005 F1345.7696
N685 X-112.623 A218.374 F1345.7728
N690 X-112.583 A219.743 F1345.7707
N695 X-112.543 A221.112 F1345.7716
N700 X-112.503 A222.481 F1345.7723
N705 X-112.463 A223.851 F1345.7724
N710 X-112.423 A225.22 F1345.771
N715 X-112.383 A226.589 F1345.77
N720 X-112.343 A227.958 F1345.7737
N725 X-112.303 A229.327 F1345.7725
N730 X-112.267 A230.556 F1499.1914
N735 X-112.23 A231.785 F1499.0695
N740 A231.79 F368115.0631
N745 X-112.194 A233.02 F1498.9652
N750 X-112.157 A234.249 F1498.8643
N755 A234.254 F367888.7036
N760 X-112.121 A235.483 F1498.7538
N765 X-112.084 A236.713 F1498.4045
N770 A236.718 F370039.8724
N775 X-112.048 A237.947 F1498.5436
N780 X-112.011 A239.177 F1498.4366
N785 A239.182 F367876.1152
N790 X-111.975 A240.412 F1498.3505
N795 X-111.938 A241.641 F1498.4381
N800 X-111.901 A242.874 F1495.1468
N805 A242.879 F373033.8061
N810 X-111.865 A244.108 F1498.5436
N815 X-111.828 A245.339 F1496.9045
N820 X-111.791 A246.57 F1496.906
N825 A246.575 F372964.2599
N830 X-111.755 A247.804 F1498.7696
N835 X-111.718 A249.033 F1498.8777
N840 X-111.681 A250.265 F1496.0497
N845 X-111.644 A251.497 F1496.0488
N850 A251.501 F373914.0958
N855 X-111.608 A252.73 F1499.6035
N860 X-111.571 A253.959 F1499.5108
N865 X-111.534 A255.19 F1496.6886
N870 X-111.497 A256.421 F1496.6901
N875 X-111.46 A257.652 F1496.9
N880 X-111.423 A258.883 F1496.6416
N885 A258.888 F369966.5062
N890 X-111.387 A260.116 F1499.8138
N895 X-111.35 A261.346 F1497.969
N900 X-111.313 A262.576 F1497.9687
N905 X-111.276 A263.808 F1495.9757
N910 X-111.239 A265.039 F1496.0898
N915 X-111.202 A266.27 F1496.722
N920 X-111.165 A267.502 F1495.4408
N925 X-111.128 A268.736 F1493.3376
N930 X-111.1 A269.66 F1994.2172
N935 X-111.072 A270.584 F1994.2155
N940 X-111.045 A271.508 F1994.2171
N945 X-111.017 A272.432 F1994.217
N950 X-110.98 A273.663 F1496.3421
N955 X-110.942 A274.892 F1498.6867
N960 A274.897 F369883.2878
N965 X-110.905 A276.129 F1495.6029
N970 X-110.868 A277.363 F1493.3378
N975 X-110.831 A278.595 F1495.7657
N980 X-110.794 A279.824 F1498.632
N985 X-110.756 A281.054 F1498.5234
N990 A281.059 F370002.775
N995 X-110.719 A282.29 F1495.6104
N1000 X-110.682 A283.522 F1495.6116
N1005 X-110.645 A284.752 F1498.6311
N1010 X-110.607 A285.981 F1498.524
N1015 A285.986 F389769.4399
N1020 X-110.57 A287.216 F1497.7452
N1025 X-110.533 A288.446 F1498.4876
N1030 X-110.495 A289.673 F1500.8022
N1035 A289.678 F351067.4882
N1040 X-110.458 A290.91 F1495.7823
N1045 X-110.421 A292.138 F1500.7682
N1050 X-110.383 A293.367 F1498.3599
N1055 A293.372 F389816.3828
N1060 X-110.346 A294.6 F1500.6173
N1065 X-110.308 A295.829 F1498.363
N1070 A295.834 F369789.0645
N1075 X-110.271 A297.064 F1498.7966
N1080 X-110.233 A298.291 F1500.8211
N1085 A298.296 F351131.6503
N1090 X-110.196 A299.526 F1498.6309
N1095 X-110.158 A300.755 F1498.5055
N1100 A300.76 F371007.2593
N1105 X-110.121 A301.99 F1498.4707
N1110 X-110.083 A303.221 F1496.2145
N1115 A303.226 F390897.1859
N1120 X-110.046 A304.455 F1498.6468
N1125 X-110.008 A305.685 F1498.509
N1130 A305.69 F370059.6899
N1135 X-109.971 A306.919 F1498.4838
N1140 X-109.933 A308.15 F1496.3782
N1145 X-109.895 A309.382 F1495.6585
N1150 A309.387 F369894.7946
N1155 X-109.858 A310.617 F1498.4661
N1160 X-109.82 A311.848 F1496.3807
N1165 X-109.782 A313.08 F1495.5698
N1170 X-109.744 A314.311 F1495.5664
N1175 A314.316 F369740.7846
N1180 X-109.707 A315.546 F1498.6523
N1185 X-109.678 A316.469 F1995.391
N1190 X-109.65 A317.392 F1995.3953
N1195 X-109.621 A318.316 F1995.3975
N1200 X-109.593 A319.239 F1995.3881
N1205 X-109.555 A320.469 F1497.7676
N1210 A320.474 F351076.8544
N1215 X-109.518 A321.703 F1498.8133
N1220 X-109.48 A322.931 F1500.8006
N1225 X-109.442 A324.163 F1495.3339
N1230 X-109.404 A325.393 F1497.7641
N1235 X-109.366 A326.625 F1495.331
N1240 X-109.328 A327.855 F1497.7692
N1245 X-109.29 A329.087 F1495.3307
N1250 X-109.252 A330.317 F1497.7638
N1255 X-109.214 A331.549 F1495.1696
N1260 X-109.176 A332.781 F1495.4789
N1265 X-109.138 A334.013 F1495.4779
N1270 X-109.109 A334.937 F1993.9904
N1275 X-109.081 A335.861 F1993.9916
N1280 X-109.052 A336.785 F1993.9961
N1285 X-109.024 A337.709 F1993.9877
N1290 X-108.986 A338.94 F1496.2172
N1295 X-108.947 A340.169 F1498.5258
N1300 A340.174 F371885.8759
N1305 X-108.909 A341.406 F1495.4599
N1310 X-108.871 A342.64 F1493.1963
N1315 X-108.833 A343.872 F1495.6572
N1320 X-108.795 A345.101 F1498.3607
N1325 X-108.756 A346.333 F1496.0868
N1330 A346.337 F390905.3346
N1335 X-108.718 A347.569 F1495.4938
N1340 X-108.68 A348.801 F1495.4944
N1345 X-108.642 A350.031 F1498.4906
N1350 X-108.603 A351.26 F1498.3947
N1355 A351.265 F390884.9908
N1360 X-108.565 A352.495 F1497.6029
N1365 X-108.527 A353.725 F1498.1964
N1370 X-108.488 A354.954 F1498.3948
N1375 A354.959 F390830.4377
N1380 X-108.45 A356.189 F1497.6031
N1385 X-108.412 A357.418 F1498.3601
N1390 X-108.373 A358.646 F1500.6747
N1395 A358.651 F369905.7756
N1400 X-108.335 A359.879 F1500.4774
N1405 X-108.296 A361.108 F1498.231
N1410 A361.113 F369847.0797
N1415 X-108.258 A362.343 F1498.6865
N1420 X-108.219 A363.57 F1500.6749
N1425 A363.575 F351027.8986
N1430 X-108.181 A364.805 F1498.5228
N1435 X-108.142 A366.034 F1498.362
N1440 A366.039 F369840.1641
N1445 X-108.104 A367.269 F1498.5242
N1450 X-108.065 A368.499 F1496.8777
N1455 X-108.026 A369.73 F1496.8771
N1460 A369.735 F369974.4281
N1465 X-107.988 A370.964 F1498.4903
N1470 X-107.949 A372.194 F1498.3936
N1475 X-107.91 A373.428 F1492.9066
N1480 A373.432 F390960.2096
N1485 X-107.872 A374.662 F1498.5221
N1490 X-107.833 A375.891 F1498.3935
N1495 X-107.794 A377.125 F1492.9075
N1500 A377.13 F390845.0457
N1505 X-107.756 A378.359 F1498.5229
N1510 X-107.727 A379.282 F1995.152
N1515 X-107.698 A380.206 F1995.149
N1520 X-107.668 A381.129 F1995.1471
N1525 X-107.639 A382.052 F1995.1504
N1530 A382.057 F369952.1375
N1535 X-107.601 A383.287 F1498.5232
N1540 X-107.572 A384.21 F1995.2237
N1545 X-107.543 A385.133 F1995.2219
N1550 X-107.513 A386.057 F1995.2225
N1555 X-107.484 A386.98 F1995.222
N1560 X-107.445 A388.21 F1497.6378
N1565 X-107.406 A389.442 F1495.2024
N1570 X-107.367 A390.672 F1497.6366
N1575 X-107.328 A391.904 F1495.2045
N1580 X-107.289 A393.134 F1497.6341
N1585 X-107.25 A394.366 F1495.2055
N1590 X-107.211 A395.596 F1497.6343
N1595 X-107.172 A396.828 F1495.0418
N1600 X-107.133 A398.06 F1495.5245
N1605 X-107.094 A399.29 F1497.6378
N1610 X-107.055 A400.522 F1495.0106
N1615 X-107.016 A401.754 F1495.3635
N1620 X-106.977 A402.988 F1493.068
N1625 X-106.938 A404.22 F1495.4477
N1630 X-106.899 A405.452 F1495.4464
N1635 X-106.86 A406.681 F1498.197
N1640 X-106.82 A407.912 F1495.956
N1645 A407.917 F393168.4294
N1650 X-106.781 A409.149 F1495.3489
N1655 X-106.742 A410.381 F1495.3481
N1660 X-106.703 A411.612 F1496.0884
N1665 X-106.663 A412.841 F1498.4241
N1670 A412.846 F369969.0163
N1675 X-106.624 A414.078 F1495.362
N1680 X-106.585 A415.308 F1498.3653
N1685 X-106.545 A416.537 F1498.2609
N1690 A416.542 F369857.8846
N1695 X-106.506 A417.774 F1495.3666
N1700 X-106.467 A419.003 F1498.3899
N1705 X-106.427 A420.233 F1498.2316
N1710 A420.238 F393136.0141
N1715 X-106.388 A421.468 F1497.4717
N1720 X-106.349 A422.697 F1498.2307
N1725 X-106.309 A423.925 F1500.5423
N1730 A423.93 F351008.2187
N1735 X-106.27 A425.159 F1498.5589
N1740 X-106.23 A426.387 F1500.5423
N1745 A426.392 F350879.2005
N1750 X-106.191 A427.621 F1498.5576
N1755 X-106.151 A428.849 F1500.5425
N1760 A428.854 F350926.4552
N1765 X-106.112 A430.083 F1498.5585
N1770 X-106.072 A431.311 F1500.5417
N1775 X-106.032 A432.543 F1494.8773
N1780 A432.548 F369787.5929
N1785 X-105.993 A433.778 F1498.3934
N1790 X-105.953 A435.007 F1498.2617
N1795 A435.012 F369890.0767
N1800 X-105.914 A436.241 F1498.3618
N1805 X-105.874 A437.471 F1498.2607
N1810 X-105.834 A438.705 F1492.7749
N1815 A438.709 F390888.3857
N1820 X-105.795 A439.939 F1498.3945
N1825 X-105.755 A441.168 F1498.262
N1830 X-105.715 A442.402 F1492.9359
N1835 X-105.675 A443.634 F1495.3963
N1840 A443.639 F369841.4452
N1845 X-105.636 A444.868 F1498.3622
N1850 X-105.596 A446.098 F1498.2608
N1855 X-105.556 A447.331 F1492.9371
N1860 X-105.516 A448.563 F1495.3141
N1865 X-105.476 A449.795 F1495.3149
N1870 A449.8 F369849.7871
N1875 X-105.437 A451.029 F1498.3936
N1880 X-105.397 A452.259 F1498.4248
N1885 X-105.357 A453.489 F1497.5043
N1890 X-105.317 A454.721 F1495.0388
N1895 X-105.277 A455.951 F1497.5357
N1900 X-105.237 A457.183 F1495.0383
N1905 X-105.197 A458.413 F1497.538
N1910 X-105.157 A459.645 F1495.0378
N1915 X-105.117 A460.875 F1497.5358
N1920 X-105.077 A462.107 F1495.0382
N1925 X-105.037 A463.337 F1497.5371
N1930 X-104.997 A464.569 F1494.8757
N1935 X-104.957 A465.801 F1495.2312
N1940 X-104.917 A467.033 F1495.2338
N1945 X-104.877 A468.262 F1498.2303
N1950 X-104.836 A469.492 F1498.1261
N1955 A469.497 F369796.5151
N1960 X-104.796 A470.729 F1495.2336
N1965 X-104.756 A471.961 F1495.2178
N1970 X-104.716 A473.192 F1495.2173
N1975 X-104.676 A474.424 F1495.9556
N1980 X-104.635 A475.653 F1498.2871
N1985 A475.658 F369942.283
N1990 X-104.595 A476.89 F1495.2317
N1995 X-104.555 A478.124 F1492.9377
N2000 X-104.515 A479.353 F1498.4259
N2005 X-104.474 A480.582 F1498.0927
N2010 A480.587 F371832.445
N2015 X-104.434 A481.817 F1498.2272
N2020 X-104.393 A483.046 F1498.1261
N2025 A483.051 F369837.7314
N2030 X-104.353 A484.283 F1495.236
N2035 X-104.313 A485.513 F1498.2278
N2040 X-104.272 A486.742 F1498.1234
N2045 A486.747 F369921.3104
N2050 X-104.232 A487.976 F1498.4247
N2055 X-104.191 A489.204 F1500.4424
N2060 A489.209 F348951.0446
N2065 X-104.151 A490.438 F1498.4258
N2070 X-104.11 A491.666 F1500.4395
N2075 A491.671 F349146.9079
N2080 X-104.07 A492.9 F1498.4245
N2085 X-104.029 A494.128 F1500.4402
N2090 A494.133 F349046.6144
N2095 X-103.989 A495.362 F1498.4256
N2100 X-103.948 A496.59 F1500.4381
N2105 A496.595 F349171.2978
N2110 X-103.908 A497.825 F1498.2647
N2115 X-103.867 A499.054 F1498.2877
N2120 X-103.826 A500.284 F1497.4007
N2125 A500.289 F349144.0433
N2130 X-103.786 A501.518 F1498.2595
N2135 X-103.745 A502.748 F1498.0964
N2140 A502.753 F350922.289
N2145 X-103.705 A503.984 F1496.2809
N2150 X-103.675 A504.907 F1994.8658
N2155 X-103.644 A505.831 F1994.8661
N2160 X-103.613 A506.754 F1994.865
N2165 X-103.582 A507.677 F1994.8688
N2170 A507.683 F350989.0456
N2175 X-103.542 A508.914 F1496.3117
N2180 X-103.501 A510.144 F1496.6763
N2185 X-103.46 A511.375 F1496.676
N2190 X-103.419 A512.609 F1492.8024
N2195 X-103.378 A513.84 F1495.2588
N2200 A513.845 F369980.5311
N2205 X-103.338 A515.075 F1498.2599
N2210 X-103.297 A516.306 F1495.8864
N2215 X-103.256 A517.537 F1495.8862
N2220 X-103.215 A518.768 F1495.8856
N2225 X-103.174 A520. F1495.8868
N2230 X-103.133 A521.23 F1497.4017
N2235 X-103.092 A522.462 F1494.7381
N2240 X-103.051 A523.694 F1495.2621
N2245 X-103.01 A524.924 F1497.3017
N2250 X-102.969 A526.154 F1497.3033
N2255 X-102.928 A527.386 F1494.9032
N2260 X-102.887 A528.616 F1497.4007
N2265 X-102.846 A529.848 F1494.7405
N2270 X-102.805 A531.08 F1495.2598
N2275 X-102.764 A532.307 F1500.242
N2280 X-102.723 A533.537 F1497.7922
N2285 X-102.722 A533.542 F369784.6941
N2290 X-102.692 A534.466 F1993.4628
N2295 X-102.661 A535.39 F1993.4641
N2300 X-102.63 A536.314 F1993.4652
N2305 X-102.599 A537.238 F1993.4625
N2310 X-102.558 A538.467 F1497.9301
N2315 X-102.517 A539.699 F1495.6833
N2320 X-102.516 A539.703 F390782.9223
N2325 X-102.475 A540.935 F1495.0976
N2330 X-102.434 A542.167 F1495.0977
N2335 X-102.393 A543.398 F1495.8207
N2340 X-102.352 A544.628 F1498.1506
N2345 X-102.351 A544.633 F369781.2235
N2350 X-102.31 A545.864 F1495.0981
N2355 X-102.269 A547.094 F1497.8974
N2360 X-102.228 A548.325 F1495.6832
N2365 X-102.227 A548.33 F395268.2544
N2370 X-102.186 A549.562 F1495.0977
N2375 X-102.145 A550.791 F1498.0931
N2380 X-102.104 A552.021 F1497.955
N2385 X-102.103 A552.025 F395302.6888
N2390 X-102.062 A553.253 F1500.0468
N2395 X-102.021 A554.483 F1497.8224
N2400 X-102.02 A554.488 F369872.9786
N2405 X-101.979 A555.717 F1498.2889
N2410 X-101.938 A556.945 F1500.2974
N2415 X-101.937 A556.95 F347505.9933
N2420 X-101.896 A558.179 F1498.2886
N2425 X-101.855 A559.407 F1500.3001
N2430 X-101.854 A559.412 F350816.0405
N2435 X-101.813 A560.641 F1498.289
N2440 X-101.772 A561.869 F1500.2987
N2445 X-101.73 A563.101 F1494.5692
N2450 X-101.729 A563.106 F395414.1218
N2455 X-101.688 A564.333 F1500.0455
N2460 X-101.647 A565.563 F1497.8224
N2465 X-101.646 A565.568 F369756.6689
N2470 X-101.605 A566.797 F1498.0937
N2475 X-101.574 A567.721 F1994.6091
N2480 X-101.543 A568.644 F1994.6103
N2485 X-101.511 A569.567 F1994.607
N2490 X-101.48 A570.491 F1994.6071
N2495 X-101.479 A570.496 F369875.1877
N2500 X-101.438 A571.725 F1498.0921
N2505 X-101.397 A572.954 F1498.0214
N2510 X-101.355 A574.188 F1492.6321
N2515 X-101.313 A575.42 F1495.1529
N2520 X-101.312 A575.425 F369845.369
N2525 X-101.271 A576.654 F1497.8963
N2530 X-101.23 A577.886 F1495.8781
N2535 X-101.188 A579.117 F1495.025
N2540 X-101.146 A580.349 F1495.0238
N2545 X-101.104 A581.583 F1492.696
N2550 X-101.062 A582.815 F1495.0256
N2555 X-101.02 A584.047 F1495.0238
N2560 X-101.019 A584.052 F369777.6596
N2565 X-100.978 A585.281 F1498.2879
N2570 X-100.937 A586.509 F1500.2997
N2575 X-100.895 A587.741 F1494.6354
N2580 X-100.853 A588.972 F1495.0865
N2585 X-100.811 A590.202 F1497.2941
N2590 X-100.769 A591.432 F1497.7612
N2595 X-100.726 A592.66 F1500.1564
N2600 A592.665 F350851.0924
N2605 X-100.684 A593.897 F1495.0869
N2610 X-100.642 A595.127 F1497.2969
N2615 X-100.6 A596.359 F1494.7631
N2620 X-100.558 A597.589 F1497.227
N2625 X-100.516 A598.821 F1494.5703
N2630 X-100.474 A600.053 F1495.1547
N2635 X-100.432 A601.28 F1500.1021
N2640 X-100.389 A602.51 F1497.6817
N2645 A602.515 F369764.3934
N2650 X-100.347 A603.747 F1494.9598
N2655 X-100.305 A604.98 F1492.6317
N2660 X-100.263 A606.21 F1498.1494
N2665 X-100.22 A607.439 F1497.8122
N2670 A607.444 F369660.6357
N2675 X-100.178 A608.676 F1494.9604
N2680 X-100.136 A609.907 F1495.6833
N2685 X-100.093 A611.137 F1498.0075
N2690 A611.142 F369782.7181
N2695 X-100.051 A612.374 F1494.9596
N2700 X-100.009 A613.603 F1497.825
N2705 X-99.966 A614.834 F1495.4736
N2710 A614.839 F395256.3266
N2715 X-99.924 A616.071 F1494.9596
N2720 X-99.882 A617.3 F1497.9549
N2725 X-99.839 A618.53 F1497.878
N2730 A618.534 F390726.9318
N2735 X-99.797 A619.762 F1499.972
N2740 X-99.754 A620.992 F1497.6161
N2745 A620.997 F369777.5618
N2750 X-99.712 A622.226 F1498.151
N2755 X-99.669 A623.454 F1500.1559
N2760 A623.459 F350856.5721
N2765 X-99.627 A624.688 F1498.1509
N2770 X-99.584 A625.916 F1500.1561
N2775 X-99.541 A627.148 F1494.4267
N2780 A627.153 F395261.3514
N2785 X-99.499 A628.38 F1499.9058
N2790 X-99.456 A629.61 F1497.6172
N2795 A629.615 F373721.3594
N2800 X-99.414 A630.844 F1498.1507
N2805 X-99.371 A632.072 F1500.156
N2810 X-99.328 A633.304 F1494.4278
N2815 X-99.285 A634.536 F1494.8173
N2820 A634.541 F369724.154
N2825 X-99.243 A635.77 F1497.9544
N2830 X-99.2 A637. F1497.8134
N2835 X-99.157 A638.234 F1492.3596
N2840 A638.238 F395280.5062
N2845 X-99.115 A639.468 F1497.9539
N2850 X-99.072 A640.697 F1497.8127
N2855 X-99.029 A641.931 F1492.4917
N2860 X-98.986 A643.163 F1494.914
N2865 X-98.943 A644.395 F1494.914
N2870 X-98.9 A645.628 F1492.4904
N2875 X-98.857 A646.86 F1495.0123
N2880 A646.865 F369690.7544
N2885 X-98.815 A648.094 F1497.9538
N2890 X-98.761 A649.634 F1196.365
N2895 X-98.707 A651.173 F1196.3618
N2900 X-98.653 A652.712 F1196.3648
N2905 X-98.6 A654.251 F1196.3625
N2910 X-98.557 A655.481 F1497.0853
N2915 X-98.514 A656.713 F1494.6246
N2920 X-98.471 A657.943 F1497.1491
N2925 X-98.428 A659.173 F1497.617
N2930 X-98.384 A660.4 F1500.0117
N2935 A660.405 F369604.4844
N2940 X-98.341 A661.636 F1496.956
N2945 X-98.298 A662.868 F1494.6226
N2950 X-98.255 A664.098 F1497.1523
N2955 X-98.212 A665.33 F1494.4285
N2960 X-98.169 A666.562 F1494.8158
N2965 X-98.126 A667.791 F1497.8137
N2970 X-98.082 A669.021 F1497.6645
N2975 A669.026 F369588.7116
N2980 X-98.039 A670.257 F1495.4714
N2985 X-97.996 A671.488 F1495.6317
N2990 X-97.952 A672.72 F1494.9367
N2995 X-97.909 A673.952 F1494.9358
N3000 X-97.866 A675.185 F1492.7712
N3005 X-97.822 A676.417 F1495.2145
N3010 X-97.779 A677.649 F1494.2533
N3015 X-97.736 A678.882 F1492.9496
N3020 X-97.692 A680.114 F1494.9583
N3025 X-97.649 A681.348 F1492.7549
N3030 X-97.605 A682.579 F1495.199
N3035 X-97.562 A683.811 F1494.4361
N3040 X-97.529 A684.735 F1993.1937
N3045 X-97.497 A685.659 F1993.1986
N3050 X-97.464 A686.583 F1993.1949
N3055 X-97.431 A687.507 F1993.1958
N3060 X-97.388 A688.737 F1497.2074
N3065 X-97.344 A689.968 F1494.797
N3070 X-97.301 A691.2 F1494.6131
N3075 X-97.257 A692.43 F1497.1623
N3080 X-97.214 A693.66 F1497.1617
N3085 X-97.17 A694.892 F1494.7833
N3090 X-97.126 A696.122 F1496.9325
N3095 X-97.083 A697.352 F1497.1781
N3100 X-97.039 A698.584 F1494.2122
N3105 X-96.995 A699.814 F1497.441
N3110 X-96.952 A701.046 F1494.7659
N3115 X-96.908 A702.278 F1494.6506
N3120 X-96.864 A703.508 F1497.295
N3125 X-96.82 A704.74 F1493.807
N3130 X-96.777 A705.973 F1493.218
N3135 X-96.733 A707.205 F1495.141
N3140 X-96.689 A708.437 F1494.1173
N3145 X-96.645 A709.669 F1494.7664
N3150 X-96.601 A710.902 F1492.8785
N3155 X-96.557 A712.134 F1494.8807
N3160 X-96.513 A713.368 F1492.3608
N3165 X-96.47 A714.599 F1495.1408
N3170 X-96.426 A715.831 F1494.9964
N3175 X-96.382 A717.065 F1492.152
N3180 X-96.338 A718.297 F1494.7513
N3185 X-96.294 A719.528 F1495.2568
N3190 X-96.25 A720.76 F1494.9821
N3195 X-96.206 A721.992 F1494.3474
N3200 X-96.161 A723.224 F1494.8851
N3205 X-96.117 A724.456 F1494.8836
N3210 X-96.073 A725.686 F1496.9901
N3215 X-96.029 A726.918 F1494.4625
N3220 X-95.985 A728.148 F1497.0556
N3225 X-95.941 A729.379 F1494.7729
N3230 X-95.897 A730.61 F1496.6658
N3235 X-95.853 A731.841 F1494.9023
N3240 X-95.808 A733.071 F1497.0396
N3245 X-95.764 A734.303 F1494.7587
N3250 X-95.72 A735.533 F1496.6487
N3255 X-95.687 A736.457 F1992.8657
N3260 X-95.653 A737.381 F1992.8655
N3265 X-95.62 A738.305 F1992.8669
N3270 X-95.587 A739.229 F1992.8646
N3275 X-95.543 A740.46 F1494.9544
N3280 X-95.498 A741.692 F1494.8726
N3285 X-95.454 A742.924 F1494.1073
N3290 X-95.41 A744.158 F1492.8052
N3295 X-95.365 A745.39 F1494.7751
N3300 X-95.321 A746.621 F1494.7771
N3305 X-95.276 A747.855 F1492.5298
N3310 X-95.232 A749.087 F1494.678
N3315 X-95.187 A750.319 F1494.759
N3320 X-95.143 A751.55 F1494.7604
N3325 X-95.098 A752.784 F1492.5983
N3330 X-95.054 A754.015 F1495.0386
N3335 X-95.009 A755.248 F1494.2703
N3340 X-94.965 A756.479 F1495.1057
N3345 X-94.92 A757.709 F1496.8496
N3350 X-94.876 A758.941 F1494.3875
N3355 X-94.831 A760.171 F1496.9851
N3360 X-94.786 A761.403 F1494.6933
N3365 X-94.742 A762.633 F1496.5927
N3370 X-94.697 A763.865 F1494.8277
N3375 X-94.652 A765.095 F1496.9017
N3380 X-94.608 A766.326 F1494.6985
N3385 X-94.563 A767.556 F1497.1467
N3390 X-94.518 A768.788 F1494.1643
N3395 X-94.473 A770.02 F1494.4364
N3400 X-94.428 A771.25 F1497.2788
N3405 X-94.384 A772.482 F1494.603
N3410 X-94.339 A773.714 F1493.9685
N3415 X-94.294 A774.948 F1492.5528
N3420 X-94.26 A775.872 F1992.9718
N3425 X-94.227 A776.795 F1992.9775
N3430 X-94.193 A777.719 F1992.9791
N3435 X-94.159 A778.643 F1992.9826
N3440 X-94.114 A779.877 F1492.4566
N3445 X-94.069 A781.108 F1494.6651
N3450 X-94.024 A782.34 F1494.7865
N3455 X-93.979 A783.574 F1492.1956
N3460 X-93.934 A784.806 F1494.7184
N3465 X-93.889 A786.037 F1494.8481
N3470 X-93.844 A787.269 F1494.7672
N3475 X-93.799 A788.501 F1494.1999
N3480 X-93.754 A789.733 F1494.6708
N3485 X-93.709 A790.965 F1494.6717
N3490 X-93.664 A792.196 F1494.9621
N3495 X-93.619 A793.426 F1497.0872
N3500 X-93.574 A794.658 F1494.0523
N3505 X-93.529 A795.888 F1497.0877
N3510 X-93.483 A797.12 F1494.2979
N3515 X-93.438 A798.35 F1496.8913
N3520 X-93.393 A799.582 F1494.6086
N3525 X-93.348 A800.812 F1496.4992
N3530 X-93.302 A802.044 F1494.5436
N3535 X-93.257 A803.276 F1494.6728
N3540 X-93.212 A804.506 F1496.8107
N3545 X-93.166 A805.738 F1494.3479
N3550 X-93.121 A806.969 F1494.7886
N3555 X-93.076 A808.201 F1494.153
N3560 X-93.03 A809.433 F1494.7235
N3565 X-92.985 A810.667 F1492.1369
N3570 X-92.94 A811.898 F1494.9825
N3575 X-92.894 A813.13 F1494.7084
N3580 X-92.849 A814.364 F1491.8778
N3585 X-92.803 A815.596 F1494.6753
N3590 X-92.758 A816.827 F1494.6757
N3595 X-92.712 A818.061 F1492.4454
N3600 X-92.667 A819.293 F1494.8879
N3605 X-92.621 A820.525 F1494.1881
N3610 X-92.576 A821.756 F1494.5623
N3615 X-92.53 A822.988 F1494.5624
N3620 X-92.484 A824.22 F1494.9527
N3625 X-92.439 A825.449 F1497.0108
N3630 X-92.393 A826.682 F1493.7168
N3635 X-92.347 A827.913 F1494.9381
N3640 X-92.302 A829.143 F1496.6852
N3645 X-92.256 A830.375 F1494.2224
N3650 X-92.21 A831.605 F1496.7499
N3655 X-92.165 A832.837 F1494.484
N3660 X-92.119 A834.067 F1496.9937
N3665 X-92.073 A835.299 F1494.2068
N3670 X-92.027 A836.529 F1496.7339
N3675 X-91.981 A837.761 F1494.2735
N3680 X-91.935 A838.993 F1494.7118
N3685 X-91.89 A840.225 F1494.075
N3690 X-91.844 A841.457 F1494.4826
N3695 X-91.798 A842.688 F1494.487
N3700 X-91.752 A843.92 F1494.4849
N3705 X-91.706 A845.152 F1494.4826
N3710 X-91.66 A846.386 F1492.566
N3715 X-91.614 A847.617 F1494.4375
N3720 X-91.568 A848.849 F1494.4352
N3725 X-91.522 A850.083 F1492.047
N3730 X-91.476 A851.315 F1494.566
N3735 X-91.43 A852.546 F1494.698
N3740 X-91.384 A853.778 F1494.6166
N3745 X-91.338 A855.012 F1492.0286
N3750 X-91.292 A856.243 F1494.7436
N3755 X-91.246 A857.473 F1496.8201
N3760 X-91.2 A858.705 F1494.407
N3765 X-91.153 A859.937 F1494.0286
N3770 X-91.107 A861.169 F1494.8636
N3775 X-91.061 A862.399 F1496.6706
N3780 X-91.015 A863.631 F1494.4087
N3785 X-90.969 A864.86 F1496.9171
N3790 X-90.922 A866.091 F1495.9553
N3795 X-90.876 A867.323 F1494.6494
N3800 X-90.83 A868.553 F1496.5912
N3805 X-90.783 A869.785 F1493.9385
N3810 X-90.737 A871.016 F1494.6477
N3815 X-90.691 A872.248 F1494.7664
N3820 X-90.644 A873.478 F1496.6409
N3825 X-90.598 A874.71 F1493.7422
N3830 X-90.552 A875.944 F1492.5508
N3835 X-90.505 A877.176 F1494.1169
N3840 X-90.459 A878.407 F1494.5679
N3845 X-90.412 A879.639 F1494.6195
N3850 X-90.366 A880.873 F1491.9708
N3855 X-90.319 A882.105 F1494.3592
N3860 X-90.273 A883.336 F1494.3592
N3865 X-90.226 A884.57 F1492.2944
N3870 X-90.168 A886.11 F1195.547
N3875 X-90.11 A887.649 F1195.5472
N3880 X-90.052 A889.189 F1195.5481
N3885 X-89.993 A890.729 F1195.5475
N3890 X-89.947 A891.961 F1494.522
N3895 X-89.9 A893.193 F1494.2142
N3900 X-89.853 A894.422 F1496.856
N3905 X-89.807 A895.654 F1494.3276
N3910 X-89.76 A896.884 F1496.9054
N3915 X-89.713 A898.116 F1493.7441
N3920 X-89.666 A899.346 F1496.8401
N3925 X-89.62 A900.578 F1494.0526
N3930 X-89.573 A901.808 F1496.5783
N3935 X-89.526 A903.04 F1493.9883
N3940 X-89.479 A904.27 F1496.7102
N3945 X-89.421 A905.81 F1195.4062
N3950 X-89.362 A907.35 F1195.4065
N3955 X-89.303 A908.889 F1195.406
N3960 X-89.245 A910.429 F1195.4062
N3965 X-89.198 A911.663 F1492.2153
N3970 X-89.151 A912.895 F1494.2976
N3975 X-89.104 A914.126 F1494.606
N3980 X-89.057 A915.36 F1492.2003
N3985 X-89.01 A916.592 F1494.0203
N3990 X-88.963 A917.824 F1494.4782
N3995 X-88.916 A919.055 F1494.5249
N4000 X-88.868 A920.289 F1491.8745
N4005 X-88.821 A921.521 F1494.3979
N4010 X-88.774 A922.752 F1494.4594
N4015 X-88.727 A923.984 F1494.5099
N4020 X-88.68 A925.216 F1494.0709
N4025 X-88.633 A926.446 F1496.7766
N4030 X-88.586 A927.678 F1493.7944
N4035 X-88.538 A928.909 F1494.7036
N4040 X-88.491 A930.139 F1496.7621
N4045 X-88.444 A931.372 F1493.6638
N4050 X-88.397 A932.601 F1496.8275
N4055 X-88.349 A933.833 F1493.9092
N4060 X-88.302 A935.063 F1496.5019
N4065 X-88.255 A936.295 F1494.2325
N4070 X-88.207 A937.525 F1496.8132
N4075 X-88.16 A938.757 F1493.6955
N4080 X-88.113 A939.989 F1494.1714
N4085 X-88.065 A941.22 F1494.7209
N4090 X-88.018 A942.453 F1493.5699
N4095 X-87.97 A943.685 F1494.4124
N4100 X-87.923 A944.916 F1494.3013
N4105 X-87.875 A946.148 F1494.3
N4110 X-87.828 A947.382 F1491.8116
N4115 X-87.78 A948.614 F1494.2702
N4120 X-87.733 A949.845 F1494.267
N4125 X-87.685 A951.079 F1492.3135
N4130 X-87.65 A952.003 F1992.2498
N4135 X-87.614 A952.927 F1992.2518
N4140 X-87.578 A953.85 F1992.249
N4145 X-87.542 A954.774 F1992.2444
N4150 X-87.495 A956.008 F1492.0584
N4155 X-87.447 A957.239 F1494.6264
N4160 X-87.4 A958.47 F1496.1254
N4165 X-87.352 A959.702 F1494.1701
N4170 X-87.304 A960.933 F1494.6257
N4175 X-87.256 A962.163 F1496.6814
N4180 X-87.209 A963.395 F1493.6516
N4185 X-87.161 A964.625 F1496.6821
N4190 X-87.113 A965.857 F1493.8945
N4195 X-87.065 A967.087 F1496.3555
N4200 X-87.018 A968.319 F1493.8949
N4205 X-86.97 A969.549 F1496.4857
N4210 X-86.922 A970.781 F1494.1388
N4215 X-86.874 A972.012 F1494.1391
N4220 X-86.826 A973.244 F1494.2682
N4225 X-86.778 A974.474 F1496.3402
N4230 X-86.73 A975.706 F1493.748
N4235 X-86.682 A976.94 F1492.253
N4240 X-86.646 A977.864 F1992.1636
N4245 X-86.61 A978.788 F1992.166
N4250 X-86.574 A979.711 F1992.1609
N4255 X-86.538 A980.635 F1992.164
N4260 X-86.49 A981.869 F1491.7343
N4265 X-86.442 A983.101 F1494.5775
N4270 X-86.394 A984.332 F1494.3022
N4275 X-86.346 A985.566 F1491.7176
N4280 X-86.298 A986.798 F1494.2374
N4285 X-86.25 A988.03 F1494.3009
N4290 X-86.202 A989.261 F1494.2862
N4295 X-86.154 A990.493 F1493.8462
N4300 X-86.105 A991.725 F1494.1558
N4305 X-86.057 A992.957 F1494.1558
N4310 X-86.009 A994.188 F1494.4803
N4315 X-85.961 A995.418 F1496.6665
N4320 X-85.913 A996.65 F1493.4413
N4325 X-85.864 A997.88 F1496.6657
N4330 X-85.816 A999.112 F1493.8161
N4335 X-85.768 A1000.342 F1496.275
N4340 X-85.719 A1001.574 F1494.2027
N4345 X-85.671 A1002.804 F1496.521
N4350 X-85.623 A1004.036 F1493.7983
N4355 X-85.574 A1005.266 F1496.2591
N4360 X-85.526 A1006.498 F1493.6691
N4365 X-85.477 A1007.73 F1493.9282
N4370 X-85.429 A1008.962 F1494.3185
N4375 X-85.38 A1010.193 F1494.1083
N4380 X-85.332 A1011.425 F1494.106
N4385 X-85.283 A1012.659 F1491.7185
N4390 X-85.235 A1013.891 F1494.1714
N4395 X-85.186 A1015.122 F1494.173
N4400 X-85.138 A1016.354 F1494.2884
N4405 X-85.089 A1017.588 F1491.7014
N4410 X-85.041 A1018.82 F1494.0245
N4415 X-84.992 A1020.051 F1494.0268
N4420 X-84.943 A1021.285 F1491.9628
N4425 X-84.895 A1022.517 F1494.2061
N4430 X-84.846 A1023.748 F1494.2042
N4435 X-84.797 A1024.98 F1493.8933
N4440 X-84.749 A1026.212 F1494.5144
N4445 X-84.7 A1027.442 F1495.8225
N4450 X-84.651 A1028.674 F1493.8791
N4455 X-84.603 A1029.906 F1494.3841
N4460 X-84.554 A1031.136 F1496.3212
N4465 X-84.505 A1032.368 F1493.7345
N4470 X-84.456 A1033.598 F1496.1967
N4475 X-84.407 A1034.828 F1496.1913
N4480 X-84.358 A1036.059 F1493.9767
N4485 X-84.31 A1037.291 F1494.1097
N4490 X-84.261 A1038.521 F1496.1765
N4495 X-84.212 A1039.753 F1493.4552
N4500 X-84.163 A1040.985 F1494.2378
N4505 X-84.102 A1042.525 F1195.1707
N4510 X-84.04 A1044.065 F1195.1685
N4515 X-83.979 A1045.605 F1195.1699
N4520 X-83.918 A1047.144 F1195.1675
N4525 X-83.869 A1048.378 F1491.7688
N4530 X-83.82 A1049.61 F1494.1386
N4535 X-83.771 A1050.841 F1494.1402
N4540 X-83.722 A1052.075 F1491.6201
N4545 X-83.672 A1053.307 F1494.3339
N4550 X-83.623 A1054.538 F1494.1891
N4555 X-83.574 A1055.77 F1493.5534
N4560 X-83.537 A1056.694 F1992.0825
N4565 X-83.5 A1057.618 F1992.0751
N4570 X-83.464 A1058.542 F1992.0785
N4575 X-83.427 A1059.466 F1992.0805
N4580 X-83.377 A1060.697 F1494.0401
N4585 X-83.328 A1061.929 F1493.7985
N4590 X-83.279 A1063.159 F1496.5028
N4595 X-83.23 A1064.391 F1493.6524
N4600 X-83.18 A1065.621 F1496.1114
N4605 X-83.131 A1066.853 F1493.9126
N4610 X-83.082 A1068.083 F1496.487
N4615 X-83.032 A1069.315 F1493.3752
N4620 X-82.983 A1070.545 F1495.8516
N4625 X-82.933 A1071.777 F1494.2851
N4630 X-82.884 A1073.008 F1494.1389
N4635 X-82.835 A1074.239 F1495.834
N4640 X-82.785 A1075.47 F1493.8141
N4645 X-82.736 A1076.702 F1493.814
N4650 X-82.686 A1077.936 F1491.5556
N4655 X-82.637 A1079.168 F1494.0092
N4660 X-82.587 A1080.4 F1494.0103
N4665 X-82.537 A1081.631 F1494.1219
N4670 X-82.488 A1082.865 F1491.2807
N4675 X-82.438 A1084.097 F1494.2672
N4680 X-82.389 A1085.328 F1494.3669
N4685 X-82.339 A1086.562 F1490.8924
N4690 X-82.289 A1087.794 F1494.252
N4695 X-82.24 A1089.026 F1493.9119
N4700 X-82.19 A1090.258 F1493.9107
N4705 X-82.14 A1091.489 F1493.9103
N4710 X-82.091 A1092.721 F1493.9121
N4715 X-82.041 A1093.953 F1494.0883
N4720 X-81.991 A1095.185 F1493.7152
N4725 X-81.941 A1096.414 F1496.4189
N4730 X-81.892 A1097.646 F1493.8313
N4735 X-81.842 A1098.876 F1496.2737
N4740 X-81.792 A1100.108 F1493.3076
N4745 X-81.742 A1101.338 F1496.4032
N4750 X-81.692 A1102.57 F1493.1815
N4755 X-81.642 A1103.8 F1496.4025
N4760 X-81.592 A1105.032 F1493.8127
N4765 X-81.542 A1106.262 F1496.3857
N4770 X-81.493 A1107.494 F1493.0345
N4775 X-81.443 A1108.726 F1493.7961
N4780 X-81.393 A1109.958 F1493.7941
N4785 X-81.343 A1111.19 F1493.796
N4790 X-81.293 A1112.421 F1493.7967
N4795 X-81.242 A1113.655 F1491.718
N4800 X-81.192 A1114.887 F1493.9271
N4805 X-81.142 A1116.119 F1493.8416
N4810 X-81.092 A1117.35 F1493.8469
N4815 X-81.042 A1118.584 F1491.695
N4820 X-80.992 A1119.816 F1493.7817
N4825 X-80.942 A1121.047 F1494.0233
N4830 X-80.892 A1122.281 F1491.0665
N4835 X-80.841 A1123.513 F1494.0898
N4840 X-80.791 A1124.745 F1494.0868
N4845 X-80.741 A1125.976 F1494.0072
N4850 X-80.691 A1127.208 F1493.6283
N4855 X-80.641 A1128.438 F1496.3391
N4860 X-80.59 A1129.67 F1493.2272
N4865 X-80.54 A1130.902 F1493.8752
N4870 X-80.49 A1132.132 F1496.3365
N4875 X-80.439 A1133.361 F1496.0582
N4880 X-80.389 A1134.594 F1493.2098
N4885 X-80.339 A1135.824 F1495.6855
N4890 X-80.288 A1137.055 F1494.249
N4895 X-80.238 A1138.285 F1496.3012
N4900 X-80.187 A1139.518 F1492.9498
N4905 X-80.124 A1141.057 F1195.0122
N4910 X-80.061 A1142.597 F1195.0108
N4915 X-79.998 A1144.137 F1195.0121
N4920 X-79.935 A1145.677 F1195.0097
N4925 X-79.884 A1146.908 F1493.8282
N4930 X-79.834 A1148.141 F1493.1904
N4935 X-79.783 A1149.374 F1491.7629
N4940 X-79.732 A1150.605 F1494.2152
N4945 X-79.682 A1151.837 F1493.8082
N4950 X-79.631 A1153.071 F1490.9862
N4955 X-79.58 A1154.303 F1493.8082
N4960 X-79.53 A1155.535 F1493.8091
N4965 X-79.479 A1156.766 F1493.8072
N4970 X-79.428 A1157.998 F1493.809
N4975 X-79.378 A1159.23 F1493.9209
N4980 X-79.327 A1160.462 F1493.2895
N4985 X-79.276 A1161.694 F1493.8566
N4990 X-79.225 A1162.925 F1493.8568
N4995 X-79.175 A1164.155 F1495.9894
N5000 X-79.124 A1165.387 F1493.6456
N5005 X-79.073 A1166.617 F1495.7292
N5010 X-79.022 A1167.849 F1493.7756
N5015 X-78.971 A1169.079 F1495.974
N5020 X-78.92 A1170.311 F1493.3843
N5025 X-78.869 A1171.541 F1495.9742
N5030 X-78.818 A1172.773 F1493.6283
N5035 X-78.767 A1174.005 F1493.5143
N5040 X-78.716 A1175.234 F1496.0873
N5045 X-78.665 A1176.466 F1493.4971
N5050 X-78.614 A1177.698 F1493.7419
N5055 X-78.563 A1178.93 F1493.1079
N5060 X-78.512 A1180.164 F1491.6772
N5065 X-78.461 A1181.396 F1493.6767
N5070 X-78.41 A1182.627 F1493.676
N5075 X-78.359 A1183.861 F1491.1591
N5080 X-78.308 A1185.093 F1494.1283
N5085 X-78.257 A1186.324 F1493.7244
N5090 X-78.205 A1187.558 F1491.014
N5095 X-78.154 A1188.79 F1494.0005
N5100 X-78.103 A1190.021 F1494.0964
N5105 X-78.052 A1191.254 F1492.9448
N5110 X-78.001 A1192.486 F1493.7233
N5115 X-77.949 A1193.717 F1493.7711
N5120 X-77.898 A1194.949 F1493.7724
N5125 X-77.847 A1196.179 F1495.9036
N5130 X-77.795 A1197.411 F1493.3184
N5135 X-77.744 A1198.642 F1494.0798
N5140 X-77.693 A1199.872 F1495.7567
N5145 X-77.641 A1201.105 F1493.0558
N5150 X-77.59 A1202.334 F1496.4101
N5155 X-77.538 A1203.564 F1495.8714
N5160 X-77.487 A1204.796 F1492.781
N5165 X-77.436 A1206.028 F1493.6739
N5170 X-77.384 A1207.258 F1495.6262
N5175 X-77.333 A1208.49 F1493.5414
N5180 X-77.281 A1209.722 F1493.6743
N5185 X-77.23 A1210.954 F1493.7879
N5190 X-77.178 A1212.186 F1493.1482
N5195 X-77.126 A1213.417 F1493.7855
N5200 X-77.075 A1214.651 F1491.0776
N5205 X-77.023 A1215.883 F1493.6518
N5210 X-76.972 A1217.115 F1493.7867
N5215 X-76.92 A1218.346 F1493.7684
N5220 X-76.868 A1219.58 F1490.8149
N5225 X-76.817 A1220.812 F1493.704
N5230 X-76.765 A1222.044 F1493.7034
N5235 X-76.713 A1223.277 F1491.4273
N5240 X-76.662 A1224.509 F1493.6378
N5245 X-76.61 A1225.741 F1493.6217
N5250 X-76.558 A1226.973 F1493.1178
N5255 X-76.506 A1228.204 F1494.01
N5260 X-76.454 A1229.434 F1495.8168
N5265 X-76.403 A1230.666 F1493.4741
N5270 X-76.351 A1231.896 F1495.4295
N5275 X-76.299 A1233.128 F1493.733
N5280 X-76.247 A1234.358 F1495.8015
N5285 X-76.195 A1235.59 F1493.0857
N5290 X-76.143 A1236.82 F1495.8016
N5295 X-76.091 A1238.051 F1493.716
N5300 X-76.039 A1239.281 F1495.7831
N5305 X-75.987 A1240.514 F1492.5646
N5310 X-75.935 A1241.745 F1493.9774
N5315 X-75.883 A1242.977 F1493.6986
N5320 X-75.831 A1244.209 F1493.0666
N5325 X-75.779 A1245.441 F1493.4393
N5330 X-75.727 A1246.673 F1493.4379
N5335 X-75.675 A1247.905 F1493.438
N5340 X-75.623 A1249.137 F1493.4405
N5345 X-75.571 A1250.37 F1491.3755
N5350 X-75.519 A1251.602 F1493.8129
N5355 X-75.466 A1252.834 F1492.9182
N5360 X-75.414 A1254.067 F1491.4901
N5365 X-75.362 A1255.299 F1493.9394
N5370 X-75.31 A1256.53 F1493.5357
N5375 X-75.258 A1257.763 F1493.1603
N5380 X-75.205 A1258.994 F1493.4037
N5385 X-75.153 A1260.226 F1493.405
N5390 X-75.101 A1261.458 F1493.4037
N5395 X-75.048 A1262.69 F1493.4038
N5400 X-74.996 A1263.921 F1493.7948
N5405 X-74.944 A1265.151 F1495.9751
N5410 X-74.891 A1266.383 F1493.1264
N5415 X-74.839 A1267.613 F1495.5848
N5420 X-74.786 A1268.845 F1493.1268
N5425 X-74.734 A1270.075 F1495.7151
N5430 X-74.682 A1271.307 F1493.628
N5435 X-74.629 A1272.537 F1495.5668
N5440 X-74.577 A1273.769 F1492.8504
N5445 X-74.524 A1275.001 F1493.4989
N5450 X-74.472 A1276.231 F1495.8268
N5455 X-74.419 A1277.462 F1493.3508
N5460 X-74.366 A1278.695 F1492.9817
N5465 X-74.314 A1279.926 F1493.4808
N5470 X-74.261 A1281.16 F1491.033
N5475 X-74.209 A1282.392 F1493.7412
N5480 X-74.156 A1283.623 F1493.5927
N5485 X-74.103 A1284.857 F1490.7542
N5490 X-74.051 A1286.089 F1493.3517
N5495 X-73.998 A1287.321 F1493.5937
N5500 X-73.945 A1288.554 F1491.2576
N5505 X-73.893 A1289.786 F1493.0725
N5510 X-73.84 A1291.018 F1493.5944
N5515 X-73.8 A1291.942 F1991.261
N5520 X-73.761 A1292.866 F1991.2644
N5525 X-73.721 A1293.789 F1991.261
N5530 X-73.681 A1294.713 F1991.2642
N5535 X-73.629 A1295.945 F1493.558
N5540 X-73.576 A1297.175 F1495.2528
N5545 X-73.523 A1298.407 F1493.2993
N5550 X-73.47 A1299.639 F1493.4282
N5555 X-73.417 A1300.869 F1495.4964
N5560 X-73.364 A1302.099 F1495.4979
N5565 X-73.311 A1303.331 F1493.2978
N5570 X-73.258 A1304.56 F1495.8702
N5575 X-73.205 A1305.793 F1492.6313
N5580 X-73.152 A1307.024 F1493.54
N5585 X-73.099 A1308.254 F1495.6118
N5590 X-73.046 A1309.486 F1493.2598
N5595 X-72.993 A1310.718 F1492.8926
N5600 X-72.953 A1311.642 F1991.0206
N5605 X-72.914 A1312.566 F1991.0161
N5610 X-72.874 A1313.49 F1991.0211
N5615 X-72.834 A1314.414 F1991.0191
N5620 X-72.781 A1315.647 F1491.203
N5625 X-72.728 A1316.879 F1493.4391
N5630 X-72.674 A1318.111 F1493.4399
N5635 X-72.621 A1319.343 F1492.615
N5640 X-72.568 A1320.576 F1491.7053
N5645 X-72.515 A1321.808 F1493.7465
N5650 X-72.462 A1323.04 F1492.5974
N5655 X-72.408 A1324.273 F1491.297
N5660 X-72.355 A1325.505 F1493.2943
N5665 X-72.302 A1326.737 F1493.2916
N5670 X-72.248 A1327.969 F1493.3595
N5675 X-72.195 A1329.199 F1495.5548
N5680 X-72.142 A1330.43 F1493.211
N5685 X-72.088 A1331.662 F1493.34
N5690 X-72.035 A1332.892 F1495.5382
N5695 X-71.982 A1334.124 F1492.9477
N5700 X-71.928 A1335.354 F1495.5387
N5705 X-71.875 A1336.586 F1493.1934
N5710 X-71.821 A1337.816 F1495.1466
N5715 X-71.768 A1339.048 F1493.4524
N5720 X-71.714 A1340.278 F1495.5196
N5725 X-71.661 A1341.51 F1493.1753
N5730 X-71.607 A1342.742 F1492.8031
N5735 X-71.54 A1344.281 F1194.5816
N5740 X-71.473 A1345.821 F1194.5818
N5745 X-71.406 A1347.361 F1194.5815
N5750 X-71.339 A1348.901 F1194.5815
N5755 X-71.286 A1350.132 F1493.4153
N5760 X-71.232 A1351.366 F1490.7091
N5765 X-71.178 A1352.598 F1493.1574
N5770 X-71.124 A1353.83 F1493.1571
N5775 X-71.071 A1355.063 F1491.0967
N5780 X-71.017 A1356.295 F1493.6571
N5785 X-70.963 A1357.527 F1492.7681
N5790 X-70.909 A1358.759 F1493.334
N5795 X-70.856 A1359.99 F1493.3347
N5800 X-70.802 A1361.222 F1493.3812
N5805 X-70.748 A1362.454 F1492.7485
N5810 X-70.694 A1363.686 F1493.3156
N5815 X-70.64 A1364.918 F1493.3156
N5820 X-70.586 A1366.147 F1495.4485
N5825 X-70.532 A1367.38 F1492.7324
N5830 X-70.479 A1368.609 F1495.7077
N5835 X-70.425 A1369.839 F1495.4313
N5840 X-70.37 A1371.071 F1492.8439
N5845 X-70.317 A1372.301 F1495.4282
N5850 X-70.262 A1373.534 F1492.4544
N5855 X-70.209 A1374.765 F1493.6245
N5860 X-70.154 A1375.995 F1495.6703
N5865 X-70.1 A1377.227 F1492.1951
N5870 X-70.046 A1378.459 F1493.3455
N5875 X-69.992 A1379.691 F1493.347
N5880 X-69.938 A1380.922 F1493.3238
N5885 X-69.884 A1382.156 F1490.3798
N5890 X-69.83 A1383.388 F1493.2598
N5895 X-69.776 A1384.62 F1493.2633
N5900 X-69.721 A1385.853 F1490.6204
N5905 X-69.667 A1387.085 F1493.1298
N5910 X-69.613 A1388.317 F1493.1316
N5915 X-69.559 A1389.551 F1491.118
N5920 X-69.518 A1390.474 F1990.7336
N5925 X-69.477 A1391.398 F1990.7381
N5930 X-69.436 A1392.322 F1990.7276
N5935 X-69.396 A1393.246 F1990.7391
N5940 X-69.341 A1394.478 F1493.305
N5945 X-69.287 A1395.709 F1493.227
N5950 X-69.233 A1396.941 F1493.2248
N5955 X-69.178 A1398.171 F1495.3583
N5960 X-69.124 A1399.403 F1492.6433
N5965 X-69.069 A1400.633 F1495.3569
N5970 X-69.015 A1401.865 F1493.03
N5975 X-68.961 A1403.095 F1495.598
N5980 X-68.906 A1404.327 F1492.7519
N5985 X-68.852 A1405.557 F1495.2091
N5990 X-68.797 A1406.788 F1493.0133
N5995 X-68.743 A1408.018 F1495.5826
N6000 X-68.688 A1409.251 F1492.2339
N6005 X-68.647 A1410.174 F1990.7774
N6010 X-68.606 A1411.098 F1990.7771
N6015 X-68.565 A1412.022 F1990.7741
N6020 X-68.524 A1412.946 F1990.7752
N6025 X-68.47 A1414.178 F1493.2371
N6030 X-68.415 A1415.41 F1492.4742
N6035 X-68.36 A1416.643 F1491.0459
N6040 X-68.319 A1417.567 F1990.6359
N6045 X-68.278 A1418.491 F1990.6355
N6050 X-68.237 A1419.415 F1990.6357
N6055 X-68.196 A1420.339 F1990.6351
N6060 X-68.141 A1421.572 F1491.1587
N6065 X-68.087 A1422.804 F1493.0871
N6070 X-68.032 A1424.036 F1492.3301
N6075 X-67.977 A1425.269 F1491.4151
N6080 X-67.922 A1426.501 F1493.459
N6085 X-67.867 A1427.733 F1492.5692
N6090 X-67.813 A1428.965 F1493.3311
N6095 X-67.758 A1430.194 F1495.2657
N6100 X-67.703 A1431.427 F1492.4209
N6105 X-67.648 A1432.658 F1493.07
N6110 X-67.593 A1433.888 F1495.2669
N6115 X-67.538 A1435.12 F1492.9211
N6120 X-67.483 A1436.35 F1494.8761
N6125 X-67.428 A1437.582 F1493.4413
N6130 X-67.373 A1438.812 F1495.4892
N6135 X-67.318 A1440.044 F1492.0137
N6140 X-67.263 A1441.274 F1495.2485
N6145 X-67.222 A1442.198 F1990.4794
N6150 X-67.18 A1443.122 F1990.4814
N6155 X-67.139 A1444.046 F1990.4811
N6160 X-67.098 A1444.97 F1990.4795
N6165 X-67.043 A1446.201 F1493.1622
N6170 X-66.987 A1447.433 F1493.1462
N6175 X-66.932 A1448.665 F1492.5139
N6180 X-66.877 A1449.897 F1492.9486
N6185 X-66.822 A1451.129 F1492.9512
N6190 X-66.767 A1452.362 F1490.8252
N6195 X-66.711 A1453.594 F1493.257
N6200 X-66.656 A1454.826 F1492.2368
N6205 X-66.601 A1456.059 F1491.0664
N6210 X-66.546 A1457.291 F1492.8671
N6215 X-66.49 A1458.523 F1492.8661
N6220 X-66.435 A1459.755 F1493.1267
N6225 X-66.38 A1460.987 F1492.9135
N6230 X-66.324 A1462.218 F1492.9143
N6235 X-66.269 A1463.45 F1492.9146
N6240 X-66.213 A1464.682 F1492.9132
N6245 X-66.158 A1465.912 F1495.1725
N6250 X-66.103 A1467.144 F1492.8475
N6255 X-66.047 A1468.373 F1495.4171
N6260 X-65.992 A1469.606 F1492.4403
N6265 X-65.936 A1470.835 F1495.1555
N6270 X-65.881 A1472.068 F1492.4393
N6275 X-65.825 A1473.297 F1495.2854
N6280 X-65.77 A1474.529 F1492.8133
N6285 X-65.714 A1475.761 F1492.9399
N6290 X-65.658 A1476.991 F1495.0082
N6295 X-65.603 A1478.223 F1492.2918
N6300 X-65.547 A1479.455 F1493.0722
N6305 X-65.491 A1480.687 F1493.0522
N6310 X-65.436 A1481.919 F1492.1638
N6315 X-65.38 A1483.152 F1490.8631
N6320 X-65.324 A1484.384 F1493.3094
N6325 X-65.269 A1485.615 F1493.0359
N6330 X-65.213 A1486.85 F1490.0846
N6335 X-65.157 A1488.081 F1492.9726
N6340 X-65.101 A1489.313 F1492.9659
N6345 X-65.046 A1490.547 F1490.3276
N6350 X-64.99 A1491.779 F1492.9072
N6355 X-64.934 A1493.01 F1493.0299
N6360 X-64.892 A1493.934 F1990.4631
N6365 X-64.85 A1494.858 F1990.4523
N6370 X-64.808 A1495.782 F1990.4599
N6375 X-64.766 A1496.705 F1990.4589
N6380 X-64.71 A1497.935 F1495.0791
N6385 X-64.655 A1499.167 F1492.4953
N6390 X-64.599 A1500.399 F1492.9992
N6395 X-64.543 A1501.629 F1494.6896
N6400 X-64.487 A1502.861 F1492.9972
N6405 X-64.431 A1504.091 F1495.062
N6410 X-64.375 A1505.323 F1492.7195
N6415 X-64.319 A1506.553 F1494.6696
N6420 X-64.262 A1507.785 F1492.72
N6425 X-64.206 A1509.015 F1495.0617
N6430 X-64.15 A1510.246 F1492.9594
N6435 X-64.094 A1511.479 F1492.0698
N6440 X-64.038 A1512.71 F1492.8494
N6445 X-63.982 A1513.942 F1492.9582
N6450 X-63.926 A1515.174 F1492.3308
N6455 X-63.87 A1516.406 F1493.0883
N6460 X-63.813 A1517.639 F1490.4934
N6465 X-63.757 A1518.871 F1492.5702
N6470 X-63.701 A1520.103 F1492.5718
N6475 X-63.645 A1521.337 F1490.8807
N6480 X-63.588 A1522.568 F1492.8118
N6485 X-63.532 A1523.8 F1492.9398
N6490 X-63.476 A1525.032 F1492.9222
N6495 X-63.419 A1526.264 F1492.0325
N6500 X-63.363 A1527.498 F1490.4753
N6505 X-63.307 A1528.729 F1493.3301
N6510 X-63.25 A1529.958 F1495.6188
N6515 X-63.194 A1531.191 F1491.4959
N6520 X-63.137 A1532.423 F1493.0523
N6525 X-63.081 A1533.652 F1495.2285
N6530 X-63.024 A1534.884 F1492.3841
N6535 X-62.968 A1536.114 F1494.9681
N6540 X-62.911 A1537.347 F1492.2544
N6545 X-62.855 A1538.576 F1494.9687
N6550 X-62.798 A1539.808 F1492.6245
N6555 X-62.742 A1541.038 F1494.7081
N6560 X-62.685 A1542.27 F1492.496
N6565 X-62.629 A1543.502 F1492.8847
N6570 X-62.572 A1544.734 F1492.8654
N6575 X-62.515 A1545.966 F1492.2358
N6580 X-62.444 A1547.506 F1194.0846
N6585 X-62.374 A1549.045 F1194.0851
N6590 X-62.303 A1550.585 F1194.0851
N6595 X-62.232 A1552.125 F1194.0842
N6600 X-62.175 A1553.358 F1490.659
N6605 X-62.118 A1554.59 F1492.6509
N6610 X-62.061 A1555.822 F1492.6547
N6615 X-62.005 A1557.056 F1490.139
N6620 X-61.948 A1558.287 F1493.1071
N6625 X-61.891 A1559.519 F1492.8255
N6630 X-61.834 A1560.751 F1492.199
N6635 X-61.777 A1561.982 F1493.0866
N6640 X-61.72 A1563.214 F1492.6836
N6645 X-61.663 A1564.447 F1491.9167
N6650 X-61.606 A1565.678 F1493.0894
N6655 X-61.549 A1566.908 F1495.1356
N6660 X-61.492 A1568.14 F1492.1573
N6665 X-61.435 A1569.37 F1494.8738
N6670 X-61.378 A1570.602 F1492.5506
N6675 X-61.321 A1571.831 F1495.1119
N6680 X-61.264 A1573.064 F1491.9022
N6685 X-61.207 A1574.293 F1495.1164
N6690 X-61.15 A1575.525 F1492.2675
N6695 X-61.093 A1576.755 F1494.8582
N6700 X-61.036 A1577.987 F1492.5106
N6705 X-60.979 A1579.219 F1492.1404
N6710 X-60.936 A1580.143 F1990.0706
N6715 X-60.893 A1581.067 F1990.0766
N6720 X-60.85 A1581.991 F1990.0687
N6725 X-60.807 A1582.915 F1990.0772
N6730 X-60.75 A1584.148 F1490.324
N6735 X-60.693 A1585.38 F1493.0115
N6740 X-60.636 A1586.612 F1491.8614
N6745 X-60.578 A1587.846 F1490.5676
N6750 X-60.521 A1589.077 F1493.0089
N6755 X-60.464 A1590.309 F1492.7322
N6760 X-60.406 A1591.543 F1489.6587
N6765 X-60.349 A1592.774 F1492.9929
N6770 X-60.292 A1594.007 F1492.1037
N6775 X-60.234 A1595.238 F1492.9931
N6780 X-60.177 A1596.47 F1492.7115
N6785 X-60.119 A1597.702 F1492.0861
N6790 X-60.062 A1598.932 F1494.7978
N6795 X-60.004 A1600.163 F1492.7124
N6800 X-59.947 A1601.393 F1494.6497
N6805 X-59.889 A1602.625 F1492.4529
N6810 X-59.832 A1603.855 F1495.019
N6815 X-59.774 A1605.087 F1491.8068
N6820 X-59.717 A1606.317 F1495.0195
N6825 X-59.659 A1607.549 F1492.1743
N6830 X-59.602 A1608.779 F1494.7586
N6835 X-59.544 A1610.011 F1491.7882
N6840 X-59.486 A1611.243 F1492.6928
N6845 X-59.414 A1612.783 F1193.9333
N6850 X-59.342 A1614.323 F1193.9323
N6855 X-59.27 A1615.862 F1193.933
N6860 X-59.198 A1617.402 F1193.9329
N6865 X-59.14 A1618.636 F1490.4688
N6870 X-59.082 A1619.867 F1492.4613
N6875 X-59.024 A1621.099 F1492.462
N6880 X-58.967 A1622.333 F1489.9514
N6885 X-58.909 A1623.564 F1492.9153
N6890 X-58.851 A1624.796 F1492.6369
N6895 X-58.793 A1626.028 F1492.0078
N6900 X-58.735 A1627.26 F1492.5079
N6905 X-58.677 A1628.493 F1490.5784
N6910 X-58.619 A1629.723 F1495.2034
N6915 X-58.561 A1630.955 F1491.47
N6920 X-58.503 A1632.187 F1492.553
N6925 X-58.445 A1633.419 F1492.5518
N6930 X-58.388 A1634.649 F1494.6822
N6935 X-58.33 A1635.881 F1491.9687
N6940 X-58.272 A1637.111 F1494.8101
N6945 X-58.213 A1638.343 F1492.2109
N6950 X-58.155 A1639.573 F1494.4219
N6955 X-58.097 A1640.804 F1492.8564
N6960 X-58.039 A1642.034 F1494.906
N6965 X-57.981 A1643.267 F1491.1688
N6970 X-57.923 A1644.498 F1492.6001
N6975 X-57.865 A1645.73 F1492.3839
N6980 X-57.807 A1646.962 F1492.386
N6985 X-57.748 A1648.194 F1492.3843
N6990 X-57.69 A1649.425 F1492.3847
N6995 X-57.632 A1650.657 F1492.5609
N7000 X-57.574 A1651.889 F1491.6685
N7005 X-57.515 A1653.123 F1490.375
N7010 X-57.457 A1654.354 F1492.8165
N7015 X-57.399 A1655.586 F1492.541
N7020 X-57.34 A1656.818 F1491.6532
N7025 X-57.282 A1658.052 F1490.0955
N7030 X-57.224 A1659.284 F1492.4303
N7035 X-57.165 A1660.515 F1492.5391
N7040 X-57.107 A1661.747 F1492.5394
N7045 X-57.048 A1662.979 F1492.3935
N7050 X-56.99 A1664.211 F1492.023
N7055 X-56.932 A1665.442 F1492.649
N7060 X-56.873 A1666.672 F1494.5835
N7065 X-56.815 A1667.904 F1491.7454
N7070 X-56.756 A1669.136 F1492.6478
N7075 X-56.697 A1670.366 F1494.8263
N7080 X-56.639 A1671.596 F1493.8056
N7085 X-56.58 A1672.828 F1492.4985
N7090 X-56.522 A1674.058 F1494.4358
N7095 X-56.463 A1675.29 F1491.9821
N7100 X-56.404 A1676.522 F1492.4824
N7105 X-56.346 A1677.752 F1494.1765
N7110 X-56.287 A1678.984 F1492.2203
N7115 X-56.228 A1680.215 F1492.223
N7120 X-56.17 A1681.447 F1492.3539
N7125 X-56.111 A1682.679 F1492.4611
N7130 X-56.052 A1683.913 F1489.5185
N7135 X-56.008 A1684.837 F1989.7803
N7140 X-55.964 A1685.761 F1989.7739
N7145 X-55.92 A1686.684 F1989.7756
N7150 X-55.876 A1687.608 F1989.7775
N7155 X-55.817 A1688.842 F1490.0172
N7160 X-55.758 A1690.073 F1492.7028
N7165 X-55.699 A1691.306 F1491.5558
N7170 X-55.64 A1692.539 F1490.2545
N7175 X-55.582 A1693.771 F1492.4443
N7180 X-55.523 A1695.002 F1492.3118
N7185 X-55.464 A1696.234 F1492.4239
N7190 X-55.405 A1697.466 F1492.0541
N7195 X-55.346 A1698.696 F1494.7474
N7200 X-55.287 A1699.928 F1491.6451
N7205 X-55.228 A1701.159 F1492.5535
N7210 X-55.169 A1702.389 F1494.727
N7215 X-55.11 A1703.621 F1491.6442
N7220 X-55.051 A1704.851 F1494.7274
N7225 X-54.992 A1706.083 F1491.7555
N7230 X-54.932 A1707.313 F1494.466
N7235 X-54.873 A1708.545 F1492.1442
N7240 X-54.814 A1709.775 F1494.7075
N7245 X-54.755 A1711.007 F1491.4769
N7250 X-54.696 A1712.239 F1491.7554
N7255 X-54.637 A1713.471 F1492.7723
N7260 X-54.577 A1714.702 F1492.2352
N7265 X-54.518 A1715.934 F1491.7359
N7270 X-54.459 A1717.166 F1492.3646
N7275 X-54.4 A1718.399 F1491.4771
N7280 X-54.34 A1719.632 F1490.5647
N7285 X-54.281 A1720.863 F1492.6046
N7290 X-54.222 A1722.095 F1491.4571
N7295 X-54.162 A1723.329 F1489.8997
N7300 X-54.103 A1724.561 F1492.234
N7305 X-54.044 A1725.792 F1492.3446
N7310 X-53.984 A1727.026 F1489.9002
N7315 X-53.925 A1728.258 F1492.5836
N7320 X-53.865 A1729.49 F1491.6963
N7325 X-53.806 A1730.721 F1492.5867
N7330 X-53.746 A1731.951 F1494.3868
N7335 X-53.687 A1733.183 F1491.4165
N7340 X-53.627 A1734.415 F1492.3239
N7345 X-53.568 A1735.645 F1494.3884
N7350 X-53.508 A1736.877 F1492.1765
N7355 X-53.449 A1738.107 F1494.3665
N7360 X-53.389 A1739.339 F1491.7871
N7365 X-53.329 A1740.569 F1494.3666
N7370 X-53.27 A1741.801 F1491.9163
N7375 X-53.21 A1743.03 F1494.6092
N7380 X-53.15 A1744.262 F1491.5049
N7385 X-53.091 A1745.494 F1492.1595
N7390 X-53.031 A1746.724 F1494.3472
N7395 X-52.971 A1747.956 F1491.7641
N7400 X-52.912 A1749.188 F1492.2667
N7405 X-52.852 A1750.422 F1489.1924
N7410 X-52.807 A1751.346 F1989.5198
N7415 X-52.762 A1752.27 F1989.5102
N7420 X-52.717 A1753.193 F1989.5155
N7425 X-52.673 A1754.117 F1989.5157
N7430 X-52.613 A1755.351 F1490.1878
N7435 X-52.553 A1756.582 F1492.1166
N7440 X-52.493 A1757.814 F1491.6175
N7445 X-52.433 A1759.046 F1492.246
N7450 X-52.373 A1760.28 F1489.9082
N7455 X-52.313 A1761.511 F1492.1155
N7460 X-52.253 A1762.743 F1492.0985
N7465 X-52.193 A1763.975 F1491.7266
N7470 X-52.133 A1765.207 F1492.356
N7475 X-52.073 A1766.437 F1494.2897
N7480 X-52.013 A1767.668 F1491.9439
N7485 X-51.953 A1768.9 F1491.8385
N7490 X-51.893 A1770.13 F1494.2657
N7495 X-51.833 A1771.36 F1494.2681
N7500 X-51.773 A1772.592 F1491.6857
N7505 X-51.713 A1773.822 F1494.2686
N7510 X-51.653 A1775.054 F1491.9255
N7515 X-51.593 A1776.286 F1491.8181
N7520 X-51.532 A1777.516 F1494.5077
N7525 X-51.472 A1778.748 F1491.2795
N7530 X-51.412 A1779.98 F1492.1849
N7535 X-51.352 A1781.211 F1492.1651
N7540 X-51.291 A1782.444 F1491.2788
N7545 X-51.231 A1783.677 F1489.9807
N7550 X-51.186 A1784.601 F1989.2642
N7555 X-51.141 A1785.525 F1989.2672
N7560 X-51.095 A1786.449 F1989.2653
N7565 X-51.05 A1787.373 F1989.2658
N7570 X-50.99 A1788.606 F1489.9617
N7575 X-50.929 A1789.838 F1492.1438
N7580 X-50.869 A1791.072 F1489.4439
N7585 X-50.809 A1792.303 F1491.8863
N7590 X-50.748 A1793.535 F1491.8861
N7595 X-50.688 A1794.767 F1492.1458
N7600 X-50.643 A1795.691 F1989.2125
N7605 X-50.597 A1796.615 F1989.213
N7610 X-50.552 A1797.538 F1989.2125
N7615 X-50.506 A1798.462 F1989.2124
N7620 X-50.446 A1799.694 F1492.3849
N7625 X-50.385 A1800.923 F1494.4277
N7630 X-50.325 A1802.156 F1491.2185
N7635 X-50.264 A1803.385 F1494.4278
N7640 X-50.204 A1804.618 F1491.4571
N7645 X-50.143 A1805.848 F1494.0374
N7650 X-50.082 A1807.078 F1494.0363
N7655 X-50.022 A1808.309 F1492.0851
N7660 X-49.961 A1809.539 F1494.1474
N7665 X-49.9 A1810.772 F1491.1776
N7670 X-49.84 A1812.003 F1491.7618
N7675 X-49.779 A1813.235 F1491.7614
N7680 X-49.718 A1814.467 F1492.0854
N7685 X-49.657 A1815.699 F1491.8043
N7690 X-49.597 A1816.931 F1491.806
N7695 X-49.536 A1818.163 F1491.8075
N7700 X-49.475 A1819.394 F1491.8063
N7705 X-49.414 A1820.628 F1489.7292
N7710 X-49.353 A1821.86 F1491.9373
N7715 X-49.292 A1823.091 F1491.9144
N7720 X-49.232 A1824.325 F1489.4713
N7725 X-49.171 A1825.557 F1491.9157
N7730 X-49.11 A1826.789 F1492.0442
N7735 X-49.049 A1828.02 F1491.8971
N7740 X-48.988 A1829.254 F1489.3216
N7745 X-48.927 A1830.486 F1492.0243
N7750 X-48.866 A1831.717 F1491.8948
N7755 X-48.805 A1832.947 F1494.0893
N7760 X-48.744 A1834.179 F1491.7442
N7765 X-48.683 A1835.411 F1491.6358
N7770 X-48.622 A1836.641 F1494.3257
N7775 X-48.561 A1837.873 F1491.4844
N7780 X-48.499 A1839.103 F1494.3257
N7785 X-48.438 A1840.333 F1494.046
N7790 X-48.377 A1841.565 F1491.0954
N7795 X-48.316 A1842.795 F1494.3073
N7800 X-48.255 A1844.027 F1491.2062
N7805 X-48.194 A1845.262 F1487.7503
N7810 X-48.132 A1846.489 F1497.1352
N7815 X-48.071 A1847.718 F1495.5931
N7820 X-48.01 A1848.946 F1496.0249
N7825 X-47.949 A1850.175 F1496.0242
N7830 X-47.948 A1850.179 F429102.4148
N7835 X-47.887 A1851.423 F1477.4572
N7840 X-47.826 A1852.649 F1498.8344
N7845 X-47.765 A1853.877 F1496.0077
N7850 X-47.703 A1855.105 F1496.0038
N7855 A1855.11 F381404.3719
N7860 X-47.642 A1856.353 F1477.8396
N7865 X-47.58 A1857.579 F1498.9458
N7870 X-47.519 A1858.807 F1496.179
N7875 X-47.458 A1860.036 F1495.2901
N7880 X-47.457 A1860.04 F476475.9885
N7885 X-47.396 A1861.284 F1477.4174
N7890 X-47.334 A1862.512 F1496.4746
N7895 X-47.273 A1863.74 F1496.4753
N7900 X-47.212 A1864.968 F1496.4743
N7905 X-47.15 A1866.195 F1496.4753
N7910 A1866.199 F490063.6443
N7915 X-47.088 A1867.443 F1477.3972
N7920 X-47.027 A1868.669 F1498.383
N7925 X-46.965 A1869.898 F1495.9185
N7930 X-46.904 A1871.125 F1496.4012
N7935 X-46.842 A1872.354 F1495.1172
N7940 X-46.78 A1873.583 F1495.7694
N7945 A1873.587 F490167.9373
N7950 X-46.719 A1874.83 F1477.3772
N7955 X-46.672 A1875.751 F1995.6654
N7960 X-46.626 A1876.672 F1995.6675
N7965 X-46.58 A1877.592 F1995.664
N7970 X-46.534 A1878.513 F1995.6648
N7975 X-46.472 A1879.741 F1496.1198
N7980 X-46.41 A1880.97 F1495.0958
N7985 A1880.974 F490167.1206
N7990 X-46.348 A1882.218 F1477.3581
N7995 X-46.287 A1883.445 F1497.2279
N8000 X-46.225 A1884.672 F1497.2298
N8005 X-46.163 A1885.9 F1495.9688
N8010 X-46.101 A1887.129 F1495.2058
N8015 A1887.133 F476492.5109
N8020 X-46.039 A1888.377 F1477.4649
N8025 X-45.977 A1889.604 F1497.1434
N8030 X-45.915 A1890.831 F1497.1434
N8035 X-45.854 A1892.059 F1496.0777
N8040 X-45.853 A1892.064 F389779.1863
N8045 X-45.791 A1893.308 F1477.7194
N8050 X-45.73 A1894.535 F1496.4046
N8055 X-45.668 A1895.763 F1496.404
N8060 X-45.606 A1896.991 F1496.4047
N8065 X-45.544 A1898.219 F1496.4036
N8070 X-45.543 A1898.223 F476576.8023
N8075 X-45.481 A1899.467 F1477.1703
N8080 X-45.42 A1900.693 F1498.4293
N8085 X-45.373 A1901.614 F1994.5098
N8090 X-45.326 A1902.535 F1994.5114
N8095 X-45.28 A1903.456 F1994.5124
N8100 X-45.233 A1904.378 F1994.5102
N8105 X-45.171 A1905.606 F1496.035
N8110 A1905.611 F373008.3383
N8115 X-45.109 A1906.854 F1477.6788
N8120 X-45.062 A1907.775 F1995.6436
N8125 X-45.016 A1908.695 F1995.6438
N8130 X-44.969 A1909.616 F1995.6428
N8135 X-44.922 A1910.537 F1995.643
N8140 X-44.86 A1911.765 F1496.0154
N8145 X-44.798 A1912.993 F1495.2547
N8150 X-44.736 A1914.222 F1496.0155
N8155 X-44.735 A1914.226 F428621.7304
N8160 X-44.673 A1915.47 F1477.3871
N8165 X-44.611 A1916.697 F1497.0598
N8170 X-44.549 A1917.924 F1497.0618
N8175 X-44.486 A1919.152 F1495.992
N8180 X-44.424 A1920.381 F1494.9723
N8185 A1920.385 F476557.5203
N8190 X-44.361 A1921.629 F1477.3648
N8195 X-44.299 A1922.856 F1497.1676
N8200 X-44.237 A1924.083 F1497.1695
N8205 X-44.174 A1925.311 F1495.7127
N8210 A1925.316 F389923.8792
N8215 X-44.112 A1926.559 F1477.6206
N8220 X-44.065 A1927.48 F1995.4426
N8225 X-44.018 A1928.401 F1995.4428
N8230 X-43.971 A1929.322 F1995.4423
N8235 X-43.924 A1930.242 F1995.4447
N8240 A1930.246 F476514.412
N8245 X-43.862 A1931.49 F1476.818
N8250 X-43.799 A1932.716 F1498.3229
N8255 X-43.737 A1933.945 F1495.6946
N8260 X-43.674 A1935.173 F1495.6904
N8265 X-43.612 A1936.401 F1495.6913
N8270 X-43.549 A1937.63 F1495.6922
N8275 A1937.634 F476318.5051
N8280 X-43.486 A1938.877 F1477.3079
N8285 X-43.424 A1940.104 F1498.0217
N8290 X-43.361 A1941.332 F1495.4274
N8295 X-43.298 A1942.56 F1496.1956
N8300 X-43.236 A1943.788 F1495.6496
N8305 X-43.173 A1945.017 F1495.41
N8310 X-43.11 A1946.245 F1495.9096
N8315 A1946.249 F408464.1174
N8320 X-43.047 A1947.493 F1477.2844
N8325 X-43. A1948.414 F1995.3593
N8330 X-42.953 A1949.335 F1995.3615
N8335 X-42.906 A1950.255 F1995.3595
N8340 X-42.859 A1951.176 F1995.3594
N8345 X-42.796 A1952.404 F1495.8893
N8350 A1952.409 F372888.6929
N8355 X-42.733 A1953.653 F1477.5404
N8360 X-42.67 A1954.878 F1499.0252
N8365 X-42.607 A1956.106 F1495.6091
N8370 X-42.544 A1957.335 F1495.1057
N8375 A1957.34 F408381.3043
N8380 X-42.481 A1958.583 F1477.5197
N8385 X-42.418 A1959.811 F1496.2609
N8390 X-42.355 A1961.039 F1496.2589
N8395 X-42.292 A1962.266 F1496.2612
N8400 X-42.229 A1963.494 F1496.2594
N8405 A1963.498 F476411.4619
N8410 X-42.166 A1964.742 F1476.9683
N8415 X-42.103 A1965.968 F1497.9602
N8420 X-42.056 A1966.89 F1994.1181
N8425 X-42.009 A1967.811 F1994.114
N8430 X-41.961 A1968.732 F1994.1168
N8435 X-41.914 A1969.653 F1994.1149
N8440 A1969.657 F476312.5957
N8445 X-41.851 A1970.901 F1476.9493
N8450 X-41.788 A1972.127 F1498.1991
N8455 X-41.74 A1973.048 F1994.2028
N8460 X-41.693 A1973.97 F1994.2032
N8465 X-41.646 A1974.891 F1994.2038
N8470 X-41.598 A1975.812 F1994.2029
N8475 X-41.535 A1977.04 F1495.8049
N8480 X-41.472 A1978.269 F1494.7842
N8485 A1978.273 F476346.3346
N8490 X-41.408 A1979.517 F1477.1834
N8495 X-41.361 A1980.437 F1995.2192
N8500 X-41.313 A1981.358 F1995.2193
N8505 X-41.266 A1982.279 F1995.2188
N8510 X-41.219 A1983.199 F1995.2196
N8515 X-41.155 A1984.427 F1495.7828
N8520 A1984.432 F372940.7508
N8525 X-41.092 A1985.676 F1477.4378
N8530 X-41.044 A1986.597 F1995.1913
N8535 X-40.997 A1987.517 F1995.1909
N8540 X-40.949 A1988.438 F1995.1905
N8545 X-40.902 A1989.359 F1995.1911
N8550 X-40.901 A1989.363 F476334.035
N8555 X-40.838 A1990.607 F1476.888
N8560 X-40.775 A1991.833 F1498.1353
N8565 X-40.727 A1992.754 F1994.0016
N8570 X-40.68 A1993.675 F1994.0039
N8575 X-40.632 A1994.596 F1994.0024
N8580 X-40.584 A1995.518 F1994.0035
N8585 A1995.522 F451431.3876
N8590 X-40.521 A1996.766 F1476.8672
N8595 X-40.457 A1997.992 F1498.1141
N8600 X-40.409 A1998.913 F1993.9754
N8605 X-40.362 A1999.834 F1993.9743
N8610 X-40.314 A2000.755 F1993.9743
N8615 X-40.266 A2001.677 F1993.9736
N8620 A2001.681 F408487.0215
N8625 X-40.203 A2002.925 F1477.3763
N8630 X-40.139 A2004.151 F1498.3341
N8635 X-40.076 A2005.379 F1495.218
N8640 X-40.028 A2006.3 F1993.9458
N8645 X-39.98 A2007.222 F1993.9474
N8650 X-39.932 A2008.143 F1993.9445
N8655 X-39.884 A2009.064 F1993.9477
N8660 A2009.068 F451538.0223
N8665 X-39.821 A2010.312 F1477.0799
N8670 X-39.757 A2011.538 F1498.0499
N8675 X-39.693 A2012.767 F1495.1989
N8680 X-39.629 A2013.994 F1495.9584
N8685 X-39.565 A2015.223 F1495.6775
N8690 X-39.502 A2016.452 F1494.6548
N8695 X-39.501 A2016.456 F408496.3516
N8700 X-39.438 A2017.7 F1477.338
N8705 X-39.39 A2018.62 F1995.2763
N8710 X-39.342 A2019.541 F1995.2794
N8715 X-39.294 A2020.461 F1995.281
N8720 X-39.246 A2021.382 F1995.2832
N8725 X-39.182 A2022.61 F1495.654
N8730 A2022.615 F357375.1629
N8735 X-39.118 A2023.858 F1477.5678
N8740 X-39.07 A2024.779 F1995.0271
N8745 X-39.022 A2025.7 F1995.0199
N8750 X-38.974 A2026.621 F1995.0167
N8755 X-38.926 A2027.541 F1995.0227
N8760 A2027.546 F408293.5273
N8765 X-38.862 A2028.789 F1477.0402
N8770 X-38.798 A2030.015 F1498.2711
N8775 X-38.75 A2030.937 F1993.8324
N8780 X-38.702 A2031.858 F1993.8302
N8785 X-38.654 A2032.779 F1993.8365
N8790 X-38.606 A2033.7 F1993.8273
N8795 A2033.705 F428495.7739
N8800 X-38.542 A2034.948 F1477.0213
N8805 X-38.478 A2036.174 F1498.2472
N8810 X-38.414 A2037.403 F1495.2876
N8815 X-38.349 A2038.631 F1495.2859
N8820 X-38.285 A2039.859 F1495.289
N8825 X-38.221 A2041.088 F1495.289
N8830 A2041.092 F428494.4501
N8835 X-38.157 A2042.336 F1477.2536
N8840 X-38.093 A2043.561 F1498.206
N8845 X-38.028 A2044.79 F1494.833
N8850 X-37.964 A2046.018 F1495.5916
N8855 X-37.9 A2047.246 F1495.5902
N8860 X-37.835 A2048.474 F1495.5706
N8865 A2048.479 F372670.7165
N8870 X-37.771 A2049.723 F1477.2356
N8875 X-37.707 A2050.951 F1495.9598
N8880 X-37.642 A2052.178 F1495.9639
N8885 X-37.578 A2053.406 F1495.9612
N8890 X-37.514 A2054.634 F1495.9629
N8895 X-37.513 A2054.639 F408237.6706
N8900 X-37.449 A2055.882 F1477.2128
N8905 X-37.401 A2056.803 F1994.9921
N8910 X-37.352 A2057.723 F1994.993
N8915 X-37.304 A2058.644 F1994.9909
N8920 X-37.256 A2059.565 F1994.9935
N8925 X-37.255 A2059.569 F408250.5728
N8930 X-37.191 A2060.813 F1476.938
N8935 X-37.127 A2062.039 F1498.1618
N8940 X-37.062 A2063.267 F1495.5275
N8945 X-36.998 A2064.496 F1494.7675
N8950 X-36.933 A2065.724 F1495.5267
N8955 A2065.728 F408312.1926
N8960 X-36.868 A2066.972 F1477.1707
N8965 X-36.804 A2068.197 F1498.379
N8970 X-36.739 A2069.426 F1494.746
N8975 X-36.691 A2070.347 F1993.6592
N8980 X-36.642 A2071.269 F1993.6607
N8985 X-36.594 A2072.19 F1993.6606
N8990 X-36.545 A2073.111 F1993.6592
N8995 A2073.116 F408287.4532
N9000 X-36.48 A2074.359 F1476.8958
N9005 X-36.416 A2075.585 F1498.1187
N9010 X-36.351 A2076.814 F1495.223
N9015 X-36.286 A2078.042 F1495.2229
N9020 X-36.221 A2079.27 F1495.2222
N9025 X-36.156 A2080.499 F1495.2229
N9030 A2080.503 F408348.6019
N9035 X-36.092 A2081.747 F1477.13
N9040 X-36.027 A2082.974 F1495.8539
N9045 X-35.962 A2084.202 F1495.854
N9050 X-35.897 A2085.43 F1495.8519
N9055 X-35.832 A2086.658 F1495.8564
N9060 A2086.662 F408161.9524
N9065 X-35.767 A2087.905 F1477.36
N9070 X-35.702 A2089.131 F1498.0558
N9075 X-35.637 A2090.36 F1494.6821
N9080 X-35.572 A2091.588 F1495.3072
N9085 X-35.507 A2092.817 F1495.3119
N9090 A2092.821 F408126.2113
N9095 X-35.442 A2094.065 F1477.0892
N9100 X-35.377 A2095.292 F1496.593
N9105 X-35.312 A2096.519 F1496.5922
N9110 X-35.247 A2097.748 F1494.4003
N9115 A2097.752 F451132.1429
N9120 X-35.182 A2098.995 F1477.3211
N9125 X-35.117 A2100.221 F1498.0109
N9130 X-35.052 A2101.45 F1494.8963
N9135 X-34.987 A2102.678 F1495.1378
N9140 X-34.921 A2103.906 F1494.895
N9145 X-34.856 A2105.135 F1495.3985
N9150 A2105.139 F389771.0556
N9155 X-34.791 A2106.383 F1477.3
N9160 X-34.726 A2107.608 F1497.9867
N9165 X-34.661 A2108.837 F1494.875
N9170 X-34.612 A2109.758 F1993.4837
N9175 X-34.563 A2110.679 F1993.4892
N9180 X-34.514 A2111.601 F1993.4837
N9185 X-34.465 A2112.522 F1993.4837
N9190 X-34.464 A2112.527 F389800.3562
N9195 X-34.399 A2113.77 F1477.2795
N9200 X-34.334 A2114.996 F1497.9675
N9205 X-34.269 A2116.224 F1494.8534
N9210 X-34.203 A2117.453 F1495.2244
N9215 X-34.138 A2118.681 F1495.2201
N9220 X-34.072 A2119.909 F1495.3329
N9225 A2119.914 F357145.9885
N9230 X-34.007 A2121.157 F1477.2579
N9235 X-33.941 A2122.383 F1497.9473
N9240 X-33.876 A2123.612 F1494.8298
N9245 X-33.811 A2124.84 F1495.0714
N9250 X-33.81 A2124.845 F408144.6681
N9255 X-33.745 A2126.088 F1477.2382
N9260 X-33.68 A2127.314 F1497.9205
N9265 X-33.614 A2128.543 F1494.5515
N9270 X-33.548 A2129.771 F1495.3105
N9275 A2129.775 F408091.8394
N9280 X-33.483 A2131.019 F1476.708
N9285 X-33.417 A2132.246 F1496.4856
N9290 X-33.352 A2133.473 F1496.4844
N9295 X-33.302 A2134.394 F1993.3684
N9300 X-33.253 A2135.316 F1993.3697
N9305 X-33.204 A2136.237 F1993.3656
N9310 X-33.155 A2137.158 F1993.3703
N9315 X-33.154 A2137.163 F408147.2653
N9320 X-33.089 A2138.406 F1476.6883
N9325 X-33.023 A2139.633 F1496.4635
N9330 X-32.957 A2140.861 F1496.462
N9335 X-32.908 A2141.782 F1993.3383
N9340 X-32.859 A2142.703 F1993.341
N9345 X-32.809 A2143.624 F1993.3368
N9350 X-32.76 A2144.546 F1993.3432
N9355 A2144.55 F408097.1862
N9360 X-32.694 A2145.794 F1476.6657
N9365 X-32.628 A2147.02 F1498.1395
N9370 X-32.563 A2148.248 F1494.9174
N9375 X-32.497 A2149.476 F1494.9179
N9380 X-32.431 A2150.705 F1494.9195
N9385 X-32.365 A2151.933 F1494.9165
N9390 A2151.937 F408168.137
N9395 X-32.299 A2153.181 F1476.8996
N9400 X-32.233 A2154.407 F1498.0954
N9405 X-32.167 A2155.635 F1494.4629
N9410 X-32.101 A2156.864 F1495.2208
N9415 A2156.868 F389777.5184
N9420 X-32.035 A2158.112 F1476.8755
N9425 X-31.969 A2159.338 F1497.8357
N9430 X-31.903 A2160.566 F1495.0683
N9435 X-31.837 A2161.794 F1495.0684
N9440 X-31.771 A2163.023 F1494.1799
N9445 A2163.027 F451145.394
N9450 X-31.705 A2164.271 F1476.8571
N9455 X-31.639 A2165.496 F1498.0504
N9460 X-31.573 A2166.725 F1494.4187
N9465 X-31.506 A2167.953 F1495.1773
N9470 X-31.44 A2169.182 F1494.1579
N9475 A2169.186 F451084.0831
N9480 X-31.374 A2170.43 F1477.0889
N9485 X-31.308 A2171.656 F1497.7693
N9490 X-31.242 A2172.884 F1494.3937
N9495 X-31.175 A2174.113 F1494.9174
N9500 X-31.109 A2175.341 F1495.0254
N9505 X-31.043 A2176.569 F1495.0233
N9510 A2176.574 F389817.2717
N9515 X-30.976 A2177.817 F1477.0664
N9520 X-30.91 A2179.043 F1497.7464
N9525 X-30.844 A2180.271 F1494.633
N9530 X-30.794 A2181.193 F1993.1613
N9535 X-30.744 A2182.114 F1993.166
N9540 X-30.694 A2183.035 F1993.1623
N9545 X-30.645 A2183.956 F1993.1608
N9550 X-30.644 A2183.961 F389722.9986
N9555 X-30.578 A2185.205 F1476.7914
N9560 X-30.512 A2186.431 F1497.7485
N9565 X-30.462 A2187.352 F1993.1315
N9570 X-30.412 A2188.273 F1993.1342
N9575 X-30.362 A2189.194 F1993.1327
N9580 X-30.312 A2190.115 F1993.1337
N9585 A2190.12 F389731.5317
N9590 X-30.246 A2191.364 F1476.7695
N9595 X-30.179 A2192.59 F1497.726
N9600 X-30.113 A2193.818 F1494.9576
N9605 X-30.046 A2195.046 F1494.9559
N9610 A2195.051 F389728.4091
N9615 X-29.979 A2196.294 F1476.7483
N9620 X-29.913 A2197.521 F1496.2625
N9625 X-29.846 A2198.749 F1496.2663
N9630 X-29.78 A2199.977 F1495.0649
N9635 X-29.713 A2201.206 F1494.0452
N9640 A2201.21 F451029.3419
N9645 X-29.646 A2202.453 F1476.4766
N9650 X-29.58 A2203.681 F1496.2396
N9655 X-29.513 A2204.908 F1496.2428
N9660 X-29.446 A2206.136 F1494.9127
N9665 X-29.379 A2207.364 F1494.9137
N9670 X-29.313 A2208.593 F1494.0264
N9675 X-29.312 A2208.597 F428754.0344
N9680 X-29.246 A2209.841 F1476.9593
N9685 X-29.179 A2211.066 F1497.8959
N9690 X-29.112 A2212.295 F1494.2611
N9695 X-29.045 A2213.523 F1495.0225
N9700 X-28.979 A2214.752 F1494.2612
N9705 X-28.912 A2215.98 F1495.0203
N9710 X-28.911 A2215.984 F451146.0471
N9715 X-28.845 A2217.228 F1476.1564
N9720 X-28.778 A2218.455 F1496.0678
N9725 X-28.711 A2219.682 F1496.0639
N9730 X-28.644 A2220.911 F1494.8694
N9735 X-28.577 A2222.139 F1494.8668
N9740 A2222.144 F389837.9342
N9745 X-28.51 A2223.387 F1476.4077
N9750 X-28.443 A2224.613 F1497.8746
N9755 X-28.376 A2225.841 F1494.7172
N9760 X-28.309 A2227.07 F1494.716
N9765 X-28.308 A2227.074 F408031.3078
N9770 X-28.241 A2228.318 F1476.3885
N9775 X-28.191 A2229.239 F1994.233
N9780 X-28.141 A2230.159 F1994.2291
N9785 X-28.091 A2231.08 F1994.2316
N9790 X-28.04 A2232. F1994.2298
N9795 X-27.973 A2233.229 F1494.9519
N9800 A2233.233 F389677.7039
N9805 X-27.906 A2234.477 F1476.3679
N9810 X-27.855 A2235.398 F1994.2004
N9815 X-27.805 A2236.318 F1994.2019
N9820 X-27.755 A2237.239 F1994.1997
N9825 X-27.704 A2238.16 F1994.1993
N9830 X-27.637 A2239.388 F1494.8018
N9835 X-27.57 A2240.616 F1494.8008
N9840 A2240.621 F389597.1116
N9845 X-27.502 A2241.864 F1476.3468
N9850 X-27.452 A2242.785 F1994.1703
N9855 X-27.401 A2243.706 F1994.1713
N9860 X-27.351 A2244.626 F1994.1702
N9865 X-27.301 A2245.547 F1994.1704
N9870 X-27.233 A2246.775 F1494.778
N9875 X-27.166 A2248.003 F1494.7786
N9880 A2248.008 F389583.2593
N9885 X-27.098 A2249.252 F1476.3253
N9890 X-27.031 A2250.478 F1497.7829
N9895 X-26.964 A2251.706 F1494.7559
N9900 X-26.896 A2252.934 F1494.756
N9905 X-26.829 A2254.163 F1493.868
N9910 X-26.828 A2254.167 F428625.3471
N9915 X-26.761 A2255.41 F1476.8104
N9920 X-26.694 A2256.636 F1497.7373
N9925 X-26.626 A2257.865 F1494.1063
N9930 X-26.558 A2259.093 F1494.8639
N9935 X-26.491 A2260.322 F1493.8468
N9940 A2260.326 F450907.2136
N9945 X-26.423 A2261.57 F1476.5353
N9950 X-26.356 A2262.795 F1497.7157
N9955 X-26.288 A2264.024 F1493.8232
N9960 X-26.22 A2265.253 F1494.6026
N9965 A2265.257 F428580.9139
N9970 X-26.153 A2266.5 F1476.5134
N9975 X-26.085 A2267.728 F1496.0152
N9980 X-26.017 A2268.955 F1496.0177
N9985 X-25.95 A2270.183 F1494.8172
N9990 X-25.882 A2271.411 F1494.3202
N9995 X-25.814 A2272.64 F1494.5618
N10000 A2272.644 F389569.7656
N10005 X-25.746 A2273.888 F1476.4885
N10010 X-25.695 A2274.808 F1994.0228
N10015 X-25.645 A2275.729 F1994.0199
N10020 X-25.594 A2276.65 F1994.0195
N10025 X-25.543 A2277.57 F1994.0206
N10030 X-25.475 A2278.799 F1494.5373
N10035 X-25.407 A2280.027 F1494.5349
N10040 A2280.032 F389627.3413
N10045 X-25.339 A2281.275 F1476.4685
N10050 X-25.271 A2282.502 F1495.9706
N10055 X-25.203 A2283.729 F1495.9738
N10060 X-25.152 A2284.651 F1992.6835
N10065 X-25.101 A2285.572 F1992.6848
N10070 X-25.05 A2286.493 F1992.6842
N10075 X-24.999 A2287.414 F1992.6818
N10080 A2287.419 F389532.2651
N10085 X-24.931 A2288.663 F1476.4479
N10090 X-24.863 A2289.888 F1497.6485
N10095 X-24.795 A2291.117 F1494.4923
N10100 X-24.727 A2292.345 F1493.9911
N10105 A2292.35 F428432.3903
N10110 X-24.659 A2293.593 F1476.4258
N10115 X-24.591 A2294.819 F1497.3635
N10120 X-24.523 A2296.047 F1494.7258
N10125 X-24.455 A2297.276 F1493.9703
N10130 A2297.28 F428338.5826
N10135 X-24.387 A2298.524 F1476.1526
N10140 X-24.318 A2299.752 F1495.1204
N10145 X-24.25 A2300.98 F1495.1215
N10150 X-24.182 A2302.207 F1495.1177
N10155 X-24.114 A2303.435 F1495.1194
N10160 A2303.439 F428510.8012
N10165 X-24.046 A2304.683 F1476.3816
N10170 X-23.977 A2305.911 F1495.0984
N10175 X-23.909 A2307.138 F1495.0982
N10180 X-23.841 A2308.366 F1495.0967
N10185 X-23.772 A2309.594 F1495.0957
N10190 X-23.704 A2310.822 F1494.5516
N10195 X-23.636 A2312.05 F1494.552
N10200 X-23.635 A2312.056 F342875.9914
N10205 X-23.567 A2313.299 F1476.8911
N10210 X-23.499 A2314.524 F1497.795
N10215 X-23.43 A2315.753 F1493.8996
N10220 X-23.362 A2316.981 F1494.4249
N10225 X-23.294 A2318.21 F1494.5282
N10230 X-23.225 A2319.438 F1494.5292
N10235 A2319.443 F389469.251
N10240 X-23.156 A2320.686 F1476.0874
N10245 X-23.088 A2321.912 F1497.5319
N10250 X-23.02 A2323.14 F1494.6363
N10255 X-22.951 A2324.369 F1493.6199
N10260 A2324.373 F428405.6073
N10265 X-22.882 A2325.617 F1476.3157
N10270 X-22.814 A2326.843 F1497.5109
N10275 X-22.745 A2328.071 F1494.6139
N10280 X-22.677 A2329.299 F1493.857
N10285 X-22.608 A2330.527 F1494.6138
N10290 A2330.533 F342780.9307
N10295 X-22.539 A2331.776 F1476.5712
N10300 X-22.47 A2333.003 F1496.0489
N10305 X-22.402 A2334.23 F1496.0492
N10310 X-22.333 A2335.458 F1494.5905
N10315 X-22.264 A2336.687 F1493.5733
N10320 A2336.691 F428436.7443
N10325 X-22.195 A2337.935 F1476.2721
N10330 X-22.144 A2338.855 F1993.7162
N10335 X-22.092 A2339.776 F1993.716
N10340 X-22.041 A2340.697 F1993.7161
N10345 X-21.989 A2341.617 F1993.7159
N10350 X-21.92 A2342.846 F1494.3084
N10355 X-21.851 A2344.074 F1494.3085
N10360 A2344.079 F356919.1346
N10365 X-21.782 A2345.322 F1476.5266
N10370 X-21.714 A2346.548 F1497.7035
N10375 X-21.645 A2347.776 F1494.5451
N10380 X-21.576 A2349.005 F1493.7875
N10385 X-21.507 A2350.233 F1494.2863
N10390 X-21.438 A2351.461 F1494.285
N10395 A2351.466 F389389.5597
N10400 X-21.369 A2352.71 F1476.228
N10405 X-21.3 A2353.937 F1495.7201
N10410 X-21.231 A2355.164 F1495.7216
N10415 X-21.162 A2356.392 F1494.5203
N10420 X-21.093 A2357.621 F1493.5046
N10425 A2357.625 F428380.7598
N10430 X-21.024 A2358.869 F1476.4609
N10435 X-20.955 A2360.094 F1497.3729
N10440 X-20.885 A2361.323 F1493.7384
N10445 X-20.816 A2362.552 F1494.0038
N10450 A2362.556 F428423.0925
N10455 X-20.747 A2363.799 F1476.1812
N10460 X-20.695 A2364.72 F1993.5938
N10465 X-20.643 A2365.641 F1993.5935
N10470 X-20.591 A2366.561 F1993.5947
N10475 X-20.54 A2367.482 F1993.5935
N10480 X-20.47 A2368.71 F1494.4762
N10485 A2368.715 F372493.9638
N10490 X-20.401 A2369.959 F1475.9084
N10495 X-20.332 A2371.185 F1497.1096
N10500 X-20.262 A2372.412 F1494.7377
N10505 X-20.193 A2373.641 F1494.4541
N10510 X-20.124 A2374.869 F1493.6931
N10515 X-20.054 A2376.097 F1494.4532
N10520 A2376.102 F372755.2185
N10525 X-19.985 A2377.346 F1476.1371
N10530 X-19.933 A2378.266 F1993.6478
N10535 X-19.881 A2379.187 F1993.6425
N10540 X-19.829 A2380.108 F1993.6535
N10545 X-19.777 A2381.028 F1993.6411
N10550 X-19.707 A2382.257 F1494.1689
N10555 X-19.638 A2383.485 F1493.6717
N10560 A2383.49 F408143.6787
N10565 X-19.568 A2384.733 F1476.1179
N10570 X-19.499 A2385.959 F1497.3048
N10575 X-19.429 A2387.187 F1494.4042
N10580 X-19.36 A2388.416 F1493.6481
N10585 X-19.29 A2389.644 F1494.4071
N10590 A2389.649 F389208.1961
N10595 X-19.22 A2390.892 F1476.0977
N10600 X-19.151 A2392.119 F1495.5813
N10605 X-19.081 A2393.346 F1495.5793
N10610 X-19.012 A2394.574 F1494.3868
N10615 X-19.011 A2394.58 F342702.0545
N10620 X-18.942 A2395.823 F1476.3486
N10625 X-18.89 A2396.744 F1993.6657
N10630 X-18.838 A2397.664 F1993.6755
N10635 X-18.785 A2398.585 F1993.6648
N10640 X-18.733 A2399.505 F1993.6718
N10645 X-18.663 A2400.734 F1494.1033
N10650 A2400.739 F342682.4172
N10655 X-18.593 A2401.982 F1476.5779
N10660 X-18.541 A2402.903 F1993.5232
N10665 X-18.489 A2403.823 F1993.5276
N10670 X-18.436 A2404.744 F1993.5227
N10675 X-18.384 A2405.664 F1993.5233
N10680 X-18.314 A2406.892 F1494.3364
N10685 A2406.898 F342637.2806
N10690 X-18.244 A2408.141 F1476.3061
N10695 X-18.174 A2409.369 F1494.8582
N10700 X-18.105 A2410.596 F1494.8595
N10705 X-18.035 A2411.824 F1494.8584
N10710 X-17.965 A2413.052 F1494.8579
N10715 X-17.895 A2414.28 F1494.054
N10720 X-17.825 A2415.508 F1494.0539
N10725 A2415.514 F342671.3418
N10730 X-17.755 A2416.757 F1476.7891
N10735 X-17.685 A2417.982 F1497.4255
N10740 X-17.615 A2419.211 F1493.2719
N10745 X-17.545 A2420.439 F1494.3131
N10750 X-17.475 A2421.667 F1494.29
N10755 A2421.672 F372525.0332
N10760 X-17.405 A2422.916 F1475.9835
N10765 X-17.352 A2423.836 F1993.3147
N10770 X-17.3 A2424.757 F1993.3142
N10775 X-17.247 A2425.678 F1993.3151
N10780 X-17.194 A2426.598 F1993.314
N10785 X-17.124 A2427.826 F1494.2664
N10790 A2427.831 F372503.4345
N10795 X-17.054 A2429.075 F1475.9606
N10800 X-17.001 A2429.996 F1993.2823
N10805 X-16.949 A2430.916 F1993.2816
N10810 X-16.896 A2431.837 F1993.2816
N10815 X-16.843 A2432.757 F1993.2823
N10820 A2432.762 F408089.4012
N10825 X-16.773 A2434.006 F1475.6831
N10830 X-16.703 A2435.232 F1496.8776
N10835 X-16.633 A2436.459 F1494.5046
N10840 X-16.562 A2437.688 F1494.2188
N10845 X-16.492 A2438.917 F1493.2022
N10850 A2438.921 F372492.3656
N10855 X-16.422 A2440.165 F1476.1945
N10860 X-16.351 A2441.392 F1494.8057
N10865 X-16.281 A2442.62 F1494.8061
N10870 X-16.211 A2443.848 F1494.8046
N10875 X-16.14 A2445.075 F1494.8071
N10880 X-16.07 A2446.304 F1493.9374
N10885 X-15.999 A2447.532 F1493.4379
N10890 A2447.537 F407863.4807
N10895 X-15.929 A2448.78 F1475.895
N10900 X-15.858 A2450.007 F1495.5011
N10905 X-15.788 A2451.234 F1495.4984
N10910 X-15.717 A2452.462 F1494.1736
N10915 X-15.647 A2453.691 F1493.1549
N10920 X-15.646 A2453.696 F408075.6456
N10925 X-15.576 A2454.939 F1476.1213
N10930 X-15.505 A2456.166 F1495.3493
N10935 X-15.435 A2457.393 F1495.346
N10940 X-15.364 A2458.622 F1494.1498
N10945 X-15.294 A2459.85 F1493.132
N10950 X-15.293 A2459.855 F428089.5979
N10955 X-15.223 A2461.098 F1475.8479
N10960 X-15.17 A2462.019 F1993.0156
N10965 X-15.117 A2462.94 F1993.0113
N10970 X-15.064 A2463.86 F1993.0064
N10975 X-15.011 A2464.781 F1993.0143
N10980 A2464.786 F407972.5942
N10985 X-14.94 A2466.029 F1475.8219
N10990 X-14.869 A2467.255 F1496.7605
N10995 X-14.816 A2468.176 F1991.8202
N11000 X-14.763 A2469.097 F1991.8198
N11005 X-14.71 A2470.019 F1991.8208
N11010 X-14.657 A2470.94 F1991.8195
N11015 A2470.944 F407982.8773
N11020 X-14.586 A2472.188 F1475.8038
N11025 X-14.515 A2473.414 F1496.7129
N11030 X-14.444 A2474.642 F1493.6046
N11035 X-14.373 A2475.871 F1494.1032
N11040 X-14.303 A2477.099 F1494.0769
N11045 X-14.232 A2478.327 F1493.5805
N11050 X-14.161 A2479.555 F1493.8176
N11055 X-14.16 A2479.561 F342613.2101
N11060 X-14.09 A2480.804 F1476.0606
N11065 X-14.019 A2482.031 F1495.5129
N11070 X-13.948 A2483.258 F1495.512
N11075 X-13.877 A2484.486 F1494.0553
N11080 X-13.806 A2485.715 F1493.5548
N11085 X-13.735 A2486.943 F1493.798
N11090 X-13.734 A2486.948 F372332.531
N11095 X-13.663 A2488.191 F1476.01
N11100 X-13.592 A2489.418 F1495.228
N11105 X-13.521 A2490.645 F1495.2309
N11110 X-13.45 A2491.873 F1494.0296
N11115 A2491.879 F342595.1423
N11120 X-13.379 A2493.122 F1476.0139
N11125 X-13.308 A2494.349 F1495.4635
N11130 X-13.237 A2495.576 F1495.4684
N11135 X-13.165 A2496.804 F1494.0047
N11140 X-13.094 A2498.033 F1492.9904
N11145 A2498.037 F408042.1824
N11150 X-13.023 A2499.281 F1475.9613
N11155 X-12.969 A2500.201 F1992.8254
N11160 X-12.916 A2501.122 F1992.8216
N11165 X-12.862 A2502.043 F1992.8195
N11170 X-12.809 A2502.964 F1992.8211
N11175 A2502.968 F372390.0994
N11180 X-12.737 A2504.212 F1475.9675
N11185 X-12.666 A2505.437 F1497.1147
N11190 X-12.595 A2506.666 F1493.2277
N11195 X-12.524 A2507.894 F1494.244
N11200 X-12.452 A2509.122 F1493.9583
N11205 X-12.381 A2510.351 F1492.9441
N11210 X-12.309 A2511.579 F1493.7214
N11215 A2511.584 F407952.8254
N11220 X-12.238 A2512.827 F1475.6656
N11225 X-12.166 A2514.054 F1495.2639
N11230 X-12.095 A2515.281 F1495.264
N11235 X-12.023 A2516.509 F1493.935
N11240 X-11.952 A2517.738 F1493.1799
N11245 X-11.88 A2518.966 F1493.9352
N11250 A2518.971 F372358.8826
N11255 X-11.808 A2520.215 F1475.6435
N11260 X-11.755 A2521.135 F1992.9568
N11265 X-11.701 A2522.056 F1992.9568
N11270 X-11.647 A2522.976 F1992.9577
N11275 X-11.594 A2523.897 F1992.9561
N11280 X-11.522 A2525.125 F1493.6543
N11285 A2525.13 F372326.5559
N11290 X-11.45 A2526.374 F1475.6205
N11295 X-11.396 A2527.294 F1992.8091
N11300 X-11.343 A2528.215 F1992.8099
N11305 X-11.289 A2529.136 F1992.8083
N11310 X-11.235 A2530.056 F1992.8086
N11315 A2530.061 F407832.6917
N11320 X-11.163 A2531.304 F1475.5985
N11325 X-11.109 A2532.225 F1992.7762
N11330 X-11.056 A2533.146 F1992.7772
N11335 X-11.002 A2534.066 F1992.7778
N11340 X-10.948 A2534.987 F1992.778
N11345 A2534.992 F356988.3193
N11350 X-10.876 A2536.235 F1476.1026
N11355 X-10.804 A2537.461 F1496.7373
N11360 X-10.733 A2538.689 F1493.3659
N11365 X-10.661 A2539.918 F1493.7358
N11370 X-10.589 A2541.146 F1493.7346
N11375 X-10.517 A2542.374 F1493.8388
N11380 X-10.516 A2542.38 F329467.8054
N11385 X-10.445 A2543.623 F1476.0803
N11390 X-10.373 A2544.85 F1494.363
N11395 X-10.301 A2546.078 F1494.3612
N11400 X-10.229 A2547.306 F1494.3613
N11405 X-10.157 A2548.533 F1494.3635
N11410 X-10.085 A2549.761 F1493.8146
N11415 X-10.013 A2550.99 F1492.8015
N11420 A2550.995 F407597.1613
N11425 X-9.941 A2552.238 F1475.5302
N11430 X-9.869 A2553.465 F1495.2508
N11435 X-9.797 A2554.692 F1495.247
N11440 X-9.724 A2555.92 F1493.5358
N11445 X-9.652 A2557.149 F1493.0325
N11450 A2557.154 F389239.4885
N11455 X-9.58 A2558.397 F1475.7605
N11460 X-9.508 A2559.624 F1495.0959
N11465 X-9.436 A2560.851 F1495.0961
N11470 X-9.363 A2562.079 F1493.7664
N11475 A2562.085 F329435.7063
N11480 X-9.291 A2563.328 F1475.7608
N11485 X-9.219 A2564.556 F1494.2892
N11490 X-9.147 A2565.784 F1494.2892
N11495 X-9.074 A2567.011 F1494.2877
N11500 X-9.002 A2568.239 F1494.2906
N11505 A2568.243 F407691.269
N11510 X-8.929 A2569.487 F1475.2042
N11515 X-8.857 A2570.713 F1496.3808
N11520 X-8.785 A2571.941 F1493.7423
N11525 X-8.713 A2573.169 F1493.745
N11530 X-8.64 A2574.398 F1493.4603
N11535 A2574.403 F342582.3247
N11540 X-8.567 A2575.646 F1475.7129
N11545 X-8.477 A2577.181 F1195.2671
N11550 X-8.386 A2578.716 F1195.2677
N11555 X-8.296 A2580.25 F1195.2677
N11560 X-8.205 A2581.785 F1195.2687
N11565 X-8.133 A2583.013 F1493.6955
N11570 X-8.132 A2583.018 F356832.0984
N11575 X-8.06 A2584.262 F1475.4119
N11580 X-7.987 A2585.488 F1496.5758
N11585 X-7.915 A2586.716 F1493.4313
N11590 X-7.842 A2587.944 F1493.6867
N11595 X-7.77 A2589.173 F1493.1631
N11600 X-7.769 A2589.178 F372222.3463
N11605 X-7.697 A2590.421 F1475.6498
N11610 X-7.624 A2591.647 F1496.5414
N11615 X-7.551 A2592.875 F1493.4106
N11620 X-7.479 A2594.103 F1493.4032
N11625 X-7.406 A2595.331 F1493.3982
N11630 A2595.336 F372382.673
N11635 X-7.333 A2596.58 F1475.3709
N11640 X-7.26 A2597.806 F1496.5236
N11645 X-7.188 A2599.034 F1493.3846
N11650 X-7.115 A2600.262 F1493.3792
N11655 A2600.267 F372279.0834
N11660 X-7.042 A2601.511 F1475.356
N11665 X-6.969 A2602.736 F1496.5032
N11670 X-6.896 A2603.965 F1493.3654
N11675 X-6.823 A2605.193 F1493.3624
N11680 X-6.75 A2606.421 F1493.3554
N11685 A2606.426 F372254.1965
N11690 X-6.677 A2607.67 F1475.5859
N11695 X-6.605 A2608.895 F1496.4796
N11700 X-6.532 A2610.124 F1493.3433
N11705 X-6.459 A2611.352 F1493.3384
N11710 X-6.386 A2612.58 F1493.3336
N11715 X-6.313 A2613.809 F1493.3287
N11720 X-6.239 A2615.037 F1493.3235
N11725 A2615.042 F356895.519
N11730 X-6.166 A2616.285 F1475.5562
N11735 X-6.093 A2617.511 F1496.4459
N11740 X-6.02 A2618.739 F1493.3094
N11745 X-5.947 A2619.968 F1493.3066
N11750 X-5.874 A2621.196 F1493.3002
N11755 A2621.201 F356949.6688
N11760 X-5.801 A2622.444 F1475.5327
N11765 X-5.728 A2623.67 F1496.4214
N11770 X-5.654 A2624.898 F1493.2868
N11775 X-5.581 A2626.127 F1493.2831
N11780 X-5.508 A2627.355 F1493.2751
N11785 A2627.36 F372287.2839
N11790 X-5.434 A2628.604 F1475.2604
N11795 X-5.361 A2629.829 F1496.6588
N11800 X-5.288 A2631.058 F1493.0044
N11805 X-5.215 A2632.286 F1493.2588
N11810 X-5.214 A2632.291 F372348.5111
N11815 X-5.141 A2633.534 F1475.4909
N11820 X-5.068 A2634.76 F1496.3808
N11825 X-4.995 A2635.988 F1493.2468
N11830 X-4.921 A2637.216 F1493.2381
N11835 X-4.848 A2638.445 F1493.2342
N11840 A2638.45 F356847.2805
N11845 X-4.774 A2639.693 F1475.4718
N11850 X-4.701 A2640.919 F1496.3566
N11855 X-4.627 A2642.147 F1493.2216
N11860 X-4.554 A2643.376 F1493.2189
N11865 X-4.48 A2644.604 F1493.2119
N11870 X-4.407 A2645.832 F1493.2058
N11875 A2645.837 F356917.4146
N11880 X-4.333 A2647.081 F1475.441
N11885 X-4.26 A2648.306 F1496.3294
N11890 X-4.186 A2649.535 F1493.1966
N11895 X-4.113 A2650.763 F1493.1856
N11900 X-4.039 A2651.991 F1493.1816
N11905 X-3.965 A2653.22 F1493.1804
N11910 A2653.225 F372162.0354
N11915 X-3.892 A2654.468 F1475.4182
N11920 X-3.818 A2655.694 F1496.3016
N11925 X-3.744 A2656.922 F1493.1647
N11930 X-3.671 A2658.15 F1493.157
N11935 X-3.597 A2659.379 F1492.9007
N11940 A2659.384 F372408.7101
N11945 X-3.523 A2660.627 F1475.3895
N11950 X-3.449 A2661.853 F1496.2782
N11955 X-3.375 A2663.081 F1493.1388
N11960 X-3.302 A2664.309 F1493.1371
N11965 X-3.301 A2664.314 F356994.3605
N11970 X-3.228 A2665.558 F1475.3731
N11975 X-3.154 A2666.783 F1496.2594
N11980 X-3.08 A2668.012 F1493.125
N11985 X-3.006 A2669.24 F1493.1182
N11990 X-2.932 A2670.468 F1493.1098
N11995 A2670.473 F372171.724
N12000 X-2.858 A2671.717 F1475.1014
N12005 X-2.784 A2672.942 F1496.495
N12010 X-2.71 A2674.171 F1492.8398
N12015 X-2.636 A2675.399 F1493.3521
N12020 X-2.562 A2676.627 F1493.0908
N12025 X-2.488 A2677.856 F1492.8266
N12030 A2677.861 F372289.7462
N12035 X-2.414 A2679.104 F1475.3231
N12040 X-2.34 A2680.33 F1496.2075
N12045 X-2.266 A2681.558 F1493.0721
N12050 X-2.192 A2682.786 F1493.0642
N12055 X-2.118 A2684.015 F1493.061
N12060 X-2.044 A2685.243 F1493.0566
N12065 X-1.97 A2686.471 F1493.0509
N12070 X-1.969 A2686.476 F356845.7914
N12075 X-1.895 A2687.72 F1475.2924
N12080 X-1.821 A2688.945 F1496.1748
N12085 X-1.747 A2690.174 F1493.0377
N12090 X-1.673 A2691.402 F1493.0317
N12095 X-1.599 A2692.63 F1493.0293
N12100 X-1.598 A2692.635 F372137.8647
N12105 X-1.524 A2693.879 F1475.0177
N12110 X-1.45 A2695.104 F1496.409
N12115 X-1.376 A2696.333 F1493.0126
N12120 X-1.301 A2697.561 F1492.7516
N12125 A2697.566 F372120.3356
N12130 X-1.227 A2698.809 F1475.2522
N12135 X-1.153 A2700.035 F1496.1313
N12140 X-1.078 A2701.263 F1492.995
N12145 X-1.004 A2702.492 F1492.9894
N12150 X-1.003 A2702.497 F356776.4584
N12155 X-0.929 A2703.74 F1475.2332
N12160 X-0.855 A2704.966 F1496.1119
N12165 X-0.78 A2706.194 F1492.9747
N12170 X-0.706 A2707.423 F1492.9729
N12175 X-0.631 A2708.651 F1492.9654
N12180 X-0.557 A2709.879 F1492.9617
N12185 A2709.884 F356817.62
N12190 X-0.482 A2711.128 F1475.2042
N12195 X-0.408 A2712.353 F1496.0834
N12200 X-0.333 A2713.582 F1492.9489
N12205 X-0.259 A2714.81 F1492.943
N12210 X-0.184 A2716.038 F1493.1919
N12215 X-0.109 A2717.267 F1492.6759
N12220 X-0.035 A2718.495 F1492.9277
N12225 X-0.034 A2718.5 F356736.9195
N12230 X0.04 A2719.743 F1475.1749
N12235 X0.115 A2720.969 F1496.3094
N12240 X0.189 A2722.197 F1492.9126
N12245 X0.264 A2723.425 F1492.9074
N12250 X0.339 A2724.654 F1492.6495
N12255 A2724.659 F372043.0272
N12260 X0.414 A2725.902 F1475.1507
N12265 X0.489 A2727.128 F1496.0243
N12270 X0.563 A2728.356 F1492.8907
N12275 X0.638 A2729.585 F1492.8835
N12280 X0.639 A2729.59 F356822.4976
N12285 X0.713 A2730.833 F1475.1318
N12290 X0.788 A2732.059 F1496.0027
N12295 X0.863 A2733.287 F1492.8727
N12300 X0.938 A2734.515 F1492.8677
N12305 X1.013 A2735.744 F1492.8604
N12310 A2735.749 F356553.2265
N12315 X1.088 A2736.992 F1475.1117
N12320 X1.163 A2738.218 F1496.2395
N12325 X1.238 A2739.446 F1492.8472
N12330 X1.313 A2740.674 F1492.842
N12335 X1.388 A2741.903 F1492.5796
N12340 A2741.908 F371987.3701
N12345 X1.463 A2743.151 F1475.0861
N12350 X1.538 A2744.377 F1495.9581
N12355 X1.613 A2745.605 F1492.8202
N12360 X1.688 A2746.833 F1492.8162
N12365 X1.763 A2748.062 F1492.8129
N12370 X1.838 A2749.29 F1492.8105
N12375 X1.839 A2749.295 F356500.9828
N12380 X1.914 A2750.538 F1475.0602
N12385 X1.998 A2751.911 F1335.7648
N12390 X2.082 A2753.284 F1335.76
N12395 X2.166 A2754.657 F1335.7651
N12400 X2.25 A2756.029 F1335.7614
N12405 X2.334 A2757.402 F1335.7632
N12410 X2.418 A2758.775 F1335.7642
N12415 X2.502 A2760.147 F1335.7605
N12420 X2.586 A2761.52 F1335.7639
N12425 X2.67 A2762.893 F1335.7641
N12430 X2.754 A2764.266 F1335.762
N12435 X2.838 A2765.638 F1335.7622
N12440 X2.922 A2767.011 F1335.7633
N12445 X3.006 A2768.384 F1335.763
N12450 X3.09 A2769.756 F1335.7638
N12455 X3.174 A2771.129 F1335.7617
N12460 X3.258 A2772.502 F1335.7625
N12465 X3.342 A2773.875 F1335.7635
N12470 X3.426 A2775.247 F1335.7623
N12475 X3.51 A2776.62 F1335.7629
N12480 X3.594 A2777.993 F1335.7628
N12485 X3.678 A2779.365 F1335.7627
N12490 X3.762 A2780.738 F1335.7628
N12495 X3.846 A2782.111 F1335.7629
N12500 X3.93 A2783.484 F1335.7631
N12505 X4.014 A2784.856 F1335.763
N12510 X4.098 A2786.229 F1335.7625
N12515 X4.182 A2787.602 F1335.7629
N12520 X4.266 A2788.974 F1335.7629
N12525 X4.35 A2790.347 F1335.7628
N12530 X4.434 A2791.72 F1335.7629
N12535 X4.518 A2793.093 F1335.7627
N12540 X4.602 A2794.465 F1335.7629
N12545 X4.686 A2795.838 F1335.7627
N12550 X4.77 A2797.211 F1335.7627
N12555 X4.854 A2798.583 F1335.7633
N12560 X4.938 A2799.956 F1335.7622
N12565 X5.022 A2801.329 F1335.7629
N12570 X5.106 A2802.702 F1335.7629
N12575 X5.19 A2804.074 F1335.7631
N12580 X5.274 A2805.447 F1335.7627
N12585 X5.358 A2806.82 F1335.7639
N12590 X5.442 A2808.192 F1335.7606
N12595 X5.526 A2809.565 F1335.7639
N12600 X5.61 A2810.938 F1335.7626
N12605 X5.694 A2812.311 F1335.7625
N12610 X5.778 A2813.683 F1335.7637
N12615 X5.862 A2815.056 F1335.7631
N12620 X5.946 A2816.429 F1335.7618
N12625 X6.03 A2817.801 F1335.7629
N12630 X6.114 A2819.174 F1335.7633
N12635 X6.198 A2820.547 F1335.7631
N12640 X6.282 A2821.92 F1335.7616
N12645 X6.366 A2823.292 F1335.7637
N12650 X6.45 A2824.665 F1335.7646
N12655 X6.534 A2826.038 F1335.7616
N12660 X6.618 A2827.41 F1335.7606
N12665 X6.702 A2828.783 F1335.7635
N12670 X6.786 A2830.156 F1335.7636
N12675 X6.87 A2831.529 F1335.761
N12680 X6.954 A2832.901 F1335.766
N12685 X7.038 A2834.274 F1335.761
N12690 X7.122 A2835.647 F1335.7621
N12695 X7.206 A2837.019 F1335.7642
N12700 X7.29 A2838.392 F1335.7626
N12705 X7.374 A2839.765 F1335.763
N12710 X7.458 A2841.138 F1335.7635
N12715 X7.542 A2842.51 F1335.7617
N12720 X7.626 A2843.883 F1335.762
N12725 X7.71 A2845.256 F1335.7647
N12730 X7.794 A2846.628 F1335.7616
N12735 X7.878 A2848.001 F1335.7642
N12740 X7.962 A2849.374 F1335.7616
N12745 X8.046 A2850.747 F1335.7626
N12750 X8.13 A2852.119 F1335.7626
N12755 X8.214 A2853.492 F1335.7639
N12760 X8.298 A2854.865 F1335.7625
N12765 X8.382 A2856.237 F1335.7637
N12770 X8.466 A2857.61 F1335.7613
N12775 X8.55 A2858.983 F1335.7626
N12780 X8.634 A2860.356 F1335.7626
N12785 X8.718 A2861.728 F1335.7636
N12790 X8.802 A2863.101 F1335.7637
N12795 X8.886 A2864.474 F1335.7623
N12800 X8.97 A2865.846 F1335.762
N12805 X9.054 A2867.219 F1335.763
N12810 X9.138 A2868.592 F1335.7635
N12815 X9.222 A2869.965 F1335.7625
N12820 X9.306 A2871.337 F1335.7626
N12825 X9.39 A2872.71 F1335.7631
N12830 X9.474 A2874.083 F1335.7629
N12835 X9.558 A2875.455 F1335.7631
N12840 X9.642 A2876.828 F1335.7625
N12845 X9.726 A2878.201 F1335.763
N12850 X9.81 A2879.574 F1335.7627
N12855 X9.894 A2880.946 F1335.763
N12860 X9.978 A2882.319 F1335.7627
N12865 X10.062 A2883.692 F1335.7631
N12870 X10.146 A2885.064 F1335.7624
N12875 X10.23 A2886.437 F1335.7633
N12880 X10.314 A2887.81 F1335.7625
N12885 X10.398 A2889.183 F1335.7635
N12890 X10.482 A2890.555 F1335.7625
N12895 X10.566 A2891.928 F1335.7621
N12900 X10.65 A2893.301 F1335.7636
N12905 X10.734 A2894.673 F1335.7627
N12910 X10.818 A2896.046 F1335.763
N12915 X10.902 A2897.419 F1335.763
N12920 X10.986 A2898.792 F1335.7628
N12925 X11.07 A2900.164 F1335.7615
N12930 X11.155 A2901.537 F1335.7633
N12935 X11.239 A2902.91 F1335.7636
N12940 X11.323 A2904.282 F1335.7621
N12945 X11.407 A2905.655 F1335.7627
N12950 X11.491 A2907.028 F1335.7636
N12955 X11.575 A2908.401 F1335.7627
N12960 X11.659 A2909.773 F1335.7622
N12965 X11.743 A2911.146 F1335.765
N12970 X11.827 A2912.519 F1335.7623
N12975 X11.911 A2913.891 F1335.7623
N12980 X11.995 A2915.264 F1335.7599
N12985 X12.079 A2916.637 F1335.7663
N12990 X12.163 A2918.01 F1335.7614
N12995 X12.247 A2919.382 F1335.7642
N13000 X12.331 A2920.755 F1335.7606
N13005 X12.415 A2922.128 F1335.7634
N13010 X12.499 A2923.5 F1335.7614
N13015 X12.583 A2924.873 F1335.7636
N13020 X12.667 A2926.246 F1335.764
G0 Z60.
G49
M9
M30
%
