%
(1005)
(T24  D=4. CR=0. - FLAT END MILL)
G90 G93 G17 G91.1
G64 P0.01
G21
G53 G0 Z0.
(2D CONTOUR3)
M9
T24 M6
(4MM 4 FLUTE FLAT)
S5000 M3
G54
G0 A0.
M8
G0 X-117.426 Y0.
G43 Z60. H24
G1 A54.073 F999999.
G0 Z37.65
G94 G1 Z33.45 F333.3333
Z31.05
G93 G1 X-117.386 A55.442 F1345.7702
X-117.346 A56.811 F1345.7737
X-117.305 A58.18 F1345.7715
X-117.265 A59.55 F1345.771
X-117.225 A60.919 F1345.7723
X-117.185 A62.288 F1345.7708
X-117.145 A63.657 F1345.7709
X-117.105 A65.026 F1345.7715
X-117.065 A66.395 F1345.7711
X-117.025 A67.765 F1345.772
X-116.985 A69.134 F1345.7715
X-116.945 A70.503 F1345.7714
X-116.905 A71.872 F1345.7725
X-116.865 A73.241 F1345.7706
X-116.825 A74.611 F1345.7718
X-116.785 A75.98 F1345.7711
X-116.745 A77.349 F1345.7714
X-116.705 A78.718 F1345.771
X-116.665 A80.087 F1345.7719
X-116.625 A81.456 F1345.7713
X-116.585 A82.826 F1345.7715
X-116.545 A84.195 F1345.7721
X-116.505 A85.564 F1345.7712
X-116.465 A86.933 F1345.7716
X-116.425 A88.302 F1345.7714
X-116.385 A89.671 F1345.7714
X-116.345 A91.041 F1345.7715
X-116.305 A92.41 F1345.7714
X-116.265 A93.779 F1345.7715
X-116.225 A95.148 F1345.772
X-116.185 A96.517 F1345.7713
X-116.145 A97.887 F1345.7717
X-116.105 A99.256 F1345.7713
X-116.065 A100.625 F1345.7715
X-116.025 A101.994 F1345.7712
X-115.985 A103.363 F1345.7719
X-115.945 A104.732 F1345.7704
X-115.905 A106.102 F1345.7715
X-115.865 A107.471 F1345.7729
X-115.825 A108.84 F1345.7713
X-115.785 A110.209 F1345.7715
X-115.745 A111.578 F1345.7715
X-115.705 A112.947 F1345.7715
X-115.665 A114.317 F1345.7707
X-115.625 A115.686 F1345.7714
X-115.585 A117.055 F1345.7714
X-115.544 A118.424 F1345.771
X-115.504 A119.793 F1345.7729
X-115.464 A121.162 F1345.7719
X-115.424 A122.532 F1345.7705
X-115.384 A123.901 F1345.771
X-115.344 A125.27 F1345.7707
X-115.304 A126.639 F1345.7726
X-115.264 A128.008 F1345.7713
X-115.224 A129.378 F1345.7717
X-115.184 A130.747 F1345.77
X-115.144 A132.116 F1345.7717
X-115.104 A133.485 F1345.7728
X-115.064 A134.854 F1345.7719
X-115.024 A136.223 F1345.7705
X-114.984 A137.593 F1345.7713
X-114.944 A138.962 F1345.7721
X-114.904 A140.331 F1345.7712
X-114.864 A141.7 F1345.7708
X-114.824 A143.069 F1345.7716
X-114.784 A144.438 F1345.7725
X-114.744 A145.808 F1345.771
X-114.704 A147.177 F1345.7728
X-114.664 A148.546 F1345.7709
X-114.624 A149.915 F1345.7716
X-114.584 A151.284 F1345.7702
X-114.544 A152.653 F1345.7719
X-114.504 A154.023 F1345.7734
X-114.464 A155.392 F1345.7708
X-114.424 A156.761 F1345.771
X-114.384 A158.13 F1345.7712
X-114.344 A159.499 F1345.772
X-114.304 A160.869 F1345.7705
X-114.264 A162.238 F1345.7731
X-114.224 A163.607 F1345.7702
X-114.184 A164.976 F1345.7711
X-114.144 A166.345 F1345.7725
X-114.104 A167.714 F1345.7716
X-114.064 A169.084 F1345.7709
X-114.024 A170.453 F1345.7724
X-113.984 A171.822 F1345.7711
X-113.944 A173.191 F1345.7712
X-113.904 A174.56 F1345.7715
X-113.864 A175.929 F1345.7713
X-113.824 A177.299 F1345.7723
X-113.783 A178.668 F1345.7713
X-113.743 A180.037 F1345.7714
X-113.703 A181.406 F1345.7714
X-113.663 A182.775 F1345.7715
X-113.623 A184.145 F1345.7712
X-113.583 A185.514 F1345.7713
X-113.543 A186.883 F1345.7715
X-113.503 A188.252 F1345.7718
X-113.463 A189.621 F1345.7721
X-113.423 A190.99 F1345.7709
X-113.383 A192.36 F1345.7722
X-113.343 A193.729 F1345.7709
X-113.303 A195.098 F1345.7715
X-113.263 A196.467 F1345.7705
X-113.223 A197.836 F1345.7725
X-113.183 A199.205 F1345.77
X-113.143 A200.575 F1345.7731
X-113.103 A201.944 F1345.7713
X-113.063 A203.313 F1345.7723
X-113.023 A204.682 F1345.7711
X-112.983 A206.051 F1345.7711
X-112.943 A207.42 F1345.7701
X-112.903 A208.79 F1345.7727
X-112.863 A210.159 F1345.7714
X-112.823 A211.528 F1345.7717
X-112.783 A212.897 F1345.7705
X-112.743 A214.266 F1345.7734
X-112.703 A215.636 F1345.7714
X-112.663 A217.005 F1345.7696
X-112.623 A218.374 F1345.7728
X-112.583 A219.743 F1345.7707
X-112.543 A221.112 F1345.7716
X-112.503 A222.481 F1345.7723
X-112.463 A223.851 F1345.7724
X-112.423 A225.22 F1345.771
X-112.383 A226.589 F1345.77
X-112.343 A227.958 F1345.7737
X-112.303 A229.327 F1345.7725
X-112.267 A230.556 F1499.1914
X-112.23 A231.785 F1499.0695
A231.79 F368115.0631
X-112.194 A233.02 F1498.9652
X-112.157 A234.249 F1498.8643
A234.254 F367888.7036
X-112.121 A235.483 F1498.7538
X-112.084 A236.713 F1498.4045
A236.718 F370039.8724
X-112.048 A237.947 F1498.5436
X-112.011 A239.177 F1498.4366
A239.182 F367876.1152
X-111.975 A240.412 F1498.3505
X-111.938 A241.641 F1498.4381
X-111.901 A242.874 F1495.1468
A242.879 F373033.8061
X-111.865 A244.108 F1498.5436
X-111.828 A245.339 F1496.9045
X-111.791 A246.57 F1496.906
A246.575 F372964.2599
X-111.755 A247.804 F1498.7696
X-111.718 A249.033 F1498.8777
X-111.681 A250.265 F1496.0497
X-111.644 A251.497 F1496.0488
A251.501 F373914.0958
X-111.608 A252.73 F1499.6035
X-111.571 A253.959 F1499.5108
X-111.534 A255.19 F1496.6886
X-111.497 A256.421 F1496.6901
X-111.46 A257.652 F1496.9
X-111.423 A258.883 F1496.6416
A258.888 F369966.5062
X-111.387 A260.116 F1499.8138
X-111.35 A261.346 F1497.969
X-111.313 A262.576 F1497.9687
X-111.276 A263.808 F1495.9757
X-111.239 A265.039 F1496.0898
X-111.202 A266.27 F1496.722
X-111.165 A267.502 F1495.4408
X-111.128 A268.736 F1493.3376
X-111.1 A269.66 F1994.2172
X-111.072 A270.584 F1994.2155
X-111.045 A271.508 F1994.2171
X-111.017 A272.432 F1994.217
X-110.98 A273.663 F1496.3421
X-110.942 A274.892 F1498.6867
A274.897 F369883.2878
X-110.905 A276.129 F1495.6029
X-110.868 A277.363 F1493.3378
X-110.831 A278.595 F1495.7657
X-110.794 A279.824 F1498.632
X-110.756 A281.054 F1498.5234
A281.059 F370002.775
X-110.719 A282.29 F1495.6104
X-110.682 A283.522 F1495.6116
X-110.645 A284.752 F1498.6311
X-110.607 A285.981 F1498.524
A285.986 F389769.4399
X-110.57 A287.216 F1497.7452
X-110.533 A288.446 F1498.4876
X-110.495 A289.673 F1500.8022
A289.678 F351067.4882
X-110.458 A290.91 F1495.7823
X-110.421 A292.138 F1500.7682
X-110.383 A293.367 F1498.3599
A293.372 F389816.3828
X-110.346 A294.6 F1500.6173
X-110.308 A295.829 F1498.363
A295.834 F369789.0645
X-110.271 A297.064 F1498.7966
X-110.233 A298.291 F1500.8211
A298.296 F351131.6503
X-110.196 A299.526 F1498.6309
X-110.158 A300.755 F1498.5055
A300.76 F371007.2593
X-110.121 A301.99 F1498.4707
X-110.083 A303.221 F1496.2145
A303.226 F390897.1859
X-110.046 A304.455 F1498.6468
X-110.008 A305.685 F1498.509
A305.69 F370059.6899
X-109.971 A306.919 F1498.4838
X-109.933 A308.15 F1496.3782
X-109.895 A309.382 F1495.6585
A309.387 F369894.7946
X-109.858 A310.617 F1498.4661
X-109.82 A311.848 F1496.3807
X-109.782 A313.08 F1495.5698
X-109.744 A314.311 F1495.5664
A314.316 F369740.7846
X-109.707 A315.546 F1498.6523
X-109.678 A316.469 F1995.391
X-109.65 A317.392 F1995.3953
X-109.621 A318.316 F1995.3975
X-109.593 A319.239 F1995.3881
X-109.555 A320.469 F1497.7676
A320.474 F351076.8544
X-109.518 A321.703 F1498.8133
X-109.48 A322.931 F1500.8006
X-109.442 A324.163 F1495.3339
X-109.404 A325.393 F1497.7641
X-109.366 A326.625 F1495.331
X-109.328 A327.855 F1497.7692
X-109.29 A329.087 F1495.3307
X-109.252 A330.317 F1497.7638
X-109.214 A331.549 F1495.1696
X-109.176 A332.781 F1495.4789
X-109.138 A334.013 F1495.4779
X-109.109 A334.937 F1993.9904
X-109.081 A335.861 F1993.9916
X-109.052 A336.785 F1993.9961
X-109.024 A337.709 F1993.9877
X-108.986 A338.94 F1496.2172
X-108.947 A340.169 F1498.5258
A340.174 F371885.8759
X-108.909 A341.406 F1495.4599
X-108.871 A342.64 F1493.1963
X-108.833 A343.872 F1495.6572
X-108.795 A345.101 F1498.3607
X-108.756 A346.333 F1496.0868
A346.337 F390905.3346
X-108.718 A347.569 F1495.4938
X-108.68 A348.801 F1495.4944
X-108.642 A350.031 F1498.4906
X-108.603 A351.26 F1498.3947
A351.265 F390884.9908
X-108.565 A352.495 F1497.6029
X-108.527 A353.725 F1498.1964
X-108.488 A354.954 F1498.3948
A354.959 F390830.4377
X-108.45 A356.189 F1497.6031
X-108.412 A357.418 F1498.3601
X-108.373 A358.646 F1500.6747
A358.651 F369905.7756
X-108.335 A359.879 F1500.4774
X-108.296 A1 F1498.231
A1 F369847.0797
X-108.258 A2 F1498.6865
X-108.219 A3 F1500.6749
A3 F351027.8986
X-108.181 A4 F1498.5228
X-108.142 A6 F1498.362
A6 F369840.1641
X-108.104 A7 F1498.5242
X-108.065 A8 F1496.8777
X-108.026 A9 F1496.8771
A9 F369974.4281
X-107.988 A10 F1498.4903
X-107.949 A12 F1498.3936
X-107.91 A13 F1492.9066
A13 F390960.2096
X-107.872 A14 F1498.5221
X-107.833 A15 F1498.3935
X-107.794 A17 F1492.9075
A17 F390845.0457
X-107.756 A18 F1498.5229
X-107.727 A19 F1995.152
X-107.698 A20 F1995.149
X-107.668 A21 F1995.1471
X-107.639 A22 F1995.1504
A22 F369952.1375
X-107.601 A23 F1498.5232
X-107.572 A24 F1995.2237
X-107.543 A25 F1995.2219
X-107.513 A26 F1995.2225
X-107.484 A26 F1995.222
X-107.445 A28 F1497.6378
X-107.406 A29 F1495.2024
X-107.367 A30 F1497.6366
X-107.328 A31 F1495.2045
X-107.289 A33 F1497.6341
X-107.25 A34 F1495.2055
X-107.211 A35 F1497.6343
X-107.172 A36 F1495.0418
X-107.133 A38 F1495.5245
X-107.094 A39 F1497.6378
X-107.055 A40 F1495.0106
X-107.016 A41 F1495.3635
X-106.977 A42 F1493.068
X-106.938 A44 F1495.4477
X-106.899 A45 F1495.4464
X-106.86 A46 F1498.197
X-106.82 A47 F1495.956
A47 F393168.4294
X-106.781 A49 F1495.3489
X-106.742 A50 F1495.3481
X-106.703 A51 F1496.0884
X-106.663 A52 F1498.4241
A52 F369969.0163
X-106.624 A54 F1495.362
X-106.585 A55 F1498.3653
X-106.545 A56 F1498.2609
A56 F369857.8846
X-106.506 A57 F1495.3666
X-106.467 A59 F1498.3899
X-106.427 A60 F1498.2316
A60 F393136.0141
X-106.388 A61 F1497.4717
X-106.349 A62 F1498.2307
X-106.309 A63 F1500.5423
A63 F351008.2187
X-106.27 A65 F1498.5589
X-106.23 A66 F1500.5423
A66 F350879.2005
X-106.191 A67 F1498.5576
X-106.151 A68 F1500.5425
A68 F350926.4552
X-106.112 A70 F1498.5585
X-106.072 A71 F1500.5417
X-106.032 A72 F1494.8773
A72 F369787.5929
X-105.993 A73 F1498.3934
X-105.953 A75 F1498.2617
A75 F369890.0767
X-105.914 A76 F1498.3618
X-105.874 A77 F1498.2607
X-105.834 A78 F1492.7749
A78 F390888.3857
X-105.795 A79 F1498.3945
X-105.755 A81 F1498.262
X-105.715 A82 F1492.9359
X-105.675 A83 F1495.3963
A83 F369841.4452
X-105.636 A84 F1498.3622
X-105.596 A86 F1498.2608
X-105.556 A87 F1492.9371
X-105.516 A88 F1495.3141
X-105.476 A89 F1495.3149
A89 F369849.7871
X-105.437 A91 F1498.3936
X-105.397 A92 F1498.4248
X-105.357 A93 F1497.5043
X-105.317 A94 F1495.0388
X-105.277 A95 F1497.5357
X-105.237 A97 F1495.0383
X-105.197 A98 F1497.538
X-105.157 A99 F1495.0378
X-105.117 A100 F1497.5358
X-105.077 A102 F1495.0382
X-105.037 A103 F1497.5371
X-104.997 A104 F1494.8757
X-104.957 A105 F1495.2312
X-104.917 A107 F1495.2338
X-104.877 A108 F1498.2303
X-104.836 A109 F1498.1261
A109 F369796.5151
X-104.796 A110 F1495.2336
X-104.756 A111 F1495.2178
X-104.716 A113 F1495.2173
X-104.676 A114 F1495.9556
X-104.635 A115 F1498.2871
A115 F369942.283
X-104.595 A116 F1495.2317
X-104.555 A118 F1492.9377
X-104.515 A119 F1498.4259
X-104.474 A120 F1498.0927
A120 F371832.445
X-104.434 A121 F1498.2272
X-104.393 A123 F1498.1261
A123 F369837.7314
X-104.353 A124 F1495.236
X-104.313 A125 F1498.2278
X-104.272 A126 F1498.1234
A126 F369921.3104
X-104.232 A127 F1498.4247
X-104.191 A129 F1500.4424
A129 F348951.0446
X-104.151 A130 F1498.4258
X-104.11 A131 F1500.4395
A131 F349146.9079
X-104.07 A132 F1498.4245
X-104.029 A134 F1500.4402
A134 F349046.6144
X-103.989 A135 F1498.4256
X-103.948 A136 F1500.4381
A136 F349171.2978
X-103.908 A137 F1498.2647
X-103.867 A139 F1498.2877
X-103.826 A140 F1497.4007
A140 F349144.0433
X-103.786 A141 F1498.2595
X-103.745 A142 F1498.0964
A142 F350922.289
X-103.705 A143 F1496.2809
X-103.675 A144 F1994.8658
X-103.644 A145 F1994.8661
X-103.613 A146 F1994.865
X-103.582 A147 F1994.8688
A147 F350989.0456
X-103.542 A148 F1496.3117
X-103.501 A150 F1496.6763
X-103.46 A151 F1496.676
X-103.419 A152 F1492.8024
X-103.378 A153 F1495.2588
A153 F369980.5311
X-103.338 A155 F1498.2599
X-103.297 A156 F1495.8864
X-103.256 A157 F1495.8862
X-103.215 A158 F1495.8856
X-103.174 A160. F1495.8868
X-103.133 A161 F1497.4017
X-103.092 A162 F1494.7381
X-103.051 A163 F1495.2621
X-103.01 A164 F1497.3017
X-102.969 A166 F1497.3033
X-102.928 A167 F1494.9032
X-102.887 A168 F1497.4007
X-102.846 A169 F1494.7405
X-102.805 A171 F1495.2598
X-102.764 A172 F1500.242
X-102.723 A173 F1497.7922
X-102.722 A173 F369784.6941
X-102.692 A174 F1993.4628
X-102.661 A175 F1993.4641
X-102.63 A176 F1993.4652
X-102.599 A177 F1993.4625
X-102.558 A178 F1497.9301
X-102.517 A179 F1495.6833
X-102.516 A179 F390782.9223
X-102.475 A180 F1495.0976
X-102.434 A182 F1495.0977
X-102.393 A183 F1495.8207
X-102.352 A184 F1498.1506
X-102.351 A184 F369781.2235
X-102.31 A185 F1495.0981
X-102.269 A187 F1497.8974
X-102.228 A188 F1495.6832
X-102.227 A188 F395268.2544
X-102.186 A189 F1495.0977
X-102.145 A190 F1498.0931
X-102.104 A192 F1497.955
X-102.103 A192 F395302.6888
X-102.062 A193 F1500.0468
X-102.021 A194 F1497.8224
X-102.02 A194 F369872.9786
X-101.979 A195 F1498.2889
X-101.938 A196 F1500.2974
X-101.937 A196 F347505.9933
X-101.896 A198 F1498.2886
X-101.855 A199 F1500.3001
X-101.854 A199 F350816.0405
X-101.813 A200 F1498.289
X-101.772 A201 F1500.2987
X-101.73 A203 F1494.5692
X-101.729 A203 F395414.1218
X-101.688 A204 F1500.0455
X-101.647 A205 F1497.8224
X-101.646 A205 F369756.6689
X-101.605 A206 F1498.0937
X-101.574 A207 F1994.6091
X-101.543 A208 F1994.6103
X-101.511 A209 F1994.607
X-101.48 A210 F1994.6071
X-101.479 A210 F369875.1877
X-101.438 A211 F1498.0921
X-101.397 A212 F1498.0214
X-101.355 A214 F1492.6321
X-101.313 A215 F1495.1529
X-101.312 A215 F369845.369
X-101.271 A216 F1497.8963
X-101.23 A217 F1495.8781
X-101.188 A219 F1495.025
X-101.146 A220 F1495.0238
X-101.104 A221 F1492.696
X-101.062 A222 F1495.0256
X-101.02 A224 F1495.0238
X-101.019 A224 F369777.6596
X-100.978 A225 F1498.2879
X-100.937 A226 F1500.2997
X-100.895 A227 F1494.6354
X-100.853 A228 F1495.0865
X-100.811 A230 F1497.2941
X-100.769 A231 F1497.7612
X-100.726 A232 F1500.1564
A232 F350851.0924
X-100.684 A233 F1495.0869
X-100.642 A235 F1497.2969
X-100.6 A236 F1494.7631
X-100.558 A237 F1497.227
X-100.516 A238 F1494.5703
X-100.474 A240 F1495.1547
X-100.432 A241 F1500.1021
X-100.389 A242 F1497.6817
A242 F369764.3934
X-100.347 A243 F1494.9598
X-100.305 A244 F1492.6317
X-100.263 A246 F1498.1494
X-100.22 A247 F1497.8122
A247 F369660.6357
X-100.178 A248 F1494.9604
X-100.136 A249 F1495.6833
X-100.093 A251 F1498.0075
A251 F369782.7181
X-100.051 A252 F1494.9596
X-100.009 A253 F1497.825
X-99.966 A254 F1495.4736
A254 F395256.3266
X-99.924 A256 F1494.9596
X-99.882 A257 F1497.9549
X-99.839 A258 F1497.878
A258 F390726.9318
X-99.797 A259 F1499.972
X-99.754 A260 F1497.6161
A260 F369777.5618
X-99.712 A262 F1498.151
X-99.669 A263 F1500.1559
A263 F350856.5721
X-99.627 A264 F1498.1509
X-99.584 A265 F1500.1561
X-99.541 A267 F1494.4267
A267 F395261.3514
X-99.499 A268 F1499.9058
X-99.456 A269 F1497.6172
A269 F373721.3594
X-99.414 A270 F1498.1507
X-99.371 A272 F1500.156
X-99.328 A273 F1494.4278
X-99.285 A274 F1494.8173
A274 F369724.154
X-99.243 A275 F1497.9544
X-99.2 A277. F1497.8134
X-99.157 A278 F1492.3596
A278 F395280.5062
X-99.115 A279 F1497.9539
X-99.072 A280 F1497.8127
X-99.029 A281 F1492.4917
X-98.986 A283 F1494.914
X-98.943 A284 F1494.914
X-98.9 A285 F1492.4904
X-98.857 A286 F1495.0123
A286 F369690.7544
X-98.815 A288 F1497.9538
X-98.761 A289 F1196.365
X-98.707 A291 F1196.3618
X-98.653 A292 F1196.3648
X-98.6 A294 F1196.3625
X-98.557 A295 F1497.0853
X-98.514 A296 F1494.6246
X-98.471 A297 F1497.1491
X-98.428 A299 F1497.617
X-98.384 A300 F1500.0117
A300 F369604.4844
X-98.341 A301 F1496.956
X-98.298 A302 F1494.6226
X-98.255 A304 F1497.1523
X-98.212 A305 F1494.4285
X-98.169 A306 F1494.8158
X-98.126 A307 F1497.8137
X-98.082 A309 F1497.6645
A309 F369588.7116
X-98.039 A310 F1495.4714
X-97.996 A311 F1495.6317
X-97.952 A312 F1494.9367
X-97.909 A313 F1494.9358
X-97.866 A315 F1492.7712
X-97.822 A316 F1495.2145
X-97.779 A317 F1494.2533
X-97.736 A318 F1492.9496
X-97.692 A320 F1494.9583
X-97.649 A321 F1492.7549
X-97.605 A322 F1495.199
X-97.562 A323 F1494.4361
X-97.529 A324 F1993.1937
X-97.497 A325 F1993.1986
X-97.464 A326 F1993.1949
X-97.431 A327 F1993.1958
X-97.388 A328 F1497.2074
X-97.344 A329 F1494.797
X-97.301 A331 F1494.6131
X-97.257 A332 F1497.1623
X-97.214 A333 F1497.1617
X-97.17 A334 F1494.7833
X-97.126 A336 F1496.9325
X-97.083 A337 F1497.1781
X-97.039 A338 F1494.2122
X-96.995 A339 F1497.441
X-96.952 A341 F1494.7659
X-96.908 A342 F1494.6506
X-96.864 A343 F1497.295
X-96.82 A344 F1493.807
X-96.777 A345 F1493.218
X-96.733 A347 F1495.141
X-96.689 A348 F1494.1173
X-96.645 A349 F1494.7664
X-96.601 A350 F1492.8785
X-96.557 A352 F1494.8807
X-96.513 A353 F1492.3608
X-96.47 A354 F1495.1408
X-96.426 A355 F1494.9964
X-96.382 A357 F1492.152
X-96.338 A358 F1494.7513
X-96.294 A359 F1495.2568
X-96.25 A0 F1494.9821
X-96.206 A1 F1494.3474
X-96.161 A3 F1494.8851
X-96.117 A4 F1494.8836
X-96.073 A5 F1496.9901
X-96.029 A6 F1494.4625
X-95.985 A8 F1497.0556
X-95.941 A9 F1494.7729
X-95.897 A10 F1496.6658
X-95.853 A11 F1494.9023
X-95.808 A13 F1497.0396
X-95.764 A14 F1494.7587
X-95.72 A15 F1496.6487
X-95.687 A16 F1992.8657
X-95.653 A17 F1992.8655
X-95.62 A18 F1992.8669
X-95.587 A19 F1992.8646
X-95.543 A20 F1494.9544
X-95.498 A21 F1494.8726
X-95.454 A22 F1494.1073
X-95.41 A24 F1492.8052
X-95.365 A25 F1494.7751
X-95.321 A26 F1494.7771
X-95.276 A27 F1492.5298
X-95.232 A29 F1494.678
X-95.187 A30 F1494.759
X-95.143 A31 F1494.7604
X-95.098 A32 F1492.5983
X-95.054 A34 F1495.0386
X-95.009 A35 F1494.2703
X-94.965 A36 F1495.1057
X-94.92 A37 F1496.8496
X-94.876 A38 F1494.3875
X-94.831 A40 F1496.9851
X-94.786 A41 F1494.6933
X-94.742 A42 F1496.5927
X-94.697 A43 F1494.8277
X-94.652 A45 F1496.9017
X-94.608 A46 F1494.6985
X-94.563 A47 F1497.1467
X-94.518 A48 F1494.1643
X-94.473 A50 F1494.4364
X-94.428 A51 F1497.2788
X-94.384 A52 F1494.603
X-94.339 A53 F1493.9685
X-94.294 A54 F1492.5528
X-94.26 A55 F1992.9718
X-94.227 A56 F1992.9775
X-94.193 A57 F1992.9791
X-94.159 A58 F1992.9826
X-94.114 A59 F1492.4566
X-94.069 A61 F1494.6651
X-94.024 A62 F1494.7865
X-93.979 A63 F1492.1956
X-93.934 A64 F1494.7184
X-93.889 A66 F1494.8481
X-93.844 A67 F1494.7672
X-93.799 A68 F1494.1999
X-93.754 A69 F1494.6708
X-93.709 A70 F1494.6717
X-93.664 A72 F1494.9621
X-93.619 A73 F1497.0872
X-93.574 A74 F1494.0523
X-93.529 A75 F1497.0877
X-93.483 A77 F1494.2979
X-93.438 A78 F1496.8913
X-93.393 A79 F1494.6086
X-93.348 A80 F1496.4992
X-93.302 A82 F1494.5436
X-93.257 A83 F1494.6728
X-93.212 A84 F1496.8107
X-93.166 A85 F1494.3479
X-93.121 A86 F1494.7886
X-93.076 A88 F1494.153
X-93.03 A89 F1494.7235
X-92.985 A90 F1492.1369
X-92.94 A91 F1494.9825
X-92.894 A93 F1494.7084
X-92.849 A94 F1491.8778
X-92.803 A95 F1494.6753
X-92.758 A96 F1494.6757
X-92.712 A98 F1492.4454
X-92.667 A99 F1494.8879
X-92.621 A100 F1494.1881
X-92.576 A101 F1494.5623
X-92.53 A102 F1494.5624
X-92.484 A104 F1494.9527
X-92.439 A105 F1497.0108
X-92.393 A106 F1493.7168
X-92.347 A107 F1494.9381
X-92.302 A109 F1496.6852
X-92.256 A110 F1494.2224
X-92.21 A111 F1496.7499
X-92.165 A112 F1494.484
X-92.119 A114 F1496.9937
X-92.073 A115 F1494.2068
X-92.027 A116 F1496.7339
X-91.981 A117 F1494.2735
X-91.935 A118 F1494.7118
X-91.89 A120 F1494.075
X-91.844 A121 F1494.4826
X-91.798 A122 F1494.487
X-91.752 A123 F1494.4849
X-91.706 A125 F1494.4826
X-91.66 A126 F1492.566
X-91.614 A127 F1494.4375
X-91.568 A128 F1494.4352
X-91.522 A130 F1492.047
X-91.476 A131 F1494.566
X-91.43 A132 F1494.698
X-91.384 A133 F1494.6166
X-91.338 A135 F1492.0286
X-91.292 A136 F1494.7436
X-91.246 A137 F1496.8201
X-91.2 A138 F1494.407
X-91.153 A139 F1494.0286
X-91.107 A141 F1494.8636
X-91.061 A142 F1496.6706
X-91.015 A143 F1494.4087
X-90.969 A144 F1496.9171
X-90.922 A146 F1495.9553
X-90.876 A147 F1494.6494
X-90.83 A148 F1496.5912
X-90.783 A149 F1493.9385
X-90.737 A151 F1494.6477
X-90.691 A152 F1494.7664
X-90.644 A153 F1496.6409
X-90.598 A154 F1493.7422
X-90.552 A155 F1492.5508
X-90.505 A157 F1494.1169
X-90.459 A158 F1494.5679
X-90.412 A159 F1494.6195
X-90.366 A160 F1491.9708
X-90.319 A162 F1494.3592
X-90.273 A163 F1494.3592
X-90.226 A164 F1492.2944
X-90.168 A166 F1195.547
X-90.11 A167 F1195.5472
X-90.052 A169 F1195.5481
X-89.993 A170 F1195.5475
X-89.947 A171 F1494.522
X-89.9 A173 F1494.2142
X-89.853 A174 F1496.856
X-89.807 A175 F1494.3276
X-89.76 A176 F1496.9054
X-89.713 A178 F1493.7441
X-89.666 A179 F1496.8401
X-89.62 A180 F1494.0526
X-89.573 A181 F1496.5783
X-89.526 A183 F1493.9883
X-89.479 A184 F1496.7102
X-89.421 A185 F1195.4062
X-89.362 A187 F1195.4065
X-89.303 A188 F1195.406
X-89.245 A190 F1195.4062
X-89.198 A191 F1492.2153
X-89.151 A192 F1494.2976
X-89.104 A194 F1494.606
X-89.057 A195 F1492.2003
X-89.01 A196 F1494.0203
X-88.963 A197 F1494.4782
X-88.916 A199 F1494.5249
X-88.868 A200 F1491.8745
X-88.821 A201 F1494.3979
X-88.774 A202 F1494.4594
X-88.727 A203 F1494.5099
X-88.68 A205 F1494.0709
X-88.633 A206 F1496.7766
X-88.586 A207 F1493.7944
X-88.538 A208 F1494.7036
X-88.491 A210 F1496.7621
X-88.444 A211 F1493.6638
X-88.397 A212 F1496.8275
X-88.349 A213 F1493.9092
X-88.302 A215 F1496.5019
X-88.255 A216 F1494.2325
X-88.207 A217 F1496.8132
X-88.16 A218 F1493.6955
X-88.113 A219 F1494.1714
X-88.065 A221 F1494.7209
X-88.018 A222 F1493.5699
X-87.97 A223 F1494.4124
X-87.923 A224 F1494.3013
X-87.875 A226 F1494.3
X-87.828 A227 F1491.8116
X-87.78 A228 F1494.2702
X-87.733 A229 F1494.267
X-87.685 A231 F1492.3135
X-87.65 A232 F1992.2498
X-87.614 A232 F1992.2518
X-87.578 A233 F1992.249
X-87.542 A234 F1992.2444
X-87.495 A236 F1492.0584
X-87.447 A237 F1494.6264
X-87.4 A238 F1496.1254
X-87.352 A239 F1494.1701
X-87.304 A240 F1494.6257
X-87.256 A242 F1496.6814
X-87.209 A243 F1493.6516
X-87.161 A244 F1496.6821
X-87.113 A245 F1493.8945
X-87.065 A247 F1496.3555
X-87.018 A248 F1493.8949
X-86.97 A249 F1496.4857
X-86.922 A250 F1494.1388
X-86.874 A252 F1494.1391
X-86.826 A253 F1494.2682
X-86.778 A254 F1496.3402
X-86.73 A255 F1493.748
X-86.682 A256 F1492.253
X-86.646 A257 F1992.1636
X-86.61 A258 F1992.166
X-86.574 A259 F1992.1609
X-86.538 A260 F1992.164
X-86.49 A261 F1491.7343
X-86.442 A263 F1494.5775
X-86.394 A264 F1494.3022
X-86.346 A265 F1491.7176
X-86.298 A266 F1494.2374
X-86.25 A268 F1494.3009
X-86.202 A269 F1494.2862
X-86.154 A270 F1493.8462
X-86.105 A271 F1494.1558
X-86.057 A272 F1494.1558
X-86.009 A274 F1494.4803
X-85.961 A275 F1496.6665
X-85.913 A276 F1493.4413
X-85.864 A277 F1496.6657
X-85.816 A279 F1493.8161
X-85.768 A280 F1496.275
X-85.719 A281 F1494.2027
X-85.671 A282 F1496.521
X-85.623 A284 F1493.7983
X-85.574 A285 F1496.2591
X-85.526 A286 F1493.6691
X-85.477 A287 F1493.9282
X-85.429 A288 F1494.3185
X-85.38 A290 F1494.1083
X-85.332 A291 F1494.106
X-85.283 A292 F1491.7185
X-85.235 A293 F1494.1714
X-85.186 A295 F1494.173
X-85.138 A296 F1494.2884
X-85.089 A297 F1491.7014
X-85.041 A298 F1494.0245
X-84.992 A300 F1494.0268
X-84.943 A301 F1491.9628
X-84.895 A302 F1494.2061
X-84.846 A303 F1494.2042
X-84.797 A304 F1493.8933
X-84.749 A306 F1494.5144
X-84.7 A307 F1495.8225
X-84.651 A308 F1493.8791
X-84.603 A309 F1494.3841
X-84.554 A311 F1496.3212
X-84.505 A312 F1493.7345
X-84.456 A313 F1496.1967
X-84.407 A314 F1496.1913
X-84.358 A316 F1493.9767
X-84.31 A317 F1494.1097
X-84.261 A318 F1496.1765
X-84.212 A319 F1493.4552
X-84.163 A320 F1494.2378
X-84.102 A322 F1195.1707
X-84.04 A324 F1195.1685
X-83.979 A325 F1195.1699
X-83.918 A327 F1195.1675
X-83.869 A328 F1491.7688
X-83.82 A329 F1494.1386
X-83.771 A330 F1494.1402
X-83.722 A332 F1491.6201
X-83.672 A333 F1494.3339
X-83.623 A334 F1494.1891
X-83.574 A335 F1493.5534
X-83.537 A336 F1992.0825
X-83.5 A337 F1992.0751
X-83.464 A338 F1992.0785
X-83.427 A339 F1992.0805
X-83.377 A340 F1494.0401
X-83.328 A341 F1493.7985
X-83.279 A343 F1496.5028
X-83.23 A344 F1493.6524
X-83.18 A345 F1496.1114
X-83.131 A346 F1493.9126
X-83.082 A348 F1496.487
X-83.032 A349 F1493.3752
X-82.983 A350 F1495.8516
X-82.933 A351 F1494.2851
X-82.884 A353 F1494.1389
X-82.835 A354 F1495.834
X-82.785 A355 F1493.8141
X-82.736 A356 F1493.814
X-82.686 A357 F1491.5556
X-82.637 A359 F1494.0092
X-82.587 A0 F1494.0103
X-82.537 A1 F1494.1219
X-82.488 A2 F1491.2807
X-82.438 A4 F1494.2672
X-82.389 A5 F1494.3669
X-82.339 A6 F1490.8924
X-82.289 A7 F1494.252
X-82.24 A9 F1493.9119
X-82.19 A10 F1493.9107
X-82.14 A11 F1493.9103
X-82.091 A12 F1493.9121
X-82.041 A13 F1494.0883
X-81.991 A15 F1493.7152
X-81.941 A16 F1496.4189
X-81.892 A17 F1493.8313
X-81.842 A18 F1496.2737
X-81.792 A20 F1493.3076
X-81.742 A21 F1496.4032
X-81.692 A22 F1493.1815
X-81.642 A23 F1496.4025
X-81.592 A25 F1493.8127
X-81.542 A26 F1496.3857
X-81.493 A27 F1493.0345
X-81.443 A28 F1493.7961
X-81.393 A29 F1493.7941
X-81.343 A31 F1493.796
X-81.293 A32 F1493.7967
X-81.242 A33 F1491.718
X-81.192 A34 F1493.9271
X-81.142 A36 F1493.8416
X-81.092 A37 F1493.8469
X-81.042 A38 F1491.695
X-80.992 A39 F1493.7817
X-80.942 A41 F1494.0233
X-80.892 A42 F1491.0665
X-80.841 A43 F1494.0898
X-80.791 A44 F1494.0868
X-80.741 A45 F1494.0072
X-80.691 A47 F1493.6283
X-80.641 A48 F1496.3391
X-80.59 A49 F1493.2272
X-80.54 A50 F1493.8752
X-80.49 A52 F1496.3365
X-80.439 A53 F1496.0582
X-80.389 A54 F1493.2098
X-80.339 A55 F1495.6855
X-80.288 A57 F1494.249
X-80.238 A58 F1496.3012
X-80.187 A59 F1492.9498
X-80.124 A61 F1195.0122
X-80.061 A62 F1195.0108
X-79.998 A64 F1195.0121
X-79.935 A65 F1195.0097
X-79.884 A66 F1493.8282
X-79.834 A68 F1493.1904
X-79.783 A69 F1491.7629
X-79.732 A70 F1494.2152
X-79.682 A71 F1493.8082
X-79.631 A73 F1490.9862
X-79.58 A74 F1493.8082
X-79.53 A75 F1493.8091
X-79.479 A76 F1493.8072
X-79.428 A77 F1493.809
X-79.378 A79 F1493.9209
X-79.327 A80 F1493.2895
X-79.276 A81 F1493.8566
X-79.225 A82 F1493.8568
X-79.175 A84 F1495.9894
X-79.124 A85 F1493.6456
X-79.073 A86 F1495.7292
X-79.022 A87 F1493.7756
X-78.971 A89 F1495.974
X-78.92 A90 F1493.3843
X-78.869 A91 F1495.9742
X-78.818 A92 F1493.6283
X-78.767 A94 F1493.5143
X-78.716 A95 F1496.0873
X-78.665 A96 F1493.4971
X-78.614 A97 F1493.7419
X-78.563 A98 F1493.1079
X-78.512 A100 F1491.6772
X-78.461 A101 F1493.6767
X-78.41 A102 F1493.676
X-78.359 A103 F1491.1591
X-78.308 A105 F1494.1283
X-78.257 A106 F1493.7244
X-78.205 A107 F1491.014
X-78.154 A108 F1494.0005
X-78.103 A110 F1494.0964
X-78.052 A111 F1492.9448
X-78.001 A112 F1493.7233
X-77.949 A113 F1493.7711
X-77.898 A114 F1493.7724
X-77.847 A116 F1495.9036
X-77.795 A117 F1493.3184
X-77.744 A118 F1494.0798
X-77.693 A119 F1495.7567
X-77.641 A121 F1493.0558
X-77.59 A122 F1496.4101
X-77.538 A123 F1495.8714
X-77.487 A124 F1492.781
X-77.436 A126 F1493.6739
X-77.384 A127 F1495.6262
X-77.333 A128 F1493.5414
X-77.281 A129 F1493.6743
X-77.23 A130 F1493.7879
X-77.178 A132 F1493.1482
X-77.126 A133 F1493.7855
X-77.075 A134 F1491.0776
X-77.023 A135 F1493.6518
X-76.972 A137 F1493.7867
X-76.92 A138 F1493.7684
X-76.868 A139 F1490.8149
X-76.817 A140 F1493.704
X-76.765 A142 F1493.7034
X-76.713 A143 F1491.4273
X-76.662 A144 F1493.6378
X-76.61 A145 F1493.6217
X-76.558 A146 F1493.1178
X-76.506 A148 F1494.01
X-76.454 A149 F1495.8168
X-76.403 A150 F1493.4741
X-76.351 A151 F1495.4295
X-76.299 A153 F1493.733
X-76.247 A154 F1495.8015
X-76.195 A155 F1493.0857
X-76.143 A156 F1495.8016
X-76.091 A158 F1493.716
X-76.039 A159 F1495.7831
X-75.987 A160 F1492.5646
X-75.935 A161 F1493.9774
X-75.883 A162 F1493.6986
X-75.831 A164 F1493.0666
X-75.779 A165 F1493.4393
X-75.727 A166 F1493.4379
X-75.675 A167 F1493.438
X-75.623 A169 F1493.4405
X-75.571 A170 F1491.3755
X-75.519 A171 F1493.8129
X-75.466 A172 F1492.9182
X-75.414 A174 F1491.4901
X-75.362 A175 F1493.9394
X-75.31 A176 F1493.5357
X-75.258 A177 F1493.1603
X-75.205 A178 F1493.4037
X-75.153 A180 F1493.405
X-75.101 A181 F1493.4037
X-75.048 A182 F1493.4038
X-74.996 A183 F1493.7948
X-74.944 A185 F1495.9751
X-74.891 A186 F1493.1264
X-74.839 A187 F1495.5848
X-74.786 A188 F1493.1268
X-74.734 A190 F1495.7151
X-74.682 A191 F1493.628
X-74.629 A192 F1495.5668
X-74.577 A193 F1492.8504
X-74.524 A195 F1493.4989
X-74.472 A196 F1495.8268
X-74.419 A197 F1493.3508
X-74.366 A198 F1492.9817
X-74.314 A199 F1493.4808
X-74.261 A201 F1491.033
X-74.209 A202 F1493.7412
X-74.156 A203 F1493.5927
X-74.103 A204 F1490.7542
X-74.051 A206 F1493.3517
X-73.998 A207 F1493.5937
X-73.945 A208 F1491.2576
X-73.893 A209 F1493.0725
X-73.84 A211 F1493.5944
X-73.8 A211 F1991.261
X-73.761 A212 F1991.2644
X-73.721 A213 F1991.261
X-73.681 A214 F1991.2642
X-73.629 A215 F1493.558
X-73.576 A217 F1495.2528
X-73.523 A218 F1493.2993
X-73.47 A219 F1493.4282
X-73.417 A220 F1495.4964
X-73.364 A222 F1495.4979
X-73.311 A223 F1493.2978
X-73.258 A224 F1495.8702
X-73.205 A225 F1492.6313
X-73.152 A227 F1493.54
X-73.099 A228 F1495.6118
X-73.046 A229 F1493.2598
X-72.993 A230 F1492.8926
X-72.953 A231 F1991.0206
X-72.914 A232 F1991.0161
X-72.874 A233 F1991.0211
X-72.834 A234 F1991.0191
X-72.781 A235 F1491.203
X-72.728 A236 F1493.4391
X-72.674 A238 F1493.4399
X-72.621 A239 F1492.615
X-72.568 A240 F1491.7053
X-72.515 A241 F1493.7465
X-72.462 A243 F1492.5974
X-72.408 A244 F1491.297
X-72.355 A245 F1493.2943
X-72.302 A246 F1493.2916
X-72.248 A247 F1493.3595
X-72.195 A249 F1495.5548
X-72.142 A250 F1493.211
X-72.088 A251 F1493.34
X-72.035 A252 F1495.5382
X-71.982 A254 F1492.9477
X-71.928 A255 F1495.5387
X-71.875 A256 F1493.1934
X-71.821 A257 F1495.1466
X-71.768 A259 F1493.4524
X-71.714 A260 F1495.5196
X-71.661 A261 F1493.1753
X-71.607 A262 F1492.8031
X-71.54 A264 F1194.5816
X-71.473 A265 F1194.5818
X-71.406 A267 F1194.5815
X-71.339 A268 F1194.5815
X-71.286 A270 F1493.4153
X-71.232 A271 F1490.7091
X-71.178 A272 F1493.1574
X-71.124 A273 F1493.1571
X-71.071 A275 F1491.0967
X-71.017 A276 F1493.6571
X-70.963 A277 F1492.7681
X-70.909 A278 F1493.334
X-70.856 A279 F1493.3347
X-70.802 A281 F1493.3812
X-70.748 A282 F1492.7485
X-70.694 A283 F1493.3156
X-70.64 A284 F1493.3156
X-70.586 A286 F1495.4485
X-70.532 A287 F1492.7324
X-70.479 A288 F1495.7077
X-70.425 A289 F1495.4313
X-70.37 A291 F1492.8439
X-70.317 A292 F1495.4282
X-70.262 A293 F1492.4544
X-70.209 A294 F1493.6245
X-70.154 A295 F1495.6703
X-70.1 A297 F1492.1951
X-70.046 A298 F1493.3455
X-69.992 A299 F1493.347
X-69.938 A300 F1493.3238
X-69.884 A302 F1490.3798
X-69.83 A303 F1493.2598
X-69.776 A304 F1493.2633
X-69.721 A305 F1490.6204
X-69.667 A307 F1493.1298
X-69.613 A308 F1493.1316
X-69.559 A309 F1491.118
X-69.518 A310 F1990.7336
X-69.477 A311 F1990.7381
X-69.436 A312 F1990.7276
X-69.396 A313 F1990.7391
X-69.341 A314 F1493.305
X-69.287 A315 F1493.227
X-69.233 A316 F1493.2248
X-69.178 A318 F1495.3583
X-69.124 A319 F1492.6433
X-69.069 A320 F1495.3569
X-69.015 A321 F1493.03
X-68.961 A323 F1495.598
X-68.906 A324 F1492.7519
X-68.852 A325 F1495.2091
X-68.797 A326 F1493.0133
X-68.743 A328 F1495.5826
X-68.688 A329 F1492.2339
X-68.647 A330 F1990.7774
X-68.606 A331 F1990.7771
X-68.565 A332 F1990.7741
X-68.524 A332 F1990.7752
X-68.47 A334 F1493.2371
X-68.415 A335 F1492.4742
X-68.36 A336 F1491.0459
X-68.319 A337 F1990.6359
X-68.278 A338 F1990.6355
X-68.237 A339 F1990.6357
X-68.196 A340 F1990.6351
X-68.141 A341 F1491.1587
X-68.087 A342 F1493.0871
X-68.032 A344 F1492.3301
X-67.977 A345 F1491.4151
X-67.922 A346 F1493.459
X-67.867 A347 F1492.5692
X-67.813 A348 F1493.3311
X-67.758 A350 F1495.2657
X-67.703 A351 F1492.4209
X-67.648 A352 F1493.07
X-67.593 A353 F1495.2669
X-67.538 A355 F1492.9211
X-67.483 A356 F1494.8761
X-67.428 A357 F1493.4413
X-67.373 A358 F1495.4892
X-67.318 A0 F1492.0137
X-67.263 A1 F1495.2485
X-67.222 A2 F1990.4794
X-67.18 A3 F1990.4814
X-67.139 A4 F1990.4811
X-67.098 A4 F1990.4795
X-67.043 A6 F1493.1622
X-66.987 A7 F1493.1462
X-66.932 A8 F1492.5139
X-66.877 A9 F1492.9486
X-66.822 A11 F1492.9512
X-66.767 A12 F1490.8252
X-66.711 A13 F1493.257
X-66.656 A14 F1492.2368
X-66.601 A16 F1491.0664
X-66.546 A17 F1492.8671
X-66.49 A18 F1492.8661
X-66.435 A19 F1493.1267
X-66.38 A20 F1492.9135
X-66.324 A22 F1492.9143
X-66.269 A23 F1492.9146
X-66.213 A24 F1492.9132
X-66.158 A25 F1495.1725
X-66.103 A27 F1492.8475
X-66.047 A28 F1495.4171
X-65.992 A29 F1492.4403
X-65.936 A30 F1495.1555
X-65.881 A32 F1492.4393
X-65.825 A33 F1495.2854
X-65.77 A34 F1492.8133
X-65.714 A35 F1492.9399
X-65.658 A36 F1495.0082
X-65.603 A38 F1492.2918
X-65.547 A39 F1493.0722
X-65.491 A40 F1493.0522
X-65.436 A41 F1492.1638
X-65.38 A43 F1490.8631
X-65.324 A44 F1493.3094
X-65.269 A45 F1493.0359
X-65.213 A46 F1490.0846
X-65.157 A48 F1492.9726
X-65.101 A49 F1492.9659
X-65.046 A50 F1490.3276
X-64.99 A51 F1492.9072
X-64.934 A53 F1493.0299
X-64.892 A53 F1990.4631
X-64.85 A54 F1990.4523
X-64.808 A55 F1990.4599
X-64.766 A56 F1990.4589
X-64.71 A57 F1495.0791
X-64.655 A59 F1492.4953
X-64.599 A60 F1492.9992
X-64.543 A61 F1494.6896
X-64.487 A62 F1492.9972
X-64.431 A64 F1495.062
X-64.375 A65 F1492.7195
X-64.319 A66 F1494.6696
X-64.262 A67 F1492.72
X-64.206 A69 F1495.0617
X-64.15 A70 F1492.9594
X-64.094 A71 F1492.0698
X-64.038 A72 F1492.8494
X-63.982 A73 F1492.9582
X-63.926 A75 F1492.3308
X-63.87 A76 F1493.0883
X-63.813 A77 F1490.4934
X-63.757 A78 F1492.5702
X-63.701 A80 F1492.5718
X-63.645 A81 F1490.8807
X-63.588 A82 F1492.8118
X-63.532 A83 F1492.9398
X-63.476 A85 F1492.9222
X-63.419 A86 F1492.0325
X-63.363 A87 F1490.4753
X-63.307 A88 F1493.3301
X-63.25 A89 F1495.6188
X-63.194 A91 F1491.4959
X-63.137 A92 F1493.0523
X-63.081 A93 F1495.2285
X-63.024 A94 F1492.3841
X-62.968 A96 F1494.9681
X-62.911 A97 F1492.2544
X-62.855 A98 F1494.9687
X-62.798 A99 F1492.6245
X-62.742 A101 F1494.7081
X-62.685 A102 F1492.496
X-62.629 A103 F1492.8847
X-62.572 A104 F1492.8654
X-62.515 A105 F1492.2358
X-62.444 A107 F1194.0846
X-62.374 A109 F1194.0851
X-62.303 A110 F1194.0851
X-62.232 A112 F1194.0842
X-62.175 A113 F1490.659
X-62.118 A114 F1492.6509
X-62.061 A115 F1492.6547
X-62.005 A117 F1490.139
X-61.948 A118 F1493.1071
X-61.891 A119 F1492.8255
X-61.834 A120 F1492.199
X-61.777 A121 F1493.0866
X-61.72 A123 F1492.6836
X-61.663 A124 F1491.9167
X-61.606 A125 F1493.0894
X-61.549 A126 F1495.1356
X-61.492 A128 F1492.1573
X-61.435 A129 F1494.8738
X-61.378 A130 F1492.5506
X-61.321 A131 F1495.1119
X-61.264 A133 F1491.9022
X-61.207 A134 F1495.1164
X-61.15 A135 F1492.2675
X-61.093 A136 F1494.8582
X-61.036 A137 F1492.5106
X-60.979 A139 F1492.1404
X-60.936 A140 F1990.0706
X-60.893 A141 F1990.0766
X-60.85 A141 F1990.0687
X-60.807 A142 F1990.0772
X-60.75 A144 F1490.324
X-60.693 A145 F1493.0115
X-60.636 A146 F1491.8614
X-60.578 A147 F1490.5676
X-60.521 A149 F1493.0089
X-60.464 A150 F1492.7322
X-60.406 A151 F1489.6587
X-60.349 A152 F1492.9929
X-60.292 A154 F1492.1037
X-60.234 A155 F1492.9931
X-60.177 A156 F1492.7115
X-60.119 A157 F1492.0861
X-60.062 A158 F1494.7978
X-60.004 A160 F1492.7124
X-59.947 A161 F1494.6497
X-59.889 A162 F1492.4529
X-59.832 A163 F1495.019
X-59.774 A165 F1491.8068
X-59.717 A166 F1495.0195
X-59.659 A167 F1492.1743
X-59.602 A168 F1494.7586
X-59.544 A170 F1491.7882
X-59.486 A171 F1492.6928
X-59.414 A172 F1193.9333
X-59.342 A174 F1193.9323
X-59.27 A175 F1193.933
X-59.198 A177 F1193.9329
X-59.14 A178 F1490.4688
X-59.082 A179 F1492.4613
X-59.024 A181 F1492.462
X-58.967 A182 F1489.9514
X-58.909 A183 F1492.9153
X-58.851 A184 F1492.6369
X-58.793 A186 F1492.0078
X-58.735 A187 F1492.5079
X-58.677 A188 F1490.5784
X-58.619 A189 F1495.2034
X-58.561 A190 F1491.47
X-58.503 A192 F1492.553
X-58.445 A193 F1492.5518
X-58.388 A194 F1494.6822
X-58.33 A195 F1491.9687
X-58.272 A197 F1494.8101
X-58.213 A198 F1492.2109
X-58.155 A199 F1494.4219
X-58.097 A200 F1492.8564
X-58.039 A202 F1494.906
X-57.981 A203 F1491.1688
X-57.923 A204 F1492.6001
X-57.865 A205 F1492.3839
X-57.807 A206 F1492.386
X-57.748 A208 F1492.3843
X-57.69 A209 F1492.3847
X-57.632 A210 F1492.5609
X-57.574 A211 F1491.6685
X-57.515 A213 F1490.375
X-57.457 A214 F1492.8165
X-57.399 A215 F1492.541
X-57.34 A216 F1491.6532
X-57.282 A218 F1490.0955
X-57.224 A219 F1492.4303
X-57.165 A220 F1492.5391
X-57.107 A221 F1492.5394
X-57.048 A222 F1492.3935
X-56.99 A224 F1492.023
X-56.932 A225 F1492.649
X-56.873 A226 F1494.5835
X-56.815 A227 F1491.7454
X-56.756 A229 F1492.6478
X-56.697 A230 F1494.8263
X-56.639 A231 F1493.8056
X-56.58 A232 F1492.4985
X-56.522 A234 F1494.4358
X-56.463 A235 F1491.9821
X-56.404 A236 F1492.4824
X-56.346 A237 F1494.1765
X-56.287 A238 F1492.2203
X-56.228 A240 F1492.223
X-56.17 A241 F1492.3539
X-56.111 A242 F1492.4611
X-56.052 A243 F1489.5185
X-56.008 A244 F1989.7803
X-55.964 A245 F1989.7739
X-55.92 A246 F1989.7756
X-55.876 A247 F1989.7775
X-55.817 A248 F1490.0172
X-55.758 A250 F1492.7028
X-55.699 A251 F1491.5558
X-55.64 A252 F1490.2545
X-55.582 A253 F1492.4443
X-55.523 A255 F1492.3118
X-55.464 A256 F1492.4239
X-55.405 A257 F1492.0541
X-55.346 A258 F1494.7474
X-55.287 A259 F1491.6451
X-55.228 A261 F1492.5535
X-55.169 A262 F1494.727
X-55.11 A263 F1491.6442
X-55.051 A264 F1494.7274
X-54.992 A266 F1491.7555
X-54.932 A267 F1494.466
X-54.873 A268 F1492.1442
X-54.814 A269 F1494.7075
X-54.755 A271 F1491.4769
X-54.696 A272 F1491.7554
X-54.637 A273 F1492.7723
X-54.577 A274 F1492.2352
X-54.518 A275 F1491.7359
X-54.459 A277 F1492.3646
X-54.4 A278 F1491.4771
X-54.34 A279 F1490.5647
X-54.281 A280 F1492.6046
X-54.222 A282 F1491.4571
X-54.162 A283 F1489.8997
X-54.103 A284 F1492.234
X-54.044 A285 F1492.3446
X-53.984 A287 F1489.9002
X-53.925 A288 F1492.5836
X-53.865 A289 F1491.6963
X-53.806 A290 F1492.5867
X-53.746 A291 F1494.3868
X-53.687 A293 F1491.4165
X-53.627 A294 F1492.3239
X-53.568 A295 F1494.3884
X-53.508 A296 F1492.1765
X-53.449 A298 F1494.3665
X-53.389 A299 F1491.7871
X-53.329 A300 F1494.3666
X-53.27 A301 F1491.9163
X-53.21 A303 F1494.6092
X-53.15 A304 F1491.5049
X-53.091 A305 F1492.1595
X-53.031 A306 F1494.3472
X-52.971 A307 F1491.7641
X-52.912 A309 F1492.2667
X-52.852 A310 F1489.1924
X-52.807 A311 F1989.5198
X-52.762 A312 F1989.5102
X-52.717 A313 F1989.5155
X-52.673 A314 F1989.5157
X-52.613 A315 F1490.1878
X-52.553 A316 F1492.1166
X-52.493 A317 F1491.6175
X-52.433 A319 F1492.246
X-52.373 A320 F1489.9082
X-52.313 A321 F1492.1155
X-52.253 A322 F1492.0985
X-52.193 A323 F1491.7266
X-52.133 A325 F1492.356
X-52.073 A326 F1494.2897
X-52.013 A327 F1491.9439
X-51.953 A328 F1491.8385
X-51.893 A330 F1494.2657
X-51.833 A331 F1494.2681
X-51.773 A332 F1491.6857
X-51.713 A333 F1494.2686
X-51.653 A335 F1491.9255
X-51.593 A336 F1491.8181
X-51.532 A337 F1494.5077
X-51.472 A338 F1491.2795
X-51.412 A339 F1492.1849
X-51.352 A341 F1492.1651
X-51.291 A342 F1491.2788
X-51.231 A343 F1489.9807
X-51.186 A344 F1989.2642
X-51.141 A345 F1989.2672
X-51.095 A346 F1989.2653
X-51.05 A347 F1989.2658
X-50.99 A348 F1489.9617
X-50.929 A349 F1492.1438
X-50.869 A351 F1489.4439
X-50.809 A352 F1491.8863
X-50.748 A353 F1491.8861
X-50.688 A354 F1492.1458
X-50.643 A355 F1989.2125
X-50.597 A356 F1989.213
X-50.552 A357 F1989.2125
X-50.506 A358 F1989.2124
X-50.446 A359 F1492.3849
X-50.385 A0 F1494.4277
X-50.325 A2 F1491.2185
X-50.264 A3 F1494.4278
X-50.204 A4 F1491.4571
X-50.143 A5 F1494.0374
X-50.082 A7 F1494.0363
X-50.022 A8 F1492.0851
X-49.961 A9 F1494.1474
X-49.9 A10 F1491.1776
X-49.84 A12 F1491.7618
X-49.779 A13 F1491.7614
X-49.718 A14 F1492.0854
X-49.657 A15 F1491.8043
X-49.597 A16 F1491.806
X-49.536 A18 F1491.8075
X-49.475 A19 F1491.8063
X-49.414 A20 F1489.7292
X-49.353 A21 F1491.9373
X-49.292 A23 F1491.9144
X-49.232 A24 F1489.4713
X-49.171 A25 F1491.9157
X-49.11 A26 F1492.0442
X-49.049 A28 F1491.8971
X-48.988 A29 F1489.3216
X-48.927 A30 F1492.0243
X-48.866 A31 F1491.8948
X-48.805 A32 F1494.0893
X-48.744 A34 F1491.7442
X-48.683 A35 F1491.6358
X-48.622 A36 F1494.3257
X-48.561 A37 F1491.4844
X-48.499 A39 F1494.3257
X-48.438 A40 F1494.046
X-48.377 A41 F1491.0954
X-48.316 A42 F1494.3073
X-48.255 A44 F1491.2062
X-48.194 A45 F1487.7503
X-48.132 A46 F1497.1352
X-48.071 A47 F1495.5931
X-48.01 A48 F1496.0249
X-47.949 A50 F1496.0242
X-47.948 A50 F429102.4148
X-47.887 A51 F1477.4572
X-47.826 A52 F1498.8344
X-47.765 A53 F1496.0077
X-47.703 A55 F1496.0038
A55 F381404.3719
X-47.642 A56 F1477.8396
X-47.58 A57 F1498.9458
X-47.519 A58 F1496.179
X-47.458 A60 F1495.2901
X-47.457 A60 F476475.9885
X-47.396 A61 F1477.4174
X-47.334 A62 F1496.4746
X-47.273 A63 F1496.4753
X-47.212 A64 F1496.4743
X-47.15 A66 F1496.4753
A66 F490063.6443
X-47.088 A67 F1477.3972
X-47.027 A68 F1498.383
X-46.965 A69 F1495.9185
X-46.904 A71 F1496.4012
X-46.842 A72 F1495.1172
X-46.78 A73 F1495.7694
A73 F490167.9373
X-46.719 A74 F1477.3772
X-46.672 A75 F1995.6654
X-46.626 A76 F1995.6675
X-46.58 A77 F1995.664
X-46.534 A78 F1995.6648
X-46.472 A79 F1496.1198
X-46.41 A80 F1495.0958
A80 F490167.1206
X-46.348 A82 F1477.3581
X-46.287 A83 F1497.2279
X-46.225 A84 F1497.2298
X-46.163 A85 F1495.9688
X-46.101 A87 F1495.2058
A87 F476492.5109
X-46.039 A88 F1477.4649
X-45.977 A89 F1497.1434
X-45.915 A90 F1497.1434
X-45.854 A92 F1496.0777
X-45.853 A92 F389779.1863
X-45.791 A93 F1477.7194
X-45.73 A94 F1496.4046
X-45.668 A95 F1496.404
X-45.606 A96 F1496.4047
X-45.544 A98 F1496.4036
X-45.543 A98 F476576.8023
X-45.481 A99 F1477.1703
X-45.42 A100 F1498.4293
X-45.373 A101 F1994.5098
X-45.326 A102 F1994.5114
X-45.28 A103 F1994.5124
X-45.233 A104 F1994.5102
X-45.171 A105 F1496.035
A105 F373008.3383
X-45.109 A106 F1477.6788
X-45.062 A107 F1995.6436
X-45.016 A108 F1995.6438
X-44.969 A109 F1995.6428
X-44.922 A110 F1995.643
X-44.86 A111 F1496.0154
X-44.798 A112 F1495.2547
X-44.736 A114 F1496.0155
X-44.735 A114 F428621.7304
X-44.673 A115 F1477.3871
X-44.611 A116 F1497.0598
X-44.549 A117 F1497.0618
X-44.486 A119 F1495.992
X-44.424 A120 F1494.9723
A120 F476557.5203
X-44.361 A121 F1477.3648
X-44.299 A122 F1497.1676
X-44.237 A124 F1497.1695
X-44.174 A125 F1495.7127
A125 F389923.8792
X-44.112 A126 F1477.6206
X-44.065 A127 F1995.4426
X-44.018 A128 F1995.4428
X-43.971 A129 F1995.4423
X-43.924 A130 F1995.4447
A130 F476514.412
X-43.862 A131 F1476.818
X-43.799 A132 F1498.3229
X-43.737 A133 F1495.6946
X-43.674 A135 F1495.6904
X-43.612 A136 F1495.6913
X-43.549 A137 F1495.6922
A137 F476318.5051
X-43.486 A138 F1477.3079
X-43.424 A140 F1498.0217
X-43.361 A141 F1495.4274
X-43.298 A142 F1496.1956
X-43.236 A143 F1495.6496
X-43.173 A145 F1495.41
X-43.11 A146 F1495.9096
A146 F408464.1174
X-43.047 A147 F1477.2844
X-43. A148 F1995.3593
X-42.953 A149 F1995.3615
X-42.906 A150 F1995.3595
X-42.859 A151 F1995.3594
X-42.796 A152 F1495.8893
A152 F372888.6929
X-42.733 A153 F1477.5404
X-42.67 A154 F1499.0252
X-42.607 A156 F1495.6091
X-42.544 A157 F1495.1057
A157 F408381.3043
X-42.481 A158 F1477.5197
X-42.418 A159 F1496.2609
X-42.355 A161 F1496.2589
X-42.292 A162 F1496.2612
X-42.229 A163 F1496.2594
A163 F476411.4619
X-42.166 A164 F1476.9683
X-42.103 A165 F1497.9602
X-42.056 A166 F1994.1181
X-42.009 A167 F1994.114
X-41.961 A168 F1994.1168
X-41.914 A169 F1994.1149
A169 F476312.5957
X-41.851 A170 F1476.9493
X-41.788 A172 F1498.1991
X-41.74 A173 F1994.2028
X-41.693 A173 F1994.2032
X-41.646 A174 F1994.2038
X-41.598 A175 F1994.2029
X-41.535 A177 F1495.8049
X-41.472 A178 F1494.7842
A178 F476346.3346
X-41.408 A179 F1477.1834
X-41.361 A180 F1995.2192
X-41.313 A181 F1995.2193
X-41.266 A182 F1995.2188
X-41.219 A183 F1995.2196
X-41.155 A184 F1495.7828
A184 F372940.7508
X-41.092 A185 F1477.4378
X-41.044 A186 F1995.1913
X-40.997 A187 F1995.1909
X-40.949 A188 F1995.1905
X-40.902 A189 F1995.1911
X-40.901 A189 F476334.035
X-40.838 A190 F1476.888
X-40.775 A191 F1498.1353
X-40.727 A192 F1994.0016
X-40.68 A193 F1994.0039
X-40.632 A194 F1994.0024
X-40.584 A195 F1994.0035
A195 F451431.3876
X-40.521 A196 F1476.8672
X-40.457 A197 F1498.1141
X-40.409 A198 F1993.9754
X-40.362 A199 F1993.9743
X-40.314 A200 F1993.9743
X-40.266 A201 F1993.9736
A201 F408487.0215
X-40.203 A202 F1477.3763
X-40.139 A204 F1498.3341
X-40.076 A205 F1495.218
X-40.028 A206 F1993.9458
X-39.98 A207 F1993.9474
X-39.932 A208 F1993.9445
X-39.884 A209 F1993.9477
A209 F451538.0223
X-39.821 A210 F1477.0799
X-39.757 A211 F1498.0499
X-39.693 A212 F1495.1989
X-39.629 A213 F1495.9584
X-39.565 A215 F1495.6775
X-39.502 A216 F1494.6548
X-39.501 A216 F408496.3516
X-39.438 A217 F1477.338
X-39.39 A218 F1995.2763
X-39.342 A219 F1995.2794
X-39.294 A220 F1995.281
X-39.246 A221 F1995.2832
X-39.182 A222 F1495.654
A222 F357375.1629
X-39.118 A223 F1477.5678
X-39.07 A224 F1995.0271
X-39.022 A225 F1995.0199
X-38.974 A226 F1995.0167
X-38.926 A227 F1995.0227
A227 F408293.5273
X-38.862 A228 F1477.0402
X-38.798 A230 F1498.2711
X-38.75 A230 F1993.8324
X-38.702 A231 F1993.8302
X-38.654 A232 F1993.8365
X-38.606 A233 F1993.8273
A233 F428495.7739
X-38.542 A234 F1477.0213
X-38.478 A236 F1498.2472
X-38.414 A237 F1495.2876
X-38.349 A238 F1495.2859
X-38.285 A239 F1495.289
X-38.221 A241 F1495.289
A241 F428494.4501
X-38.157 A242 F1477.2536
X-38.093 A243 F1498.206
X-38.028 A244 F1494.833
X-37.964 A246 F1495.5916
X-37.9 A247 F1495.5902
X-37.835 A248 F1495.5706
A248 F372670.7165
X-37.771 A249 F1477.2356
X-37.707 A250 F1495.9598
X-37.642 A252 F1495.9639
X-37.578 A253 F1495.9612
X-37.514 A254 F1495.9629
X-37.513 A254 F408237.6706
X-37.449 A255 F1477.2128
X-37.401 A256 F1994.9921
X-37.352 A257 F1994.993
X-37.304 A258 F1994.9909
X-37.256 A259 F1994.9935
X-37.255 A259 F408250.5728
X-37.191 A260 F1476.938
X-37.127 A262 F1498.1618
X-37.062 A263 F1495.5275
X-36.998 A264 F1494.7675
X-36.933 A265 F1495.5267
A265 F408312.1926
X-36.868 A266 F1477.1707
X-36.804 A268 F1498.379
X-36.739 A269 F1494.746
X-36.691 A270 F1993.6592
X-36.642 A271 F1993.6607
X-36.594 A272 F1993.6606
X-36.545 A273 F1993.6592
A273 F408287.4532
X-36.48 A274 F1476.8958
X-36.416 A275 F1498.1187
X-36.351 A276 F1495.223
X-36.286 A278 F1495.2229
X-36.221 A279 F1495.2222
X-36.156 A280 F1495.2229
A280 F408348.6019
X-36.092 A281 F1477.13
X-36.027 A282 F1495.8539
X-35.962 A284 F1495.854
X-35.897 A285 F1495.8519
X-35.832 A286 F1495.8564
A286 F408161.9524
X-35.767 A287 F1477.36
X-35.702 A289 F1498.0558
X-35.637 A290 F1494.6821
X-35.572 A291 F1495.3072
X-35.507 A292 F1495.3119
A292 F408126.2113
X-35.442 A294 F1477.0892
X-35.377 A295 F1496.593
X-35.312 A296 F1496.5922
X-35.247 A297 F1494.4003
A297 F451132.1429
X-35.182 A298 F1477.3211
X-35.117 A300 F1498.0109
X-35.052 A301 F1494.8963
X-34.987 A302 F1495.1378
X-34.921 A303 F1494.895
X-34.856 A305 F1495.3985
A305 F389771.0556
X-34.791 A306 F1477.3
X-34.726 A307 F1497.9867
X-34.661 A308 F1494.875
X-34.612 A309 F1993.4837
X-34.563 A310 F1993.4892
X-34.514 A311 F1993.4837
X-34.465 A312 F1993.4837
X-34.464 A312 F389800.3562
X-34.399 A313 F1477.2795
X-34.334 A314 F1497.9675
X-34.269 A316 F1494.8534
X-34.203 A317 F1495.2244
X-34.138 A318 F1495.2201
X-34.072 A319 F1495.3329
A319 F357145.9885
X-34.007 A321 F1477.2579
X-33.941 A322 F1497.9473
X-33.876 A323 F1494.8298
X-33.811 A324 F1495.0714
X-33.81 A324 F408144.6681
X-33.745 A326 F1477.2382
X-33.68 A327 F1497.9205
X-33.614 A328 F1494.5515
X-33.548 A329 F1495.3105
A329 F408091.8394
X-33.483 A331 F1476.708
X-33.417 A332 F1496.4856
X-33.352 A333 F1496.4844
X-33.302 A334 F1993.3684
X-33.253 A335 F1993.3697
X-33.204 A336 F1993.3656
X-33.155 A337 F1993.3703
X-33.154 A337 F408147.2653
X-33.089 A338 F1476.6883
X-33.023 A339 F1496.4635
X-32.957 A340 F1496.462
X-32.908 A341 F1993.3383
X-32.859 A342 F1993.341
X-32.809 A343 F1993.3368
X-32.76 A344 F1993.3432
A344 F408097.1862
X-32.694 A345 F1476.6657
X-32.628 A347 F1498.1395
X-32.563 A348 F1494.9174
X-32.497 A349 F1494.9179
X-32.431 A350 F1494.9195
X-32.365 A351 F1494.9165
A351 F408168.137
X-32.299 A353 F1476.8996
X-32.233 A354 F1498.0954
X-32.167 A355 F1494.4629
X-32.101 A356 F1495.2208
A356 F389777.5184
X-32.035 A358 F1476.8755
X-31.969 A359 F1497.8357
X-31.903 A0 F1495.0683
X-31.837 A1 F1495.0684
X-31.771 A3 F1494.1799
A3 F451145.394
X-31.705 A4 F1476.8571
X-31.639 A5 F1498.0504
X-31.573 A6 F1494.4187
X-31.506 A7 F1495.1773
X-31.44 A9 F1494.1579
A9 F451084.0831
X-31.374 A10 F1477.0889
X-31.308 A11 F1497.7693
X-31.242 A12 F1494.3937
X-31.175 A14 F1494.9174
X-31.109 A15 F1495.0254
X-31.043 A16 F1495.0233
A16 F389817.2717
X-30.976 A17 F1477.0664
X-30.91 A19 F1497.7464
X-30.844 A20 F1494.633
X-30.794 A21 F1993.1613
X-30.744 A22 F1993.166
X-30.694 A23 F1993.1623
X-30.645 A23 F1993.1608
X-30.644 A23 F389722.9986
X-30.578 A25 F1476.7914
X-30.512 A26 F1497.7485
X-30.462 A27 F1993.1315
X-30.412 A28 F1993.1342
X-30.362 A29 F1993.1327
X-30.312 A30 F1993.1337
A30 F389731.5317
X-30.246 A31 F1476.7695
X-30.179 A32 F1497.726
X-30.113 A33 F1494.9576
X-30.046 A35 F1494.9559
A35 F389728.4091
X-29.979 A36 F1476.7483
X-29.913 A37 F1496.2625
X-29.846 A38 F1496.2663
X-29.78 A39 F1495.0649
X-29.713 A41 F1494.0452
A41 F451029.3419
X-29.646 A42 F1476.4766
X-29.58 A43 F1496.2396
X-29.513 A44 F1496.2428
X-29.446 A46 F1494.9127
X-29.379 A47 F1494.9137
X-29.313 A48 F1494.0264
X-29.312 A48 F428754.0344
X-29.246 A49 F1476.9593
X-29.179 A51 F1497.8959
X-29.112 A52 F1494.2611
X-29.045 A53 F1495.0225
X-28.979 A54 F1494.2612
X-28.912 A55 F1495.0203
X-28.911 A55 F451146.0471
X-28.845 A57 F1476.1564
X-28.778 A58 F1496.0678
X-28.711 A59 F1496.0639
X-28.644 A60 F1494.8694
X-28.577 A62 F1494.8668
A62 F389837.9342
X-28.51 A63 F1476.4077
X-28.443 A64 F1497.8746
X-28.376 A65 F1494.7172
X-28.309 A67 F1494.716
X-28.308 A67 F408031.3078
X-28.241 A68 F1476.3885
X-28.191 A69 F1994.233
X-28.141 A70 F1994.2291
X-28.091 A71 F1994.2316
X-28.04 A72. F1994.2298
X-27.973 A73 F1494.9519
A73 F389677.7039
X-27.906 A74 F1476.3679
X-27.855 A75 F1994.2004
X-27.805 A76 F1994.2019
X-27.755 A77 F1994.1997
X-27.704 A78 F1994.1993
X-27.637 A79 F1494.8018
X-27.57 A80 F1494.8008
A80 F389597.1116
X-27.502 A81 F1476.3468
X-27.452 A82 F1994.1703
X-27.401 A83 F1994.1713
X-27.351 A84 F1994.1702
X-27.301 A85 F1994.1704
X-27.233 A86 F1494.778
X-27.166 A88 F1494.7786
A88 F389583.2593
X-27.098 A89 F1476.3253
X-27.031 A90 F1497.7829
X-26.964 A91 F1494.7559
X-26.896 A92 F1494.756
X-26.829 A94 F1493.868
X-26.828 A94 F428625.3471
X-26.761 A95 F1476.8104
X-26.694 A96 F1497.7373
X-26.626 A97 F1494.1063
X-26.558 A99 F1494.8639
X-26.491 A100 F1493.8468
A100 F450907.2136
X-26.423 A101 F1476.5353
X-26.356 A102 F1497.7157
X-26.288 A104 F1493.8232
X-26.22 A105 F1494.6026
A105 F428580.9139
X-26.153 A106 F1476.5134
X-26.085 A107 F1496.0152
X-26.017 A108 F1496.0177
X-25.95 A110 F1494.8172
X-25.882 A111 F1494.3202
X-25.814 A112 F1494.5618
A112 F389569.7656
X-25.746 A113 F1476.4885
X-25.695 A114 F1994.0228
X-25.645 A115 F1994.0199
X-25.594 A116 F1994.0195
X-25.543 A117 F1994.0206
X-25.475 A118 F1494.5373
X-25.407 A120 F1494.5349
A120 F389627.3413
X-25.339 A121 F1476.4685
X-25.271 A122 F1495.9706
X-25.203 A123 F1495.9738
X-25.152 A124 F1992.6835
X-25.101 A125 F1992.6848
X-25.05 A126 F1992.6842
X-24.999 A127 F1992.6818
A127 F389532.2651
X-24.931 A128 F1476.4479
X-24.863 A129 F1497.6485
X-24.795 A131 F1494.4923
X-24.727 A132 F1493.9911
A132 F428432.3903
X-24.659 A133 F1476.4258
X-24.591 A134 F1497.3635
X-24.523 A136 F1494.7258
X-24.455 A137 F1493.9703
A137 F428338.5826
X-24.387 A138 F1476.1526
X-24.318 A139 F1495.1204
X-24.25 A140 F1495.1215
X-24.182 A142 F1495.1177
X-24.114 A143 F1495.1194
A143 F428510.8012
X-24.046 A144 F1476.3816
X-23.977 A145 F1495.0984
X-23.909 A147 F1495.0982
X-23.841 A148 F1495.0967
X-23.772 A149 F1495.0957
X-23.704 A150 F1494.5516
X-23.636 A152 F1494.552
X-23.635 A152 F342875.9914
X-23.567 A153 F1476.8911
X-23.499 A154 F1497.795
X-23.43 A155 F1493.8996
X-23.362 A156 F1494.4249
X-23.294 A158 F1494.5282
X-23.225 A159 F1494.5292
A159 F389469.251
X-23.156 A160 F1476.0874
X-23.088 A161 F1497.5319
X-23.02 A163 F1494.6363
X-22.951 A164 F1493.6199
A164 F428405.6073
X-22.882 A165 F1476.3157
X-22.814 A166 F1497.5109
X-22.745 A168 F1494.6139
X-22.677 A169 F1493.857
X-22.608 A170 F1494.6138
A170 F342780.9307
X-22.539 A171 F1476.5712
X-22.47 A173 F1496.0489
X-22.402 A174 F1496.0492
X-22.333 A175 F1494.5905
X-22.264 A176 F1493.5733
A176 F428436.7443
X-22.195 A177 F1476.2721
X-22.144 A178 F1993.7162
X-22.092 A179 F1993.716
X-22.041 A180 F1993.7161
X-21.989 A181 F1993.7159
X-21.92 A182 F1494.3084
X-21.851 A184 F1494.3085
A184 F356919.1346
X-21.782 A185 F1476.5266
X-21.714 A186 F1497.7035
X-21.645 A187 F1494.5451
X-21.576 A189 F1493.7875
X-21.507 A190 F1494.2863
X-21.438 A191 F1494.285
A191 F389389.5597
X-21.369 A192 F1476.228
X-21.3 A193 F1495.7201
X-21.231 A195 F1495.7216
X-21.162 A196 F1494.5203
X-21.093 A197 F1493.5046
A197 F428380.7598
X-21.024 A198 F1476.4609
X-20.955 A200 F1497.3729
X-20.885 A201 F1493.7384
X-20.816 A202 F1494.0038
A202 F428423.0925
X-20.747 A203 F1476.1812
X-20.695 A204 F1993.5938
X-20.643 A205 F1993.5935
X-20.591 A206 F1993.5947
X-20.54 A207 F1993.5935
X-20.47 A208 F1494.4762
A208 F372493.9638
X-20.401 A209 F1475.9084
X-20.332 A211 F1497.1096
X-20.262 A212 F1494.7377
X-20.193 A213 F1494.4541
X-20.124 A214 F1493.6931
X-20.054 A216 F1494.4532
A216 F372755.2185
X-19.985 A217 F1476.1371
X-19.933 A218 F1993.6478
X-19.881 A219 F1993.6425
X-19.829 A220 F1993.6535
X-19.777 A221 F1993.6411
X-19.707 A222 F1494.1689
X-19.638 A223 F1493.6717
A223 F408143.6787
X-19.568 A224 F1476.1179
X-19.499 A225 F1497.3048
X-19.429 A227 F1494.4042
X-19.36 A228 F1493.6481
X-19.29 A229 F1494.4071
A229 F389208.1961
X-19.22 A230 F1476.0977
X-19.151 A232 F1495.5813
X-19.081 A233 F1495.5793
X-19.012 A234 F1494.3868
X-19.011 A234 F342702.0545
X-18.942 A235 F1476.3486
X-18.89 A236 F1993.6657
X-18.838 A237 F1993.6755
X-18.785 A238 F1993.6648
X-18.733 A239 F1993.6718
X-18.663 A240 F1494.1033
A240 F342682.4172
X-18.593 A241 F1476.5779
X-18.541 A242 F1993.5232
X-18.489 A243 F1993.5276
X-18.436 A244 F1993.5227
X-18.384 A245 F1993.5233
X-18.314 A246 F1494.3364
A246 F342637.2806
X-18.244 A248 F1476.3061
X-18.174 A249 F1494.8582
X-18.105 A250 F1494.8595
X-18.035 A251 F1494.8584
X-17.965 A253 F1494.8579
X-17.895 A254 F1494.054
X-17.825 A255 F1494.0539
A255 F342671.3418
X-17.755 A256 F1476.7891
X-17.685 A257 F1497.4255
X-17.615 A259 F1493.2719
X-17.545 A260 F1494.3131
X-17.475 A261 F1494.29
A261 F372525.0332
X-17.405 A262 F1475.9835
X-17.352 A263 F1993.3147
X-17.3 A264 F1993.3142
X-17.247 A265 F1993.3151
X-17.194 A266 F1993.314
X-17.124 A267 F1494.2664
A267 F372503.4345
X-17.054 A269 F1475.9606
X-17.001 A269 F1993.2823
X-16.949 A270 F1993.2816
X-16.896 A271 F1993.2816
X-16.843 A272 F1993.2823
A272 F408089.4012
X-16.773 A274 F1475.6831
X-16.703 A275 F1496.8776
X-16.633 A276 F1494.5046
X-16.562 A277 F1494.2188
X-16.492 A278 F1493.2022
A278 F372492.3656
X-16.422 A280 F1476.1945
X-16.351 A281 F1494.8057
X-16.281 A282 F1494.8061
X-16.211 A283 F1494.8046
X-16.14 A285 F1494.8071
X-16.07 A286 F1493.9374
X-15.999 A287 F1493.4379
A287 F407863.4807
X-15.929 A288 F1475.895
X-15.858 A290 F1495.5011
X-15.788 A291 F1495.4984
X-15.717 A292 F1494.1736
X-15.647 A293 F1493.1549
X-15.646 A293 F408075.6456
X-15.576 A294 F1476.1213
X-15.505 A296 F1495.3493
X-15.435 A297 F1495.346
X-15.364 A298 F1494.1498
X-15.294 A299 F1493.132
X-15.293 A299 F428089.5979
X-15.223 A301 F1475.8479
X-15.17 A302 F1993.0156
X-15.117 A302 F1993.0113
X-15.064 A303 F1993.0064
X-15.011 A304 F1993.0143
A304 F407972.5942
X-14.94 A306 F1475.8219
X-14.869 A307 F1496.7605
X-14.816 A308 F1991.8202
X-14.763 A309 F1991.8198
X-14.71 A310 F1991.8208
X-14.657 A310 F1991.8195
A310 F407982.8773
X-14.586 A312 F1475.8038
X-14.515 A313 F1496.7129
X-14.444 A314 F1493.6046
X-14.373 A315 F1494.1032
X-14.303 A317 F1494.0769
X-14.232 A318 F1493.5805
X-14.161 A319 F1493.8176
X-14.16 A319 F342613.2101
X-14.09 A320 F1476.0606
X-14.019 A322 F1495.5129
X-13.948 A323 F1495.512
X-13.877 A324 F1494.0553
X-13.806 A325 F1493.5548
X-13.735 A326 F1493.798
X-13.734 A326 F372332.531
X-13.663 A328 F1476.01
X-13.592 A329 F1495.228
X-13.521 A330 F1495.2309
X-13.45 A331 F1494.0296
A331 F342595.1423
X-13.379 A333 F1476.0139
X-13.308 A334 F1495.4635
X-13.237 A335 F1495.4684
X-13.165 A336 F1494.0047
X-13.094 A338 F1492.9904
A338 F408042.1824
X-13.023 A339 F1475.9613
X-12.969 A340 F1992.8254
X-12.916 A341 F1992.8216
X-12.862 A342 F1992.8195
X-12.809 A342 F1992.8211
A342 F372390.0994
X-12.737 A344 F1475.9675
X-12.666 A345 F1497.1147
X-12.595 A346 F1493.2277
X-12.524 A347 F1494.244
X-12.452 A349 F1493.9583
X-12.381 A350 F1492.9441
X-12.309 A351 F1493.7214
A351 F407952.8254
X-12.238 A352 F1475.6656
X-12.166 A354 F1495.2639
X-12.095 A355 F1495.264
X-12.023 A356 F1493.935
X-11.952 A357 F1493.1799
X-11.88 A358 F1493.9352
A358 F372358.8826
X-11.808 A0 F1475.6435
X-11.755 A1 F1992.9568
X-11.701 A2 F1992.9568
X-11.647 A2 F1992.9577
X-11.594 A3 F1992.9561
X-11.522 A5 F1493.6543
A5 F372326.5559
X-11.45 A6 F1475.6205
X-11.396 A7 F1992.8091
X-11.343 A8 F1992.8099
X-11.289 A9 F1992.8083
X-11.235 A10 F1992.8086
A10 F407832.6917
X-11.163 A11 F1475.5985
X-11.109 A12 F1992.7762
X-11.056 A13 F1992.7772
X-11.002 A14 F1992.7778
X-10.948 A14 F1992.778
A14 F356988.3193
X-10.876 A16 F1476.1026
X-10.804 A17 F1496.7373
X-10.733 A18 F1493.3659
X-10.661 A19 F1493.7358
X-10.589 A21 F1493.7346
X-10.517 A22 F1493.8388
X-10.516 A22 F329467.8054
X-10.445 A23 F1476.0803
X-10.373 A24 F1494.363
X-10.301 A26 F1494.3612
X-10.229 A27 F1494.3613
X-10.157 A28 F1494.3635
X-10.085 A29 F1493.8146
X-10.013 A30 F1492.8015
A30 F407597.1613
X-9.941 A32 F1475.5302
X-9.869 A33 F1495.2508
X-9.797 A34 F1495.247
X-9.724 A35 F1493.5358
X-9.652 A37 F1493.0325
A37 F389239.4885
X-9.58 A38 F1475.7605
X-9.508 A39 F1495.0959
X-9.436 A40 F1495.0961
X-9.363 A42 F1493.7664
A42 F329435.7063
X-9.291 A43 F1475.7608
X-9.219 A44 F1494.2892
X-9.147 A45 F1494.2892
X-9.074 A47 F1494.2877
X-9.002 A48 F1494.2906
A48 F407691.269
X-8.929 A49 F1475.2042
X-8.857 A50 F1496.3808
X-8.785 A51 F1493.7423
X-8.713 A53 F1493.745
X-8.64 A54 F1493.4603
A54 F342582.3247
X-8.567 A55 F1475.7129
X-8.477 A57 F1195.2671
X-8.386 A58 F1195.2677
X-8.296 A60 F1195.2677
X-8.205 A61 F1195.2687
X-8.133 A63 F1493.6955
X-8.132 A63 F356832.0984
X-8.06 A64 F1475.4119
X-7.987 A65 F1496.5758
X-7.915 A66 F1493.4313
X-7.842 A67 F1493.6867
X-7.77 A69 F1493.1631
X-7.769 A69 F372222.3463
X-7.697 A70 F1475.6498
X-7.624 A71 F1496.5414
X-7.551 A72 F1493.4106
X-7.479 A74 F1493.4032
X-7.406 A75 F1493.3982
A75 F372382.673
X-7.333 A76 F1475.3709
X-7.26 A77 F1496.5236
X-7.188 A79 F1493.3846
X-7.115 A80 F1493.3792
A80 F372279.0834
X-7.042 A81 F1475.356
X-6.969 A82 F1496.5032
X-6.896 A83 F1493.3654
X-6.823 A85 F1493.3624
X-6.75 A86 F1493.3554
A86 F372254.1965
X-6.677 A87 F1475.5859
X-6.605 A88 F1496.4796
X-6.532 A90 F1493.3433
X-6.459 A91 F1493.3384
X-6.386 A92 F1493.3336
X-6.313 A93 F1493.3287
X-6.239 A95 F1493.3235
A95 F356895.519
X-6.166 A96 F1475.5562
X-6.093 A97 F1496.4459
X-6.02 A98 F1493.3094
X-5.947 A99 F1493.3066
X-5.874 A101 F1493.3002
A101 F356949.6688
X-5.801 A102 F1475.5327
X-5.728 A103 F1496.4214
X-5.654 A104 F1493.2868
X-5.581 A106 F1493.2831
X-5.508 A107 F1493.2751
A107 F372287.2839
X-5.434 A108 F1475.2604
X-5.361 A109 F1496.6588
X-5.288 A111 F1493.0044
X-5.215 A112 F1493.2588
X-5.214 A112 F372348.5111
X-5.141 A113 F1475.4909
X-5.068 A114 F1496.3808
X-4.995 A115 F1493.2468
X-4.921 A117 F1493.2381
X-4.848 A118 F1493.2342
A118 F356847.2805
X-4.774 A119 F1475.4718
X-4.701 A120 F1496.3566
X-4.627 A122 F1493.2216
X-4.554 A123 F1493.2189
X-4.48 A124 F1493.2119
X-4.407 A125 F1493.2058
A125 F356917.4146
X-4.333 A127 F1475.441
X-4.26 A128 F1496.3294
X-4.186 A129 F1493.1966
X-4.113 A130 F1493.1856
X-4.039 A131 F1493.1816
X-3.965 A133 F1493.1804
A133 F372162.0354
X-3.892 A134 F1475.4182
X-3.818 A135 F1496.3016
X-3.744 A136 F1493.1647
X-3.671 A138 F1493.157
X-3.597 A139 F1492.9007
A139 F372408.7101
X-3.523 A140 F1475.3895
X-3.449 A141 F1496.2782
X-3.375 A143 F1493.1388
X-3.302 A144 F1493.1371
X-3.301 A144 F356994.3605
X-3.228 A145 F1475.3731
X-3.154 A146 F1496.2594
X-3.08 A148 F1493.125
X-3.006 A149 F1493.1182
X-2.932 A150 F1493.1098
A150 F372171.724
X-2.858 A151 F1475.1014
X-2.784 A152 F1496.495
X-2.71 A154 F1492.8398
X-2.636 A155 F1493.3521
X-2.562 A156 F1493.0908
X-2.488 A157 F1492.8266
A157 F372289.7462
X-2.414 A159 F1475.3231
X-2.34 A160 F1496.2075
X-2.266 A161 F1493.0721
X-2.192 A162 F1493.0642
X-2.118 A164 F1493.061
X-2.044 A165 F1493.0566
X-1.97 A166 F1493.0509
X-1.969 A166 F356845.7914
X-1.895 A167 F1475.2924
X-1.821 A168 F1496.1748
X-1.747 A170 F1493.0377
X-1.673 A171 F1493.0317
X-1.599 A172 F1493.0293
X-1.598 A172 F372137.8647
X-1.524 A173 F1475.0177
X-1.45 A175 F1496.409
X-1.376 A176 F1493.0126
X-1.301 A177 F1492.7516
A177 F372120.3356
X-1.227 A178 F1475.2522
X-1.153 A180 F1496.1313
X-1.078 A181 F1492.995
X-1.004 A182 F1492.9894
X-1.003 A182 F356776.4584
X-0.929 A183 F1475.2332
X-0.855 A184 F1496.1119
X-0.78 A186 F1492.9747
X-0.706 A187 F1492.9729
X-0.631 A188 F1492.9654
X-0.557 A189 F1492.9617
A189 F356817.62
X-0.482 A191 F1475.2042
X-0.408 A192 F1496.0834
X-0.333 A193 F1492.9489
X-0.259 A194 F1492.943
X-0.184 A196 F1493.1919
X-0.109 A197 F1492.6759
X-0.035 A198 F1492.9277
X-0.034 A198 F356736.9195
X0.04 A199 F1475.1749
X0.115 A200 F1496.3094
X0.189 A202 F1492.9126
X0.264 A203 F1492.9074
X0.339 A204 F1492.6495
A204 F372043.0272
X0.414 A205 F1475.1507
X0.489 A207 F1496.0243
X0.563 A208 F1492.8907
X0.638 A209 F1492.8835
X0.639 A209 F356822.4976
X0.713 A210 F1475.1318
X0.788 A212 F1496.0027
X0.863 A213 F1492.8727
X0.938 A214 F1492.8677
X1.013 A215 F1492.8604
A215 F356553.2265
X1.088 A216 F1475.1117
X1.163 A218 F1496.2395
X1.238 A219 F1492.8472
X1.313 A220 F1492.842
X1.388 A221 F1492.5796
A221 F371987.3701
X1.463 A223 F1475.0861
X1.538 A224 F1495.9581
X1.613 A225 F1492.8202
X1.688 A226 F1492.8162
X1.763 A228 F1492.8129
X1.838 A229 F1492.8105
X1.839 A229 F356500.9828
X1.914 A230 F1475.0602
X1.998 A231 F1335.7648
X2.082 A233 F1335.76
X2.166 A234 F1335.7651
X2.25 A236 F1335.7614
X2.334 A237 F1335.7632
X2.418 A238 F1335.7642
X2.502 A240 F1335.7605
X2.586 A241 F1335.7639
X2.67 A242 F1335.7641
X2.754 A244 F1335.762
X2.838 A245 F1335.7622
X2.922 A247 F1335.7633
X3.006 A248 F1335.763
X3.09 A249 F1335.7638
X3.174 A251 F1335.7617
X3.258 A252 F1335.7625
X3.342 A253 F1335.7635
X3.426 A255 F1335.7623
X3.51 A256 F1335.7629
X3.594 A257 F1335.7628
X3.678 A259 F1335.7627
X3.762 A260 F1335.7628
X3.846 A262 F1335.7629
X3.93 A263 F1335.7631
X4.014 A264 F1335.763
X4.098 A266 F1335.7625
X4.182 A267 F1335.7629
X4.266 A268 F1335.7629
X4.35 A270 F1335.7628
X4.434 A271 F1335.7629
X4.518 A273 F1335.7627
X4.602 A274 F1335.7629
X4.686 A275 F1335.7627
X4.77 A277 F1335.7627
X4.854 A278 F1335.7633
X4.938 A279 F1335.7622
X5.022 A281 F1335.7629
X5.106 A282 F1335.7629
X5.19 A284 F1335.7631
X5.274 A285 F1335.7627
X5.358 A286 F1335.7639
X5.442 A288 F1335.7606
X5.526 A289 F1335.7639
X5.61 A290 F1335.7626
X5.694 A292 F1335.7625
X5.778 A293 F1335.7637
X5.862 A295 F1335.7631
X5.946 A296 F1335.7618
X6.03 A297 F1335.7629
X6.114 A299 F1335.7633
X6.198 A300 F1335.7631
X6.282 A301 F1335.7616
X6.366 A303 F1335.7637
X6.45 A304 F1335.7646
X6.534 A306 F1335.7616
X6.618 A307 F1335.7606
X6.702 A308 F1335.7635
X6.786 A310 F1335.7636
X6.87 A311 F1335.761
X6.954 A312 F1335.766
X7.038 A314 F1335.761
X7.122 A315 F1335.7621
X7.206 A317 F1335.7642
X7.29 A318 F1335.7626
X7.374 A319 F1335.763
X7.458 A321 F1335.7635
X7.542 A322 F1335.7617
X7.626 A323 F1335.762
X7.71 A325 F1335.7647
X7.794 A326 F1335.7616
X7.878 A328 F1335.7642
X7.962 A329 F1335.7616
X8.046 A330 F1335.7626
X8.13 A332 F1335.7626
X8.214 A333 F1335.7639
X8.298 A334 F1335.7625
X8.382 A336 F1335.7637
X8.466 A337 F1335.7613
X8.55 A338 F1335.7626
X8.634 A340 F1335.7626
X8.718 A341 F1335.7636
X8.802 A343 F1335.7637
X8.886 A344 F1335.7623
X8.97 A345 F1335.762
X9.054 A347 F1335.763
X9.138 A348 F1335.7635
X9.222 A349 F1335.7625
X9.306 A351 F1335.7626
X9.39 A352 F1335.7631
X9.474 A354 F1335.7629
X9.558 A355 F1335.7631
X9.642 A356 F1335.7625
X9.726 A358 F1335.763
X9.81 A359 F1335.7627
X9.894 A0 F1335.763
X9.978 A2 F1335.7627
X10.062 A3 F1335.7631
X10.146 A5 F1335.7624
X10.23 A6 F1335.7633
X10.314 A7 F1335.7625
X10.398 A9 F1335.7635
X10.482 A10 F1335.7625
X10.566 A11 F1335.7621
X10.65 A13 F1335.7636
X10.734 A14 F1335.7627
X10.818 A16 F1335.763
X10.902 A17 F1335.763
X10.986 A18 F1335.7628
X11.07 A20 F1335.7615
X11.155 A21 F1335.7633
X11.239 A22 F1335.7636
X11.323 A24 F1335.7621
X11.407 A25 F1335.7627
X11.491 A27 F1335.7636
X11.575 A28 F1335.7627
X11.659 A29 F1335.7622
X11.743 A31 F1335.765
X11.827 A32 F1335.7623
X11.911 A33 F1335.7623
X11.995 A35 F1335.7599
X12.079 A36 F1335.7663
X12.163 A38 F1335.7614
X12.247 A39 F1335.7642
X12.331 A40 F1335.7606
X12.415 A42 F1335.7634
X12.499 A43 F1335.7614
X12.583 A44 F1335.7636
X12.667 A46 F1335.764
G0 Z60.
G49
M9
M30
%
