%
(1005)
(T24  D=4. CR=0. - FLAT END MILL)
G90 G93 G17 G91.1
G64 P0.000016
G20
G53 G0 Z0.000000
(2D CONTOUR3)
M9
T24 M6
(4MM 4 FLUTE FLAT)
S5000 M3
G54
G0 A0.000000
M8
G0 X-0.007166 Y0.000000
G43 Z0.003661 H24
G1 A54.000000 F999999.
G0 Z0.002298
G94 G1 Z0.002041 F0.020341
Z0.001895
G93 G1 X-0.007163 A55.000000 F1345.7702
X-0.007161 A56.000000 F1345.7737
X-0.007158 A58.000000 F1345.7715
X-0.007156 A59.000000 F1345.771
X-0.007154 A60.000000 F1345.7723
X-0.007151 A62.000000 F1345.7708
X-0.007149 A63.000000 F1345.7709
X-0.007146 A65.000000 F1345.7715
X-0.007144 A66.000000 F1345.7711
X-0.007141 A67.000000 F1345.772
X-0.007139 A69.000000 F1345.7715
X-0.007136 A70.000000 F1345.7714
X-0.007134 A71.000000 F1345.7725
X-0.007132 A73.000000 F1345.7706
X-0.007129 A74.000000 F1345.7718
X-0.007127 A75.000000 F1345.7711
X-0.007124 A77.000000 F1345.7714
X-0.007122 A78.000000 F1345.771
X-0.007119 A80.000000 F1345.7719
X-0.007117 A81.000000 F1345.7713
X-0.007114 A82.000000 F1345.7715
X-0.007112 A84.000000 F1345.7721
X-0.007110 A85.000000 F1345.7712
X-0.007107 A86.000000 F1345.7716
X-0.007105 A88.000000 F1345.7714
X-0.007102 A89.000000 F1345.7714
X-0.007100 A91.000000 F1345.7715
X-0.007097 A92.000000 F1345.7714
X-0.007095 A93.000000 F1345.7715
X-0.007092 A95.000000 F1345.772
X-0.007090 A96.000000 F1345.7713
X-0.007088 A97.000000 F1345.7717
X-0.007085 A99.000000 F1345.7713
X-0.007083 A100.000000 F1345.7715
X-0.007080 A101.000000 F1345.7712
X-0.007078 A103.000000 F1345.7719
X-0.007075 A104.000000 F1345.7704
X-0.007073 A106.000000 F1345.7715
X-0.007071 A107.000000 F1345.7729
X-0.007068 A108.000000 F1345.7713
X-0.007066 A110.000000 F1345.7715
X-0.007063 A111.000000 F1345.7715
X-0.007061 A112.000000 F1345.7715
X-0.007058 A114.000000 F1345.7707
X-0.007056 A115.000000 F1345.7714
X-0.007053 A117.000000 F1345.7714
X-0.007051 A118.000000 F1345.771
X-0.007049 A119.000000 F1345.7729
X-0.007046 A121.000000 F1345.7719
X-0.007044 A122.000000 F1345.7705
X-0.007041 A123.000000 F1345.771
X-0.007039 A125.000000 F1345.7707
X-0.007036 A126.000000 F1345.7726
X-0.007034 A128.000000 F1345.7713
X-0.007031 A129.000000 F1345.7717
X-0.007029 A130.000000 F1345.77
X-0.007027 A132.000000 F1345.7717
X-0.007024 A133.000000 F1345.7728
X-0.007022 A134.000000 F1345.7719
X-0.007019 A136.000000 F1345.7705
X-0.007017 A137.000000 F1345.7713
X-0.007014 A138.000000 F1345.7721
X-0.007012 A140.000000 F1345.7712
X-0.007009 A141.000000 F1345.7708
X-0.007007 A143.000000 F1345.7716
X-0.007005 A144.000000 F1345.7725
X-0.007002 A145.000000 F1345.771
X-0.007000 A147.000000 F1345.7728
X-0.006997 A148.000000 F1345.7709
X-0.006995 A149.000000 F1345.7716
X-0.006992 A151.000000 F1345.7702
X-0.006990 A152.000000 F1345.7719
X-0.006987 A154.000000 F1345.7734
X-0.006985 A155.000000 F1345.7708
X-0.006983 A156.000000 F1345.771
X-0.006980 A158.000000 F1345.7712
X-0.006978 A159.000000 F1345.772
X-0.006975 A160.000000 F1345.7705
X-0.006973 A162.000000 F1345.7731
X-0.006970 A163.000000 F1345.7702
X-0.006968 A164.000000 F1345.7711
X-0.006966 A166.000000 F1345.7725
X-0.006963 A167.000000 F1345.7716
X-0.006961 A169.000000 F1345.7709
X-0.006958 A170.000000 F1345.7724
X-0.006956 A171.000000 F1345.7711
X-0.006953 A173.000000 F1345.7712
X-0.006951 A174.000000 F1345.7715
X-0.006948 A175.000000 F1345.7713
X-0.006946 A177.000000 F1345.7723
X-0.006943 A178.000000 F1345.7713
X-0.006941 A180.000000 F1345.7714
X-0.006939 A181.000000 F1345.7714
X-0.006936 A182.000000 F1345.7715
X-0.006934 A184.000000 F1345.7712
X-0.006931 A185.000000 F1345.7713
X-0.006929 A186.000000 F1345.7715
X-0.006926 A188.000000 F1345.7718
X-0.006924 A189.000000 F1345.7721
X-0.006921 A190.000000 F1345.7709
X-0.006919 A192.000000 F1345.7722
X-0.006917 A193.000000 F1345.7709
X-0.006914 A195.000000 F1345.7715
X-0.006912 A196.000000 F1345.7705
X-0.006909 A197.000000 F1345.7725
X-0.006907 A199.000000 F1345.77
X-0.006904 A200.000000 F1345.7731
X-0.006902 A201.000000 F1345.7713
X-0.006900 A203.000000 F1345.7723
X-0.006897 A204.000000 F1345.7711
X-0.006895 A206.000000 F1345.7711
X-0.006892 A207.000000 F1345.7701
X-0.006890 A208.000000 F1345.7727
X-0.006887 A210.000000 F1345.7714
X-0.006885 A211.000000 F1345.7717
X-0.006882 A212.000000 F1345.7705
X-0.006880 A214.000000 F1345.7734
X-0.006878 A215.000000 F1345.7714
X-0.006875 A217.000000 F1345.7696
X-0.006873 A218.000000 F1345.7728
X-0.006870 A219.000000 F1345.7707
X-0.006868 A221.000000 F1345.7716
X-0.006865 A222.000000 F1345.7723
X-0.006863 A223.000000 F1345.7724
X-0.006860 A225.000000 F1345.771
X-0.006858 A226.000000 F1345.77
X-0.006856 A227.000000 F1345.7737
X-0.006853 A229.000000 F1345.7725
X-0.006851 A230.000000 F1499.1914
X-0.006849 A231.000000 F1499.0695
A231.000000 F368115.0631
X-0.006846 A233.000000 F1498.9652
X-0.006844 A234.000000 F1498.8643
A234.000000 F367888.7036
X-0.006842 A235.000000 F1498.7538
X-0.006840 A236.000000 F1498.4045
A236.000000 F370039.8724
X-0.006838 A237.000000 F1498.5436
X-0.006835 A239.000000 F1498.4366
A239.000000 F367876.1152
X-0.006833 A240.000000 F1498.3505
X-0.006831 A241.000000 F1498.4381
X-0.006829 A242.000000 F1495.1468
A242.000000 F373033.8061
X-0.006826 A244.000000 F1498.5436
X-0.006824 A245.000000 F1496.9045
X-0.006822 A246.000000 F1496.906
A246.000000 F372964.2599
X-0.006820 A247.000000 F1498.7696
X-0.006817 A249.000000 F1498.8777
X-0.006815 A250.000000 F1496.0497
X-0.006813 A251.000000 F1496.0488
A251.000000 F373914.0958
X-0.006811 A252.000000 F1499.6035
X-0.006808 A253.000000 F1499.5108
X-0.006806 A255.000000 F1496.6886
X-0.006804 A256.000000 F1496.6901
X-0.006802 A257.000000 F1496.9
X-0.006799 A258.000000 F1496.6416
A258.000000 F369966.5062
X-0.006797 A260.000000 F1499.8138
X-0.006795 A261.000000 F1497.969
X-0.006793 A262.000000 F1497.9687
X-0.006790 A263.000000 F1495.9757
X-0.006788 A265.000000 F1496.0898
X-0.006786 A266.000000 F1496.722
X-0.006784 A267.000000 F1495.4408
X-0.006781 A268.000000 F1493.3376
X-0.006780 A269.000000 F1994.2172
X-0.006778 A270.000000 F1994.2155
X-0.006776 A271.000000 F1994.2171
X-0.006775 A272.000000 F1994.217
X-0.006772 A273.000000 F1496.3421
X-0.006770 A274.000000 F1498.6867
A274.000000 F369883.2878
X-0.006768 A276.000000 F1495.6029
X-0.006766 A277.000000 F1493.3378
X-0.006763 A278.000000 F1495.7657
X-0.006761 A279.000000 F1498.632
X-0.006759 A281.000000 F1498.5234
A281.000000 F370002.775
X-0.006756 A282.000000 F1495.6104
X-0.006754 A283.000000 F1495.6116
X-0.006752 A284.000000 F1498.6311
X-0.006750 A285.000000 F1498.524
A285.000000 F389769.4399
X-0.006747 A287.000000 F1497.7452
X-0.006745 A288.000000 F1498.4876
X-0.006743 A289.000000 F1500.8022
A289.000000 F351067.4882
X-0.006741 A290.000000 F1495.7823
X-0.006738 A292.000000 F1500.7682
X-0.006736 A293.000000 F1498.3599
A293.000000 F389816.3828
X-0.006734 A294.000000 F1500.6173
X-0.006731 A295.000000 F1498.363
A295.000000 F369789.0645
X-0.006729 A297.000000 F1498.7966
X-0.006727 A298.000000 F1500.8211
A298.000000 F351131.6503
X-0.006725 A299.000000 F1498.6309
X-0.006722 A300.000000 F1498.5055
A300.000000 F371007.2593
X-0.006720 A301.000000 F1498.4707
X-0.006718 A303.000000 F1496.2145
A303.000000 F390897.1859
X-0.006715 A304.000000 F1498.6468
X-0.006713 A305.000000 F1498.509
A305.000000 F370059.6899
X-0.006711 A306.000000 F1498.4838
X-0.006709 A308.000000 F1496.3782
X-0.006706 A309.000000 F1495.6585
A309.000000 F369894.7946
X-0.006704 A310.000000 F1498.4661
X-0.006702 A311.000000 F1496.3807
X-0.006699 A313.000000 F1495.5698
X-0.006697 A314.000000 F1495.5664
A314.000000 F369740.7846
X-0.006695 A315.000000 F1498.6523
X-0.006693 A316.000000 F1995.391
X-0.006691 A317.000000 F1995.3953
X-0.006689 A318.000000 F1995.3975
X-0.006688 A319.000000 F1995.3881
X-0.006685 A320.000000 F1497.7676
A320.000000 F351076.8544
X-0.006683 A321.000000 F1498.8133
X-0.006681 A322.000000 F1500.8006
X-0.006679 A324.000000 F1495.3339
X-0.006676 A325.000000 F1497.7641
X-0.006674 A326.000000 F1495.331
X-0.006672 A327.000000 F1497.7692
X-0.006669 A329.000000 F1495.3307
X-0.006667 A330.000000 F1497.7638
X-0.006665 A331.000000 F1495.1696
X-0.006662 A332.000000 F1495.4789
X-0.006660 A334.000000 F1495.4779
X-0.006658 A334.000000 F1993.9904
X-0.006657 A335.000000 F1993.9916
X-0.006655 A336.000000 F1993.9961
X-0.006653 A337.000000 F1993.9877
X-0.006651 A338.000000 F1496.2172
X-0.006648 A340.000000 F1498.5258
A340.000000 F371885.8759
X-0.006646 A341.000000 F1495.4599
X-0.006644 A342.000000 F1493.1963
X-0.006641 A343.000000 F1495.6572
X-0.006639 A345.000000 F1498.3607
X-0.006637 A346.000000 F1496.0868
A346.000000 F390905.3346
X-0.006634 A347.000000 F1495.4938
X-0.006632 A348.000000 F1495.4944
X-0.006630 A350.000000 F1498.4906
X-0.006627 A351.000000 F1498.3947
A351.000000 F390884.9908
X-0.006625 A352.000000 F1497.6029
X-0.006623 A353.000000 F1498.1964
X-0.006620 A354.000000 F1498.3948
A354.000000 F390830.4377
X-0.006618 A356.000000 F1497.6031
X-0.006616 A357.000000 F1498.3601
X-0.006613 A358.000000 F1500.6747
A358.000000 F369905.7756
X-0.006611 A359.000000 F1500.4774
X-0.006609 A1.000000 F1498.231
A1.000000 F369847.0797
X-0.006606 A2.000000 F1498.6865
X-0.006604 A3.000000 F1500.6749
A3.000000 F351027.8986
X-0.006602 A4.000000 F1498.5228
X-0.006599 A6.000000 F1498.362
A6.000000 F369840.1641
X-0.006597 A7.000000 F1498.5242
X-0.006595 A8.000000 F1496.8777
X-0.006592 A9.000000 F1496.8771
A9.000000 F369974.4281
X-0.006590 A10.000000 F1498.4903
X-0.006587 A12.000000 F1498.3936
X-0.006585 A13.000000 F1492.9066
A13.000000 F390960.2096
X-0.006583 A14.000000 F1498.5221
X-0.006580 A15.000000 F1498.3935
X-0.006578 A17.000000 F1492.9075
A17.000000 F390845.0457
X-0.006576 A18.000000 F1498.5229
X-0.006574 A19.000000 F1995.152
X-0.006572 A20.000000 F1995.149
X-0.006570 A21.000000 F1995.1471
X-0.006569 A22.000000 F1995.1504
A22.000000 F369952.1375
X-0.006566 A23.000000 F1498.5232
X-0.006564 A24.000000 F1995.2237
X-0.006563 A25.000000 F1995.2219
X-0.006561 A26.000000 F1995.2225
X-0.006559 A26.000000 F1995.222
X-0.006557 A28.000000 F1497.6378
X-0.006554 A29.000000 F1495.2024
X-0.006552 A30.000000 F1497.6366
X-0.006550 A31.000000 F1495.2045
X-0.006547 A33.000000 F1497.6341
X-0.006545 A34.000000 F1495.2055
X-0.006542 A35.000000 F1497.6343
X-0.006540 A36.000000 F1495.0418
X-0.006538 A38.000000 F1495.5245
X-0.006535 A39.000000 F1497.6378
X-0.006533 A40.000000 F1495.0106
X-0.006531 A41.000000 F1495.3635
X-0.006528 A42.000000 F1493.068
X-0.006526 A44.000000 F1495.4477
X-0.006523 A45.000000 F1495.4464
X-0.006521 A46.000000 F1498.197
X-0.006519 A47.000000 F1495.956
A47.000000 F393168.4294
X-0.006516 A49.000000 F1495.3489
X-0.006514 A50.000000 F1495.3481
X-0.006511 A51.000000 F1496.0884
X-0.006509 A52.000000 F1498.4241
A52.000000 F369969.0163
X-0.006507 A54.000000 F1495.362
X-0.006504 A55.000000 F1498.3653
X-0.006502 A56.000000 F1498.2609
A56.000000 F369857.8846
X-0.006499 A57.000000 F1495.3666
X-0.006497 A59.000000 F1498.3899
X-0.006495 A60.000000 F1498.2316
A60.000000 F393136.0141
X-0.006492 A61.000000 F1497.4717
X-0.006490 A62.000000 F1498.2307
X-0.006487 A63.000000 F1500.5423
A63.000000 F351008.2187
X-0.006485 A65.000000 F1498.5589
X-0.006483 A66.000000 F1500.5423
A66.000000 F350879.2005
X-0.006480 A67.000000 F1498.5576
X-0.006478 A68.000000 F1500.5425
A68.000000 F350926.4552
X-0.006475 A70.000000 F1498.5585
X-0.006473 A71.000000 F1500.5417
X-0.006470 A72.000000 F1494.8773
A72.000000 F369787.5929
X-0.006468 A73.000000 F1498.3934
X-0.006466 A75.000000 F1498.2617
A75.000000 F369890.0767
X-0.006463 A76.000000 F1498.3618
X-0.006461 A77.000000 F1498.2607
X-0.006458 A78.000000 F1492.7749
A78.000000 F390888.3857
X-0.006456 A79.000000 F1498.3945
X-0.006454 A81.000000 F1498.262
X-0.006451 A82.000000 F1492.9359
X-0.006449 A83.000000 F1495.3963
A83.000000 F369841.4452
X-0.006446 A84.000000 F1498.3622
X-0.006444 A86.000000 F1498.2608
X-0.006441 A87.000000 F1492.9371
X-0.006439 A88.000000 F1495.3141
X-0.006437 A89.000000 F1495.3149
A89.000000 F369849.7871
X-0.006434 A91.000000 F1498.3936
X-0.006432 A92.000000 F1498.4248
X-0.006429 A93.000000 F1497.5043
X-0.006427 A94.000000 F1495.0388
X-0.006424 A95.000000 F1497.5357
X-0.006422 A97.000000 F1495.0383
X-0.006420 A98.000000 F1497.538
X-0.006417 A99.000000 F1495.0378
X-0.006415 A100.000000 F1497.5358
X-0.006412 A102.000000 F1495.0382
X-0.006410 A103.000000 F1497.5371
X-0.006407 A104.000000 F1494.8757
X-0.006405 A105.000000 F1495.2312
X-0.006402 A107.000000 F1495.2338
X-0.006400 A108.000000 F1498.2303
X-0.006397 A109.000000 F1498.1261
A109.000000 F369796.5151
X-0.006395 A110.000000 F1495.2336
X-0.006393 A111.000000 F1495.2178
X-0.006390 A113.000000 F1495.2173
X-0.006388 A114.000000 F1495.9556
X-0.006385 A115.000000 F1498.2871
A115.000000 F369942.283
X-0.006383 A116.000000 F1495.2317
X-0.006380 A118.000000 F1492.9377
X-0.006378 A119.000000 F1498.4259
X-0.006375 A120.000000 F1498.0927
A120.000000 F371832.445
X-0.006373 A121.000000 F1498.2272
X-0.006370 A123.000000 F1498.1261
A123.000000 F369837.7314
X-0.006368 A124.000000 F1495.236
X-0.006366 A125.000000 F1498.2278
X-0.006363 A126.000000 F1498.1234
A126.000000 F369921.3104
X-0.006361 A127.000000 F1498.4247
X-0.006358 A129.000000 F1500.4424
A129.000000 F348951.0446
X-0.006356 A130.000000 F1498.4258
X-0.006353 A131.000000 F1500.4395
A131.000000 F349146.9079
X-0.006351 A132.000000 F1498.4245
X-0.006348 A134.000000 F1500.4402
A134.000000 F349046.6144
X-0.006346 A135.000000 F1498.4256
X-0.006343 A136.000000 F1500.4381
A136.000000 F349171.2978
X-0.006341 A137.000000 F1498.2647
X-0.006338 A139.000000 F1498.2877
X-0.006336 A140.000000 F1497.4007
A140.000000 F349144.0433
X-0.006333 A141.000000 F1498.2595
X-0.006331 A142.000000 F1498.0964
A142.000000 F350922.289
X-0.006328 A143.000000 F1496.2809
X-0.006327 A144.000000 F1994.8658
X-0.006325 A145.000000 F1994.8661
X-0.006323 A146.000000 F1994.865
X-0.006321 A147.000000 F1994.8688
A147.000000 F350989.0456
X-0.006319 A148.000000 F1496.3117
X-0.006316 A150.000000 F1496.6763
X-0.006314 A151.000000 F1496.676
X-0.006311 A152.000000 F1492.8024
X-0.006309 A153.000000 F1495.2588
A153.000000 F369980.5311
X-0.006306 A155.000000 F1498.2599
X-0.006304 A156.000000 F1495.8864
X-0.006301 A157.000000 F1495.8862
X-0.006299 A158.000000 F1495.8856
X-0.006296 A160.000000 F1495.8868
X-0.006294 A161.000000 F1497.4017
X-0.006291 A162.000000 F1494.7381
X-0.006289 A163.000000 F1495.2621
X-0.006286 A164.000000 F1497.3017
X-0.006284 A166.000000 F1497.3033
X-0.006281 A167.000000 F1494.9032
X-0.006279 A168.000000 F1497.4007
X-0.006276 A169.000000 F1494.7405
X-0.006274 A171.000000 F1495.2598
X-0.006271 A172.000000 F1500.242
X-0.006269 A173.000000 F1497.7922
X-0.006268 A173.000000 F369784.6941
X-0.006267 A174.000000 F1993.4628
X-0.006265 A175.000000 F1993.4641
X-0.006263 A176.000000 F1993.4652
X-0.006261 A177.000000 F1993.4625
X-0.006258 A178.000000 F1497.9301
X-0.006256 A179.000000 F1495.6833
X-0.006256 A179.000000 F390782.9223
X-0.006253 A180.000000 F1495.0976
X-0.006251 A182.000000 F1495.0977
X-0.006248 A183.000000 F1495.8207
X-0.006246 A184.000000 F1498.1506
X-0.006246 A184.000000 F369781.2235
X-0.006243 A185.000000 F1495.0981
X-0.006241 A187.000000 F1497.8974
X-0.006238 A188.000000 F1495.6832
X-0.006238 A188.000000 F395268.2544
X-0.006236 A189.000000 F1495.0977
X-0.006233 A190.000000 F1498.0931
X-0.006231 A192.000000 F1497.955
X-0.006231 A192.000000 F395302.6888
X-0.006228 A193.000000 F1500.0468
X-0.006226 A194.000000 F1497.8224
X-0.006226 A194.000000 F369872.9786
X-0.006223 A195.000000 F1498.2889
X-0.006221 A196.000000 F1500.2974
X-0.006221 A196.000000 F347505.9933
X-0.006218 A198.000000 F1498.2886
X-0.006216 A199.000000 F1500.3001
X-0.006216 A199.000000 F350816.0405
X-0.006213 A200.000000 F1498.289
X-0.006211 A201.000000 F1500.2987
X-0.006208 A203.000000 F1494.5692
X-0.006208 A203.000000 F395414.1218
X-0.006205 A204.000000 F1500.0455
X-0.006203 A205.000000 F1497.8224
X-0.006203 A205.000000 F369756.6689
X-0.006200 A206.000000 F1498.0937
X-0.006198 A207.000000 F1994.6091
X-0.006197 A208.000000 F1994.6103
X-0.006195 A209.000000 F1994.607
X-0.006193 A210.000000 F1994.6071
X-0.006193 A210.000000 F369875.1877
X-0.006190 A211.000000 F1498.0921
X-0.006188 A212.000000 F1498.0214
X-0.006185 A214.000000 F1492.6321
X-0.006182 A215.000000 F1495.1529
X-0.006182 A215.000000 F369845.369
X-0.006180 A216.000000 F1497.8963
X-0.006177 A217.000000 F1495.8781
X-0.006175 A219.000000 F1495.025
X-0.006172 A220.000000 F1495.0238
X-0.006170 A221.000000 F1492.696
X-0.006167 A222.000000 F1495.0256
X-0.006165 A224.000000 F1495.0238
X-0.006165 A224.000000 F369777.6596
X-0.006162 A225.000000 F1498.2879
X-0.006160 A226.000000 F1500.2997
X-0.006157 A227.000000 F1494.6354
X-0.006154 A228.000000 F1495.0865
X-0.006152 A230.000000 F1497.2941
X-0.006149 A231.000000 F1497.7612
X-0.006147 A232.000000 F1500.1564
A232.000000 F350851.0924
X-0.006144 A233.000000 F1495.0869
X-0.006142 A235.000000 F1497.2969
X-0.006139 A236.000000 F1494.7631
X-0.006136 A237.000000 F1497.227
X-0.006134 A238.000000 F1494.5703
X-0.006131 A240.000000 F1495.1547
X-0.006129 A241.000000 F1500.1021
X-0.006126 A242.000000 F1497.6817
A242.000000 F369764.3934
X-0.006124 A243.000000 F1494.9598
X-0.006121 A244.000000 F1492.6317
X-0.006118 A246.000000 F1498.1494
X-0.006116 A247.000000 F1497.8122
A247.000000 F369660.6357
X-0.006113 A248.000000 F1494.9604
X-0.006111 A249.000000 F1495.6833
X-0.006108 A251.000000 F1498.0075
A251.000000 F369782.7181
X-0.006105 A252.000000 F1494.9596
X-0.006103 A253.000000 F1497.825
X-0.006100 A254.000000 F1495.4736
A254.000000 F395256.3266
X-0.006098 A256.000000 F1494.9596
X-0.006095 A257.000000 F1497.9549
X-0.006093 A258.000000 F1497.878
A258.000000 F390726.9318
X-0.006090 A259.000000 F1499.972
X-0.006087 A260.000000 F1497.6161
A260.000000 F369777.5618
X-0.006085 A262.000000 F1498.151
X-0.006082 A263.000000 F1500.1559
A263.000000 F350856.5721
X-0.006080 A264.000000 F1498.1509
X-0.006077 A265.000000 F1500.1561
X-0.006074 A267.000000 F1494.4267
A267.000000 F395261.3514
X-0.006072 A268.000000 F1499.9058
X-0.006069 A269.000000 F1497.6172
A269.000000 F373721.3594
X-0.006067 A270.000000 F1498.1507
X-0.006064 A272.000000 F1500.156
X-0.006061 A273.000000 F1494.4278
X-0.006059 A274.000000 F1494.8173
A274.000000 F369724.154
X-0.006056 A275.000000 F1497.9544
X-0.006054 A277.000000 F1497.8134
X-0.006051 A278.000000 F1492.3596
A278.000000 F395280.5062
X-0.006048 A279.000000 F1497.9539
X-0.006046 A280.000000 F1497.8127
X-0.006043 A281.000000 F1492.4917
X-0.006041 A283.000000 F1494.914
X-0.006038 A284.000000 F1494.914
X-0.006035 A285.000000 F1492.4904
X-0.006033 A286.000000 F1495.0123
A286.000000 F369690.7544
X-0.006030 A288.000000 F1497.9538
X-0.006027 A289.000000 F1196.365
X-0.006023 A291.000000 F1196.3618
X-0.006020 A292.000000 F1196.3648
X-0.006017 A294.000000 F1196.3625
X-0.006014 A295.000000 F1497.0853
X-0.006012 A296.000000 F1494.6246
X-0.006009 A297.000000 F1497.1491
X-0.006006 A299.000000 F1497.617
X-0.006004 A300.000000 F1500.0117
A300.000000 F369604.4844
X-0.006001 A301.000000 F1496.956
X-0.005999 A302.000000 F1494.6226
X-0.005996 A304.000000 F1497.1523
X-0.005993 A305.000000 F1494.4285
X-0.005991 A306.000000 F1494.8158
X-0.005988 A307.000000 F1497.8137
X-0.005985 A309.000000 F1497.6645
A309.000000 F369588.7116
X-0.005983 A310.000000 F1495.4714
X-0.005980 A311.000000 F1495.6317
X-0.005977 A312.000000 F1494.9367
X-0.005975 A313.000000 F1494.9358
X-0.005972 A315.000000 F1492.7712
X-0.005969 A316.000000 F1495.2145
X-0.005967 A317.000000 F1494.2533
X-0.005964 A318.000000 F1492.9496
X-0.005962 A320.000000 F1494.9583
X-0.005959 A321.000000 F1492.7549
X-0.005956 A322.000000 F1495.199
X-0.005954 A323.000000 F1494.4361
X-0.005952 A324.000000 F1993.1937
X-0.005950 A325.000000 F1993.1986
X-0.005948 A326.000000 F1993.1949
X-0.005946 A327.000000 F1993.1958
X-0.005943 A328.000000 F1497.2074
X-0.005940 A329.000000 F1494.797
X-0.005938 A331.000000 F1494.6131
X-0.005935 A332.000000 F1497.1623
X-0.005932 A333.000000 F1497.1617
X-0.005930 A334.000000 F1494.7833
X-0.005927 A336.000000 F1496.9325
X-0.005924 A337.000000 F1497.1781
X-0.005922 A338.000000 F1494.2122
X-0.005919 A339.000000 F1497.441
X-0.005916 A341.000000 F1494.7659
X-0.005914 A342.000000 F1494.6506
X-0.005911 A343.000000 F1497.295
X-0.005908 A344.000000 F1493.807
X-0.005906 A345.000000 F1493.218
X-0.005903 A347.000000 F1495.141
X-0.005900 A348.000000 F1494.1173
X-0.005898 A349.000000 F1494.7664
X-0.005895 A350.000000 F1492.8785
X-0.005892 A352.000000 F1494.8807
X-0.005890 A353.000000 F1492.3608
X-0.005887 A354.000000 F1495.1408
X-0.005884 A355.000000 F1494.9964
X-0.005882 A357.000000 F1492.152
X-0.005879 A358.000000 F1494.7513
X-0.005876 A359.000000 F1495.2568
X-0.005874 A0.000000 F1494.9821
X-0.005871 A1.000000 F1494.3474
X-0.005868 A3.000000 F1494.8851
X-0.005865 A4.000000 F1494.8836
X-0.005863 A5.000000 F1496.9901
X-0.005860 A6.000000 F1494.4625
X-0.005857 A8.000000 F1497.0556
X-0.005855 A9.000000 F1494.7729
X-0.005852 A10.000000 F1496.6658
X-0.005849 A11.000000 F1494.9023
X-0.005847 A13.000000 F1497.0396
X-0.005844 A14.000000 F1494.7587
X-0.005841 A15.000000 F1496.6487
X-0.005839 A16.000000 F1992.8657
X-0.005837 A17.000000 F1992.8655
X-0.005835 A18.000000 F1992.8669
X-0.005833 A19.000000 F1992.8646
X-0.005830 A20.000000 F1494.9544
X-0.005828 A21.000000 F1494.8726
X-0.005825 A22.000000 F1494.1073
X-0.005822 A24.000000 F1492.8052
X-0.005820 A25.000000 F1494.7751
X-0.005817 A26.000000 F1494.7771
X-0.005814 A27.000000 F1492.5298
X-0.005811 A29.000000 F1494.678
X-0.005809 A30.000000 F1494.759
X-0.005806 A31.000000 F1494.7604
X-0.005803 A32.000000 F1492.5983
X-0.005801 A34.000000 F1495.0386
X-0.005798 A35.000000 F1494.2703
X-0.005795 A36.000000 F1495.1057
X-0.005792 A37.000000 F1496.8496
X-0.005790 A38.000000 F1494.3875
X-0.005787 A40.000000 F1496.9851
X-0.005784 A41.000000 F1494.6933
X-0.005781 A42.000000 F1496.5927
X-0.005779 A43.000000 F1494.8277
X-0.005776 A45.000000 F1496.9017
X-0.005773 A46.000000 F1494.6985
X-0.005771 A47.000000 F1497.1467
X-0.005768 A48.000000 F1494.1643
X-0.005765 A50.000000 F1494.4364
X-0.005762 A51.000000 F1497.2788
X-0.005760 A52.000000 F1494.603
X-0.005757 A53.000000 F1493.9685
X-0.005754 A54.000000 F1492.5528
X-0.005752 A55.000000 F1992.9718
X-0.005750 A56.000000 F1992.9775
X-0.005748 A57.000000 F1992.9791
X-0.005746 A58.000000 F1992.9826
X-0.005743 A59.000000 F1492.4566
X-0.005740 A61.000000 F1494.6651
X-0.005738 A62.000000 F1494.7865
X-0.005735 A63.000000 F1492.1956
X-0.005732 A64.000000 F1494.7184
X-0.005729 A66.000000 F1494.8481
X-0.005727 A67.000000 F1494.7672
X-0.005724 A68.000000 F1494.1999
X-0.005721 A69.000000 F1494.6708
X-0.005718 A70.000000 F1494.6717
X-0.005716 A72.000000 F1494.9621
X-0.005713 A73.000000 F1497.0872
X-0.005710 A74.000000 F1494.0523
X-0.005707 A75.000000 F1497.0877
X-0.005705 A77.000000 F1494.2979
X-0.005702 A78.000000 F1496.8913
X-0.005699 A79.000000 F1494.6086
X-0.005696 A80.000000 F1496.4992
X-0.005694 A82.000000 F1494.5436
X-0.005691 A83.000000 F1494.6728
X-0.005688 A84.000000 F1496.8107
X-0.005685 A85.000000 F1494.3479
X-0.005683 A86.000000 F1494.7886
X-0.005680 A88.000000 F1494.153
X-0.005677 A89.000000 F1494.7235
X-0.005674 A90.000000 F1492.1369
X-0.005672 A91.000000 F1494.9825
X-0.005669 A93.000000 F1494.7084
X-0.005666 A94.000000 F1491.8778
X-0.005663 A95.000000 F1494.6753
X-0.005660 A96.000000 F1494.6757
X-0.005658 A98.000000 F1492.4454
X-0.005655 A99.000000 F1494.8879
X-0.005652 A100.000000 F1494.1881
X-0.005649 A101.000000 F1494.5623
X-0.005647 A102.000000 F1494.5624
X-0.005644 A104.000000 F1494.9527
X-0.005641 A105.000000 F1497.0108
X-0.005638 A106.000000 F1493.7168
X-0.005635 A107.000000 F1494.9381
X-0.005633 A109.000000 F1496.6852
X-0.005630 A110.000000 F1494.2224
X-0.005627 A111.000000 F1496.7499
X-0.005624 A112.000000 F1494.484
X-0.005621 A114.000000 F1496.9937
X-0.005619 A115.000000 F1494.2068
X-0.005616 A116.000000 F1496.7339
X-0.005613 A117.000000 F1494.2735
X-0.005610 A118.000000 F1494.7118
X-0.005607 A120.000000 F1494.075
X-0.005605 A121.000000 F1494.4826
X-0.005602 A122.000000 F1494.487
X-0.005599 A123.000000 F1494.4849
X-0.005596 A125.000000 F1494.4826
X-0.005593 A126.000000 F1492.566
X-0.005591 A127.000000 F1494.4375
X-0.005588 A128.000000 F1494.4352
X-0.005585 A130.000000 F1492.047
X-0.005582 A131.000000 F1494.566
X-0.005579 A132.000000 F1494.698
X-0.005577 A133.000000 F1494.6166
X-0.005574 A135.000000 F1492.0286
X-0.005571 A136.000000 F1494.7436
X-0.005568 A137.000000 F1496.8201
X-0.005565 A138.000000 F1494.407
X-0.005562 A139.000000 F1494.0286
X-0.005560 A141.000000 F1494.8636
X-0.005557 A142.000000 F1496.6706
X-0.005554 A143.000000 F1494.4087
X-0.005551 A144.000000 F1496.9171
X-0.005548 A146.000000 F1495.9553
X-0.005546 A147.000000 F1494.6494
X-0.005543 A148.000000 F1496.5912
X-0.005540 A149.000000 F1493.9385
X-0.005537 A151.000000 F1494.6477
X-0.005534 A152.000000 F1494.7664
X-0.005531 A153.000000 F1496.6409
X-0.005529 A154.000000 F1493.7422
X-0.005526 A155.000000 F1492.5508
X-0.005523 A157.000000 F1494.1169
X-0.005520 A158.000000 F1494.5679
X-0.005517 A159.000000 F1494.6195
X-0.005514 A160.000000 F1491.9708
X-0.005512 A162.000000 F1494.3592
X-0.005509 A163.000000 F1494.3592
X-0.005506 A164.000000 F1492.2944
X-0.005502 A166.000000 F1195.547
X-0.005499 A167.000000 F1195.5472
X-0.005495 A169.000000 F1195.5481
X-0.005492 A170.000000 F1195.5475
X-0.005489 A171.000000 F1494.522
X-0.005486 A173.000000 F1494.2142
X-0.005483 A174.000000 F1496.856
X-0.005480 A175.000000 F1494.3276
X-0.005477 A176.000000 F1496.9054
X-0.005475 A178.000000 F1493.7441
X-0.005472 A179.000000 F1496.8401
X-0.005469 A180.000000 F1494.0526
X-0.005466 A181.000000 F1496.5783
X-0.005463 A183.000000 F1493.9883
X-0.005460 A184.000000 F1496.7102
X-0.005457 A185.000000 F1195.4062
X-0.005453 A187.000000 F1195.4065
X-0.005450 A188.000000 F1195.406
X-0.005446 A190.000000 F1195.4062
X-0.005443 A191.000000 F1492.2153
X-0.005440 A192.000000 F1494.2976
X-0.005437 A194.000000 F1494.606
X-0.005435 A195.000000 F1492.2003
X-0.005432 A196.000000 F1494.0203
X-0.005429 A197.000000 F1494.4782
X-0.005426 A199.000000 F1494.5249
X-0.005423 A200.000000 F1491.8745
X-0.005420 A201.000000 F1494.3979
X-0.005417 A202.000000 F1494.4594
X-0.005414 A203.000000 F1494.5099
X-0.005412 A205.000000 F1494.0709
X-0.005409 A206.000000 F1496.7766
X-0.005406 A207.000000 F1493.7944
X-0.005403 A208.000000 F1494.7036
X-0.005400 A210.000000 F1496.7621
X-0.005397 A211.000000 F1493.6638
X-0.005394 A212.000000 F1496.8275
X-0.005391 A213.000000 F1493.9092
X-0.005389 A215.000000 F1496.5019
X-0.005386 A216.000000 F1494.2325
X-0.005383 A217.000000 F1496.8132
X-0.005380 A218.000000 F1493.6955
X-0.005377 A219.000000 F1494.1714
X-0.005374 A221.000000 F1494.7209
X-0.005371 A222.000000 F1493.5699
X-0.005368 A223.000000 F1494.4124
X-0.005365 A224.000000 F1494.3013
X-0.005362 A226.000000 F1494.3
X-0.005360 A227.000000 F1491.8116
X-0.005357 A228.000000 F1494.2702
X-0.005354 A229.000000 F1494.267
X-0.005351 A231.000000 F1492.3135
X-0.005349 A232.000000 F1992.2498
X-0.005347 A232.000000 F1992.2518
X-0.005344 A233.000000 F1992.249
X-0.005342 A234.000000 F1992.2444
X-0.005339 A236.000000 F1492.0584
X-0.005336 A237.000000 F1494.6264
X-0.005333 A238.000000 F1496.1254
X-0.005331 A239.000000 F1494.1701
X-0.005328 A240.000000 F1494.6257
X-0.005325 A242.000000 F1496.6814
X-0.005322 A243.000000 F1493.6516
X-0.005319 A244.000000 F1496.6821
X-0.005316 A245.000000 F1493.8945
X-0.005313 A247.000000 F1496.3555
X-0.005310 A248.000000 F1493.8949
X-0.005307 A249.000000 F1496.4857
X-0.005304 A250.000000 F1494.1388
X-0.005301 A252.000000 F1494.1391
X-0.005298 A253.000000 F1494.2682
X-0.005296 A254.000000 F1496.3402
X-0.005293 A255.000000 F1493.748
X-0.005290 A256.000000 F1492.253
X-0.005287 A257.000000 F1992.1636
X-0.005285 A258.000000 F1992.166
X-0.005283 A259.000000 F1992.1609
X-0.005281 A260.000000 F1992.164
X-0.005278 A261.000000 F1491.7343
X-0.005275 A263.000000 F1494.5775
X-0.005272 A264.000000 F1494.3022
X-0.005269 A265.000000 F1491.7176
X-0.005266 A266.000000 F1494.2374
X-0.005263 A268.000000 F1494.3009
X-0.005260 A269.000000 F1494.2862
X-0.005257 A270.000000 F1493.8462
X-0.005254 A271.000000 F1494.1558
X-0.005252 A272.000000 F1494.1558
X-0.005249 A274.000000 F1494.4803
X-0.005246 A275.000000 F1496.6665
X-0.005243 A276.000000 F1493.4413
X-0.005240 A277.000000 F1496.6657
X-0.005237 A279.000000 F1493.8161
X-0.005234 A280.000000 F1496.275
X-0.005231 A281.000000 F1494.2027
X-0.005228 A282.000000 F1496.521
X-0.005225 A284.000000 F1493.7983
X-0.005222 A285.000000 F1496.2591
X-0.005219 A286.000000 F1493.6691
X-0.005216 A287.000000 F1493.9282
X-0.005213 A288.000000 F1494.3185
X-0.005210 A290.000000 F1494.1083
X-0.005207 A291.000000 F1494.106
X-0.005204 A292.000000 F1491.7185
X-0.005201 A293.000000 F1494.1714
X-0.005198 A295.000000 F1494.173
X-0.005195 A296.000000 F1494.2884
X-0.005192 A297.000000 F1491.7014
X-0.005190 A298.000000 F1494.0245
X-0.005187 A300.000000 F1494.0268
X-0.005184 A301.000000 F1491.9628
X-0.005181 A302.000000 F1494.2061
X-0.005178 A303.000000 F1494.2042
X-0.005175 A304.000000 F1493.8933
X-0.005172 A306.000000 F1494.5144
X-0.005169 A307.000000 F1495.8225
X-0.005166 A308.000000 F1493.8791
X-0.005163 A309.000000 F1494.3841
X-0.005160 A311.000000 F1496.3212
X-0.005157 A312.000000 F1493.7345
X-0.005154 A313.000000 F1496.1967
X-0.005151 A314.000000 F1496.1913
X-0.005148 A316.000000 F1493.9767
X-0.005145 A317.000000 F1494.1097
X-0.005142 A318.000000 F1496.1765
X-0.005139 A319.000000 F1493.4552
X-0.005136 A320.000000 F1494.2378
X-0.005132 A322.000000 F1195.1707
X-0.005128 A324.000000 F1195.1685
X-0.005125 A325.000000 F1195.1699
X-0.005121 A327.000000 F1195.1675
X-0.005118 A328.000000 F1491.7688
X-0.005115 A329.000000 F1494.1386
X-0.005112 A330.000000 F1494.1402
X-0.005109 A332.000000 F1491.6201
X-0.005106 A333.000000 F1494.3339
X-0.005103 A334.000000 F1494.1891
X-0.005100 A335.000000 F1493.5534
X-0.005098 A336.000000 F1992.0825
X-0.005095 A337.000000 F1992.0751
X-0.005093 A338.000000 F1992.0785
X-0.005091 A339.000000 F1992.0805
X-0.005088 A340.000000 F1494.0401
X-0.005085 A341.000000 F1493.7985
X-0.005082 A343.000000 F1496.5028
X-0.005079 A344.000000 F1493.6524
X-0.005076 A345.000000 F1496.1114
X-0.005073 A346.000000 F1493.9126
X-0.005070 A348.000000 F1496.487
X-0.005067 A349.000000 F1493.3752
X-0.005064 A350.000000 F1495.8516
X-0.005061 A351.000000 F1494.2851
X-0.005058 A353.000000 F1494.1389
X-0.005055 A354.000000 F1495.834
X-0.005052 A355.000000 F1493.8141
X-0.005049 A356.000000 F1493.814
X-0.005046 A357.000000 F1491.5556
X-0.005043 A359.000000 F1494.0092
X-0.005040 A0.000000 F1494.0103
X-0.005037 A1.000000 F1494.1219
X-0.005034 A2.000000 F1491.2807
X-0.005031 A4.000000 F1494.2672
X-0.005028 A5.000000 F1494.3669
X-0.005025 A6.000000 F1490.8924
X-0.005022 A7.000000 F1494.252
X-0.005019 A9.000000 F1493.9119
X-0.005016 A10.000000 F1493.9107
X-0.005012 A11.000000 F1493.9103
X-0.005009 A12.000000 F1493.9121
X-0.005006 A13.000000 F1494.0883
X-0.005003 A15.000000 F1493.7152
X-0.005000 A16.000000 F1496.4189
X-0.004997 A17.000000 F1493.8313
X-0.004994 A18.000000 F1496.2737
X-0.004991 A20.000000 F1493.3076
X-0.004988 A21.000000 F1496.4032
X-0.004985 A22.000000 F1493.1815
X-0.004982 A23.000000 F1496.4025
X-0.004979 A25.000000 F1493.8127
X-0.004976 A26.000000 F1496.3857
X-0.004973 A27.000000 F1493.0345
X-0.004970 A28.000000 F1493.7961
X-0.004967 A29.000000 F1493.7941
X-0.004964 A31.000000 F1493.796
X-0.004961 A32.000000 F1493.7967
X-0.004958 A33.000000 F1491.718
X-0.004955 A34.000000 F1493.9271
X-0.004952 A36.000000 F1493.8416
X-0.004949 A37.000000 F1493.8469
X-0.004945 A38.000000 F1491.695
X-0.004942 A39.000000 F1493.7817
X-0.004939 A41.000000 F1494.0233
X-0.004936 A42.000000 F1491.0665
X-0.004933 A43.000000 F1494.0898
X-0.004930 A44.000000 F1494.0868
X-0.004927 A45.000000 F1494.0072
X-0.004924 A47.000000 F1493.6283
X-0.004921 A48.000000 F1496.3391
X-0.004918 A49.000000 F1493.2272
X-0.004915 A50.000000 F1493.8752
X-0.004912 A52.000000 F1496.3365
X-0.004909 A53.000000 F1496.0582
X-0.004906 A54.000000 F1493.2098
X-0.004903 A55.000000 F1495.6855
X-0.004899 A57.000000 F1494.249
X-0.004896 A58.000000 F1496.3012
X-0.004893 A59.000000 F1492.9498
X-0.004889 A61.000000 F1195.0122
X-0.004886 A62.000000 F1195.0108
X-0.004882 A64.000000 F1195.0121
X-0.004878 A65.000000 F1195.0097
X-0.004875 A66.000000 F1493.8282
X-0.004872 A68.000000 F1493.1904
X-0.004869 A69.000000 F1491.7629
X-0.004866 A70.000000 F1494.2152
X-0.004862 A71.000000 F1493.8082
X-0.004859 A73.000000 F1490.9862
X-0.004856 A74.000000 F1493.8082
X-0.004853 A75.000000 F1493.8091
X-0.004850 A76.000000 F1493.8072
X-0.004847 A77.000000 F1493.809
X-0.004844 A79.000000 F1493.9209
X-0.004841 A80.000000 F1493.2895
X-0.004838 A81.000000 F1493.8566
X-0.004835 A82.000000 F1493.8568
X-0.004832 A84.000000 F1495.9894
X-0.004828 A85.000000 F1493.6456
X-0.004825 A86.000000 F1495.7292
X-0.004822 A87.000000 F1493.7756
X-0.004819 A89.000000 F1495.974
X-0.004816 A90.000000 F1493.3843
X-0.004813 A91.000000 F1495.9742
X-0.004810 A92.000000 F1493.6283
X-0.004807 A94.000000 F1493.5143
X-0.004804 A95.000000 F1496.0873
X-0.004800 A96.000000 F1493.4971
X-0.004797 A97.000000 F1493.7419
X-0.004794 A98.000000 F1493.1079
X-0.004791 A100.000000 F1491.6772
X-0.004788 A101.000000 F1493.6767
X-0.004785 A102.000000 F1493.676
X-0.004782 A103.000000 F1491.1591
X-0.004779 A105.000000 F1494.1283
X-0.004776 A106.000000 F1493.7244
X-0.004772 A107.000000 F1491.014
X-0.004769 A108.000000 F1494.0005
X-0.004766 A110.000000 F1494.0964
X-0.004763 A111.000000 F1492.9448
X-0.004760 A112.000000 F1493.7233
X-0.004757 A113.000000 F1493.7711
X-0.004754 A114.000000 F1493.7724
X-0.004751 A116.000000 F1495.9036
X-0.004747 A117.000000 F1493.3184
X-0.004744 A118.000000 F1494.0798
X-0.004741 A119.000000 F1495.7567
X-0.004738 A121.000000 F1493.0558
X-0.004735 A122.000000 F1496.4101
X-0.004732 A123.000000 F1495.8714
X-0.004729 A124.000000 F1492.781
X-0.004725 A126.000000 F1493.6739
X-0.004722 A127.000000 F1495.6262
X-0.004719 A128.000000 F1493.5414
X-0.004716 A129.000000 F1493.6743
X-0.004713 A130.000000 F1493.7879
X-0.004710 A132.000000 F1493.1482
X-0.004707 A133.000000 F1493.7855
X-0.004703 A134.000000 F1491.0776
X-0.004700 A135.000000 F1493.6518
X-0.004697 A137.000000 F1493.7867
X-0.004694 A138.000000 F1493.7684
X-0.004691 A139.000000 F1490.8149
X-0.004688 A140.000000 F1493.704
X-0.004684 A142.000000 F1493.7034
X-0.004681 A143.000000 F1491.4273
X-0.004678 A144.000000 F1493.6378
X-0.004675 A145.000000 F1493.6217
X-0.004672 A146.000000 F1493.1178
X-0.004669 A148.000000 F1494.01
X-0.004666 A149.000000 F1495.8168
X-0.004662 A150.000000 F1493.4741
X-0.004659 A151.000000 F1495.4295
X-0.004656 A153.000000 F1493.733
X-0.004653 A154.000000 F1495.8015
X-0.004650 A155.000000 F1493.0857
X-0.004647 A156.000000 F1495.8016
X-0.004643 A158.000000 F1493.716
X-0.004640 A159.000000 F1495.7831
X-0.004637 A160.000000 F1492.5646
X-0.004634 A161.000000 F1493.9774
X-0.004631 A162.000000 F1493.6986
X-0.004627 A164.000000 F1493.0666
X-0.004624 A165.000000 F1493.4393
X-0.004621 A166.000000 F1493.4379
X-0.004618 A167.000000 F1493.438
X-0.004615 A169.000000 F1493.4405
X-0.004612 A170.000000 F1491.3755
X-0.004608 A171.000000 F1493.8129
X-0.004605 A172.000000 F1492.9182
X-0.004602 A174.000000 F1491.4901
X-0.004599 A175.000000 F1493.9394
X-0.004596 A176.000000 F1493.5357
X-0.004593 A177.000000 F1493.1603
X-0.004589 A178.000000 F1493.4037
X-0.004586 A180.000000 F1493.405
X-0.004583 A181.000000 F1493.4037
X-0.004580 A182.000000 F1493.4038
X-0.004577 A183.000000 F1493.7948
X-0.004573 A185.000000 F1495.9751
X-0.004570 A186.000000 F1493.1264
X-0.004567 A187.000000 F1495.5848
X-0.004564 A188.000000 F1493.1268
X-0.004561 A190.000000 F1495.7151
X-0.004557 A191.000000 F1493.628
X-0.004554 A192.000000 F1495.5668
X-0.004551 A193.000000 F1492.8504
X-0.004548 A195.000000 F1493.4989
X-0.004545 A196.000000 F1495.8268
X-0.004541 A197.000000 F1493.3508
X-0.004538 A198.000000 F1492.9817
X-0.004535 A199.000000 F1493.4808
X-0.004532 A201.000000 F1491.033
X-0.004529 A202.000000 F1493.7412
X-0.004525 A203.000000 F1493.5927
X-0.004522 A204.000000 F1490.7542
X-0.004519 A206.000000 F1493.3517
X-0.004516 A207.000000 F1493.5937
X-0.004512 A208.000000 F1491.2576
X-0.004509 A209.000000 F1493.0725
X-0.004506 A211.000000 F1493.5944
X-0.004504 A211.000000 F1991.261
X-0.004501 A212.000000 F1991.2644
X-0.004499 A213.000000 F1991.261
X-0.004496 A214.000000 F1991.2642
X-0.004493 A215.000000 F1493.558
X-0.004490 A217.000000 F1495.2528
X-0.004487 A218.000000 F1493.2993
X-0.004483 A219.000000 F1493.4282
X-0.004480 A220.000000 F1495.4964
X-0.004477 A222.000000 F1495.4979
X-0.004474 A223.000000 F1493.2978
X-0.004470 A224.000000 F1495.8702
X-0.004467 A225.000000 F1492.6313
X-0.004464 A227.000000 F1493.54
X-0.004461 A228.000000 F1495.6118
X-0.004458 A229.000000 F1493.2598
X-0.004454 A230.000000 F1492.8926
X-0.004452 A231.000000 F1991.0206
X-0.004449 A232.000000 F1991.0161
X-0.004447 A233.000000 F1991.0211
X-0.004445 A234.000000 F1991.0191
X-0.004441 A235.000000 F1491.203
X-0.004438 A236.000000 F1493.4391
X-0.004435 A238.000000 F1493.4399
X-0.004432 A239.000000 F1492.615
X-0.004428 A240.000000 F1491.7053
X-0.004425 A241.000000 F1493.7465
X-0.004422 A243.000000 F1492.5974
X-0.004419 A244.000000 F1491.297
X-0.004415 A245.000000 F1493.2943
X-0.004412 A246.000000 F1493.2916
X-0.004409 A247.000000 F1493.3595
X-0.004406 A249.000000 F1495.5548
X-0.004402 A250.000000 F1493.211
X-0.004399 A251.000000 F1493.34
X-0.004396 A252.000000 F1495.5382
X-0.004393 A254.000000 F1492.9477
X-0.004389 A255.000000 F1495.5387
X-0.004386 A256.000000 F1493.1934
X-0.004383 A257.000000 F1495.1466
X-0.004380 A259.000000 F1493.4524
X-0.004376 A260.000000 F1495.5196
X-0.004373 A261.000000 F1493.1753
X-0.004370 A262.000000 F1492.8031
X-0.004366 A264.000000 F1194.5816
X-0.004362 A265.000000 F1194.5818
X-0.004357 A267.000000 F1194.5815
X-0.004353 A268.000000 F1194.5815
X-0.004350 A270.000000 F1493.4153
X-0.004347 A271.000000 F1490.7091
X-0.004344 A272.000000 F1493.1574
X-0.004340 A273.000000 F1493.1571
X-0.004337 A275.000000 F1491.0967
X-0.004334 A276.000000 F1493.6571
X-0.004330 A277.000000 F1492.7681
X-0.004327 A278.000000 F1493.334
X-0.004324 A279.000000 F1493.3347
X-0.004321 A281.000000 F1493.3812
X-0.004317 A282.000000 F1492.7485
X-0.004314 A283.000000 F1493.3156
X-0.004311 A284.000000 F1493.3156
X-0.004307 A286.000000 F1495.4485
X-0.004304 A287.000000 F1492.7324
X-0.004301 A288.000000 F1495.7077
X-0.004298 A289.000000 F1495.4313
X-0.004294 A291.000000 F1492.8439
X-0.004291 A292.000000 F1495.4282
X-0.004288 A293.000000 F1492.4544
X-0.004284 A294.000000 F1493.6245
X-0.004281 A295.000000 F1495.6703
X-0.004278 A297.000000 F1492.1951
X-0.004274 A298.000000 F1493.3455
X-0.004271 A299.000000 F1493.347
X-0.004268 A300.000000 F1493.3238
X-0.004265 A302.000000 F1490.3798
X-0.004261 A303.000000 F1493.2598
X-0.004258 A304.000000 F1493.2633
X-0.004255 A305.000000 F1490.6204
X-0.004251 A307.000000 F1493.1298
X-0.004248 A308.000000 F1493.1316
X-0.004245 A309.000000 F1491.118
X-0.004242 A310.000000 F1990.7336
X-0.004240 A311.000000 F1990.7381
X-0.004237 A312.000000 F1990.7276
X-0.004235 A313.000000 F1990.7391
X-0.004231 A314.000000 F1493.305
X-0.004228 A315.000000 F1493.227
X-0.004225 A316.000000 F1493.2248
X-0.004221 A318.000000 F1495.3583
X-0.004218 A319.000000 F1492.6433
X-0.004215 A320.000000 F1495.3569
X-0.004212 A321.000000 F1493.03
X-0.004208 A323.000000 F1495.598
X-0.004205 A324.000000 F1492.7519
X-0.004202 A325.000000 F1495.2091
X-0.004198 A326.000000 F1493.0133
X-0.004195 A328.000000 F1495.5826
X-0.004192 A329.000000 F1492.2339
X-0.004189 A330.000000 F1990.7774
X-0.004187 A331.000000 F1990.7771
X-0.004184 A332.000000 F1990.7741
X-0.004182 A332.000000 F1990.7752
X-0.004178 A334.000000 F1493.2371
X-0.004175 A335.000000 F1492.4742
X-0.004172 A336.000000 F1491.0459
X-0.004169 A337.000000 F1990.6359
X-0.004167 A338.000000 F1990.6355
X-0.004164 A339.000000 F1990.6357
X-0.004162 A340.000000 F1990.6351
X-0.004158 A341.000000 F1491.1587
X-0.004155 A342.000000 F1493.0871
X-0.004152 A344.000000 F1492.3301
X-0.004148 A345.000000 F1491.4151
X-0.004145 A346.000000 F1493.459
X-0.004141 A347.000000 F1492.5692
X-0.004138 A348.000000 F1493.3311
X-0.004135 A350.000000 F1495.2657
X-0.004131 A351.000000 F1492.4209
X-0.004128 A352.000000 F1493.07
X-0.004125 A353.000000 F1495.2669
X-0.004121 A355.000000 F1492.9211
X-0.004118 A356.000000 F1494.8761
X-0.004115 A357.000000 F1493.4413
X-0.004111 A358.000000 F1495.4892
X-0.004108 A0.000000 F1492.0137
X-0.004105 A1.000000 F1495.2485
X-0.004102 A2.000000 F1990.4794
X-0.004100 A3.000000 F1990.4814
X-0.004097 A4.000000 F1990.4811
X-0.004095 A4.000000 F1990.4795
X-0.004091 A6.000000 F1493.1622
X-0.004088 A7.000000 F1493.1462
X-0.004084 A8.000000 F1492.5139
X-0.004081 A9.000000 F1492.9486
X-0.004078 A11.000000 F1492.9512
X-0.004074 A12.000000 F1490.8252
X-0.004071 A13.000000 F1493.257
X-0.004068 A14.000000 F1492.2368
X-0.004064 A16.000000 F1491.0664
X-0.004061 A17.000000 F1492.8671
X-0.004057 A18.000000 F1492.8661
X-0.004054 A19.000000 F1493.1267
X-0.004051 A20.000000 F1492.9135
X-0.004047 A22.000000 F1492.9143
X-0.004044 A23.000000 F1492.9146
X-0.004041 A24.000000 F1492.9132
X-0.004037 A25.000000 F1495.1725
X-0.004034 A27.000000 F1492.8475
X-0.004030 A28.000000 F1495.4171
X-0.004027 A29.000000 F1492.4403
X-0.004024 A30.000000 F1495.1555
X-0.004020 A32.000000 F1492.4393
X-0.004017 A33.000000 F1495.2854
X-0.004014 A34.000000 F1492.8133
X-0.004010 A35.000000 F1492.9399
X-0.004007 A36.000000 F1495.0082
X-0.004003 A38.000000 F1492.2918
X-0.004000 A39.000000 F1493.0722
X-0.003996 A40.000000 F1493.0522
X-0.003993 A41.000000 F1492.1638
X-0.003990 A43.000000 F1490.8631
X-0.003986 A44.000000 F1493.3094
X-0.003983 A45.000000 F1493.0359
X-0.003980 A46.000000 F1490.0846
X-0.003976 A48.000000 F1492.9726
X-0.003973 A49.000000 F1492.9659
X-0.003969 A50.000000 F1490.3276
X-0.003966 A51.000000 F1492.9072
X-0.003963 A53.000000 F1493.0299
X-0.003960 A53.000000 F1990.4631
X-0.003957 A54.000000 F1990.4523
X-0.003955 A55.000000 F1990.4599
X-0.003952 A56.000000 F1990.4589
X-0.003949 A57.000000 F1495.0791
X-0.003945 A59.000000 F1492.4953
X-0.003942 A60.000000 F1492.9992
X-0.003939 A61.000000 F1494.6896
X-0.003935 A62.000000 F1492.9972
X-0.003932 A64.000000 F1495.062
X-0.003928 A65.000000 F1492.7195
X-0.003925 A66.000000 F1494.6696
X-0.003921 A67.000000 F1492.72
X-0.003918 A69.000000 F1495.0617
X-0.003915 A70.000000 F1492.9594
X-0.003911 A71.000000 F1492.0698
X-0.003908 A72.000000 F1492.8494
X-0.003904 A73.000000 F1492.9582
X-0.003901 A75.000000 F1492.3308
X-0.003898 A76.000000 F1493.0883
X-0.003894 A77.000000 F1490.4934
X-0.003891 A78.000000 F1492.5702
X-0.003887 A80.000000 F1492.5718
X-0.003884 A81.000000 F1490.8807
X-0.003880 A82.000000 F1492.8118
X-0.003877 A83.000000 F1492.9398
X-0.003874 A85.000000 F1492.9222
X-0.003870 A86.000000 F1492.0325
X-0.003867 A87.000000 F1490.4753
X-0.003863 A88.000000 F1493.3301
X-0.003860 A89.000000 F1495.6188
X-0.003856 A91.000000 F1491.4959
X-0.003853 A92.000000 F1493.0523
X-0.003849 A93.000000 F1495.2285
X-0.003846 A94.000000 F1492.3841
X-0.003843 A96.000000 F1494.9681
X-0.003839 A97.000000 F1492.2544
X-0.003836 A98.000000 F1494.9687
X-0.003832 A99.000000 F1492.6245
X-0.003829 A101.000000 F1494.7081
X-0.003825 A102.000000 F1492.496
X-0.003822 A103.000000 F1492.8847
X-0.003818 A104.000000 F1492.8654
X-0.003815 A105.000000 F1492.2358
X-0.003811 A107.000000 F1194.0846
X-0.003806 A109.000000 F1194.0851
X-0.003802 A110.000000 F1194.0851
X-0.003798 A112.000000 F1194.0842
X-0.003794 A113.000000 F1490.659
X-0.003791 A114.000000 F1492.6509
X-0.003787 A115.000000 F1492.6547
X-0.003784 A117.000000 F1490.139
X-0.003780 A118.000000 F1493.1071
X-0.003777 A119.000000 F1492.8255
X-0.003773 A120.000000 F1492.199
X-0.003770 A121.000000 F1493.0866
X-0.003766 A123.000000 F1492.6836
X-0.003763 A124.000000 F1491.9167
X-0.003759 A125.000000 F1493.0894
X-0.003756 A126.000000 F1495.1356
X-0.003752 A128.000000 F1492.1573
X-0.003749 A129.000000 F1494.8738
X-0.003746 A130.000000 F1492.5506
X-0.003742 A131.000000 F1495.1119
X-0.003739 A133.000000 F1491.9022
X-0.003735 A134.000000 F1495.1164
X-0.003732 A135.000000 F1492.2675
X-0.003728 A136.000000 F1494.8582
X-0.003725 A137.000000 F1492.5106
X-0.003721 A139.000000 F1492.1404
X-0.003719 A140.000000 F1990.0706
X-0.003716 A141.000000 F1990.0766
X-0.003713 A141.000000 F1990.0687
X-0.003711 A142.000000 F1990.0772
X-0.003707 A144.000000 F1490.324
X-0.003704 A145.000000 F1493.0115
X-0.003700 A146.000000 F1491.8614
X-0.003697 A147.000000 F1490.5676
X-0.003693 A149.000000 F1493.0089
X-0.003690 A150.000000 F1492.7322
X-0.003686 A151.000000 F1489.6587
X-0.003683 A152.000000 F1492.9929
X-0.003679 A154.000000 F1492.1037
X-0.003676 A155.000000 F1492.9931
X-0.003672 A156.000000 F1492.7115
X-0.003669 A157.000000 F1492.0861
X-0.003665 A158.000000 F1494.7978
X-0.003662 A160.000000 F1492.7124
X-0.003658 A161.000000 F1494.6497
X-0.003655 A162.000000 F1492.4529
X-0.003651 A163.000000 F1495.019
X-0.003648 A165.000000 F1491.8068
X-0.003644 A166.000000 F1495.0195
X-0.003641 A167.000000 F1492.1743
X-0.003637 A168.000000 F1494.7586
X-0.003634 A170.000000 F1491.7882
X-0.003630 A171.000000 F1492.6928
X-0.003626 A172.000000 F1193.9333
X-0.003621 A174.000000 F1193.9323
X-0.003617 A175.000000 F1193.933
X-0.003612 A177.000000 F1193.9329
X-0.003609 A178.000000 F1490.4688
X-0.003605 A179.000000 F1492.4613
X-0.003602 A181.000000 F1492.462
X-0.003598 A182.000000 F1489.9514
X-0.003595 A183.000000 F1492.9153
X-0.003591 A184.000000 F1492.6369
X-0.003588 A186.000000 F1492.0078
X-0.003584 A187.000000 F1492.5079
X-0.003581 A188.000000 F1490.5784
X-0.003577 A189.000000 F1495.2034
X-0.003574 A190.000000 F1491.47
X-0.003570 A192.000000 F1492.553
X-0.003567 A193.000000 F1492.5518
X-0.003563 A194.000000 F1494.6822
X-0.003560 A195.000000 F1491.9687
X-0.003556 A197.000000 F1494.8101
X-0.003552 A198.000000 F1492.2109
X-0.003549 A199.000000 F1494.4219
X-0.003545 A200.000000 F1492.8564
X-0.003542 A202.000000 F1494.906
X-0.003538 A203.000000 F1491.1688
X-0.003535 A204.000000 F1492.6001
X-0.003531 A205.000000 F1492.3839
X-0.003528 A206.000000 F1492.386
X-0.003524 A208.000000 F1492.3843
X-0.003520 A209.000000 F1492.3847
X-0.003517 A210.000000 F1492.5609
X-0.003513 A211.000000 F1491.6685
X-0.003510 A213.000000 F1490.375
X-0.003506 A214.000000 F1492.8165
X-0.003503 A215.000000 F1492.541
X-0.003499 A216.000000 F1491.6532
X-0.003496 A218.000000 F1490.0955
X-0.003492 A219.000000 F1492.4303
X-0.003488 A220.000000 F1492.5391
X-0.003485 A221.000000 F1492.5394
X-0.003481 A222.000000 F1492.3935
X-0.003478 A224.000000 F1492.023
X-0.003474 A225.000000 F1492.649
X-0.003471 A226.000000 F1494.5835
X-0.003467 A227.000000 F1491.7454
X-0.003463 A229.000000 F1492.6478
X-0.003460 A230.000000 F1494.8263
X-0.003456 A231.000000 F1493.8056
X-0.003453 A232.000000 F1492.4985
X-0.003449 A234.000000 F1494.4358
X-0.003446 A235.000000 F1491.9821
X-0.003442 A236.000000 F1492.4824
X-0.003438 A237.000000 F1494.1765
X-0.003435 A238.000000 F1492.2203
X-0.003431 A240.000000 F1492.223
X-0.003428 A241.000000 F1492.3539
X-0.003424 A242.000000 F1492.4611
X-0.003421 A243.000000 F1489.5185
X-0.003418 A244.000000 F1989.7803
X-0.003415 A245.000000 F1989.7739
X-0.003412 A246.000000 F1989.7756
X-0.003410 A247.000000 F1989.7775
X-0.003406 A248.000000 F1490.0172
X-0.003403 A250.000000 F1492.7028
X-0.003399 A251.000000 F1491.5558
X-0.003395 A252.000000 F1490.2545
X-0.003392 A253.000000 F1492.4443
X-0.003388 A255.000000 F1492.3118
X-0.003385 A256.000000 F1492.4239
X-0.003381 A257.000000 F1492.0541
X-0.003377 A258.000000 F1494.7474
X-0.003374 A259.000000 F1491.6451
X-0.003370 A261.000000 F1492.5535
X-0.003367 A262.000000 F1494.727
X-0.003363 A263.000000 F1491.6442
X-0.003359 A264.000000 F1494.7274
X-0.003356 A266.000000 F1491.7555
X-0.003352 A267.000000 F1494.466
X-0.003349 A268.000000 F1492.1442
X-0.003345 A269.000000 F1494.7075
X-0.003341 A271.000000 F1491.4769
X-0.003338 A272.000000 F1491.7554
X-0.003334 A273.000000 F1492.7723
X-0.003331 A274.000000 F1492.2352
X-0.003327 A275.000000 F1491.7359
X-0.003323 A277.000000 F1492.3646
X-0.003320 A278.000000 F1491.4771
X-0.003316 A279.000000 F1490.5647
X-0.003312 A280.000000 F1492.6046
X-0.003309 A282.000000 F1491.4571
X-0.003305 A283.000000 F1489.8997
X-0.003302 A284.000000 F1492.234
X-0.003298 A285.000000 F1492.3446
X-0.003294 A287.000000 F1489.9002
X-0.003291 A288.000000 F1492.5836
X-0.003287 A289.000000 F1491.6963
X-0.003283 A290.000000 F1492.5867
X-0.003280 A291.000000 F1494.3868
X-0.003276 A293.000000 F1491.4165
X-0.003273 A294.000000 F1492.3239
X-0.003269 A295.000000 F1494.3884
X-0.003265 A296.000000 F1492.1765
X-0.003262 A298.000000 F1494.3665
X-0.003258 A299.000000 F1491.7871
X-0.003254 A300.000000 F1494.3666
X-0.003251 A301.000000 F1491.9163
X-0.003247 A303.000000 F1494.6092
X-0.003243 A304.000000 F1491.5049
X-0.003240 A305.000000 F1492.1595
X-0.003236 A306.000000 F1494.3472
X-0.003232 A307.000000 F1491.7641
X-0.003229 A309.000000 F1492.2667
X-0.003225 A310.000000 F1489.1924
X-0.003222 A311.000000 F1989.5198
X-0.003220 A312.000000 F1989.5102
X-0.003217 A313.000000 F1989.5155
X-0.003214 A314.000000 F1989.5157
X-0.003211 A315.000000 F1490.1878
X-0.003207 A316.000000 F1492.1166
X-0.003203 A317.000000 F1491.6175
X-0.003200 A319.000000 F1492.246
X-0.003196 A320.000000 F1489.9082
X-0.003192 A321.000000 F1492.1155
X-0.003189 A322.000000 F1492.0985
X-0.003185 A323.000000 F1491.7266
X-0.003181 A325.000000 F1492.356
X-0.003178 A326.000000 F1494.2897
X-0.003174 A327.000000 F1491.9439
X-0.003170 A328.000000 F1491.8385
X-0.003167 A330.000000 F1494.2657
X-0.003163 A331.000000 F1494.2681
X-0.003159 A332.000000 F1491.6857
X-0.003156 A333.000000 F1494.2686
X-0.003152 A335.000000 F1491.9255
X-0.003148 A336.000000 F1491.8181
X-0.003145 A337.000000 F1494.5077
X-0.003141 A338.000000 F1491.2795
X-0.003137 A339.000000 F1492.1849
X-0.003134 A341.000000 F1492.1651
X-0.003130 A342.000000 F1491.2788
X-0.003126 A343.000000 F1489.9807
X-0.003124 A344.000000 F1989.2642
X-0.003121 A345.000000 F1989.2672
X-0.003118 A346.000000 F1989.2653
X-0.003115 A347.000000 F1989.2658
X-0.003112 A348.000000 F1489.9617
X-0.003108 A349.000000 F1492.1438
X-0.003104 A351.000000 F1489.4439
X-0.003101 A352.000000 F1491.8863
X-0.003097 A353.000000 F1491.8861
X-0.003093 A354.000000 F1492.1458
X-0.003090 A355.000000 F1989.2125
X-0.003088 A356.000000 F1989.213
X-0.003085 A357.000000 F1989.2125
X-0.003082 A358.000000 F1989.2124
X-0.003078 A359.000000 F1492.3849
X-0.003075 A0.000000 F1494.4277
X-0.003071 A2.000000 F1491.2185
X-0.003067 A3.000000 F1494.4278
X-0.003064 A4.000000 F1491.4571
X-0.003060 A5.000000 F1494.0374
X-0.003056 A7.000000 F1494.0363
X-0.003053 A8.000000 F1492.0851
X-0.003049 A9.000000 F1494.1474
X-0.003045 A10.000000 F1491.1776
X-0.003041 A12.000000 F1491.7618
X-0.003038 A13.000000 F1491.7614
X-0.003034 A14.000000 F1492.0854
X-0.003030 A15.000000 F1491.8043
X-0.003027 A16.000000 F1491.806
X-0.003023 A18.000000 F1491.8075
X-0.003019 A19.000000 F1491.8063
X-0.003015 A20.000000 F1489.7292
X-0.003012 A21.000000 F1491.9373
X-0.003008 A23.000000 F1491.9144
X-0.003004 A24.000000 F1489.4713
X-0.003001 A25.000000 F1491.9157
X-0.002997 A26.000000 F1492.0442
X-0.002993 A28.000000 F1491.8971
X-0.002989 A29.000000 F1489.3216
X-0.002986 A30.000000 F1492.0243
X-0.002982 A31.000000 F1491.8948
X-0.002978 A32.000000 F1494.0893
X-0.002975 A34.000000 F1491.7442
X-0.002971 A35.000000 F1491.6358
X-0.002967 A36.000000 F1494.3257
X-0.002963 A37.000000 F1491.4844
X-0.002960 A39.000000 F1494.3257
X-0.002956 A40.000000 F1494.046
X-0.002952 A41.000000 F1491.0954
X-0.002948 A42.000000 F1494.3073
X-0.002945 A44.000000 F1491.2062
X-0.002941 A45.000000 F1487.7503
X-0.002937 A46.000000 F1497.1352
X-0.002933 A47.000000 F1495.5931
X-0.002930 A48.000000 F1496.0249
X-0.002926 A50.000000 F1496.0242
X-0.002926 A50.000000 F429102.4148
X-0.002922 A51.000000 F1477.4572
X-0.002919 A52.000000 F1498.8344
X-0.002915 A53.000000 F1496.0077
X-0.002911 A55.000000 F1496.0038
A55.000000 F381404.3719
X-0.002907 A56.000000 F1477.8396
X-0.002904 A57.000000 F1498.9458
X-0.002900 A58.000000 F1496.179
X-0.002896 A60.000000 F1495.2901
X-0.002896 A60.000000 F476475.9885
X-0.002892 A61.000000 F1477.4174
X-0.002889 A62.000000 F1496.4746
X-0.002885 A63.000000 F1496.4753
X-0.002881 A64.000000 F1496.4743
X-0.002877 A66.000000 F1496.4753
A66.000000 F490063.6443
X-0.002874 A67.000000 F1477.3972
X-0.002870 A68.000000 F1498.383
X-0.002866 A69.000000 F1495.9185
X-0.002862 A71.000000 F1496.4012
X-0.002858 A72.000000 F1495.1172
X-0.002855 A73.000000 F1495.7694
A73.000000 F490167.9373
X-0.002851 A74.000000 F1477.3772
X-0.002848 A75.000000 F1995.6654
X-0.002845 A76.000000 F1995.6675
X-0.002842 A77.000000 F1995.664
X-0.002840 A78.000000 F1995.6648
X-0.002836 A79.000000 F1496.1198
X-0.002832 A80.000000 F1495.0958
A80.000000 F490167.1206
X-0.002828 A82.000000 F1477.3581
X-0.002825 A83.000000 F1497.2279
X-0.002821 A84.000000 F1497.2298
X-0.002817 A85.000000 F1495.9688
X-0.002813 A87.000000 F1495.2058
A87.000000 F476492.5109
X-0.002809 A88.000000 F1477.4649
X-0.002806 A89.000000 F1497.1434
X-0.002802 A90.000000 F1497.1434
X-0.002798 A92.000000 F1496.0777
X-0.002798 A92.000000 F389779.1863
X-0.002794 A93.000000 F1477.7194
X-0.002791 A94.000000 F1496.4046
X-0.002787 A95.000000 F1496.404
X-0.002783 A96.000000 F1496.4047
X-0.002779 A98.000000 F1496.4036
X-0.002779 A98.000000 F476576.8023
X-0.002775 A99.000000 F1477.1703
X-0.002772 A100.000000 F1498.4293
X-0.002769 A101.000000 F1994.5098
X-0.002766 A102.000000 F1994.5114
X-0.002763 A103.000000 F1994.5124
X-0.002760 A104.000000 F1994.5102
X-0.002756 A105.000000 F1496.035
A105.000000 F373008.3383
X-0.002753 A106.000000 F1477.6788
X-0.002750 A107.000000 F1995.6436
X-0.002747 A108.000000 F1995.6438
X-0.002744 A109.000000 F1995.6428
X-0.002741 A110.000000 F1995.643
X-0.002738 A111.000000 F1496.0154
X-0.002734 A112.000000 F1495.2547
X-0.002730 A114.000000 F1496.0155
X-0.002730 A114.000000 F428621.7304
X-0.002726 A115.000000 F1477.3871
X-0.002722 A116.000000 F1497.0598
X-0.002719 A117.000000 F1497.0618
X-0.002715 A119.000000 F1495.992
X-0.002711 A120.000000 F1494.9723
A120.000000 F476557.5203
X-0.002707 A121.000000 F1477.3648
X-0.002703 A122.000000 F1497.1676
X-0.002699 A124.000000 F1497.1695
X-0.002696 A125.000000 F1495.7127
A125.000000 F389923.8792
X-0.002692 A126.000000 F1477.6206
X-0.002689 A127.000000 F1995.4426
X-0.002686 A128.000000 F1995.4428
X-0.002683 A129.000000 F1995.4423
X-0.002680 A130.000000 F1995.4447
A130.000000 F476514.412
X-0.002677 A131.000000 F1476.818
X-0.002673 A132.000000 F1498.3229
X-0.002669 A133.000000 F1495.6946
X-0.002665 A135.000000 F1495.6904
X-0.002661 A136.000000 F1495.6913
X-0.002658 A137.000000 F1495.6922
A137.000000 F476318.5051
X-0.002654 A138.000000 F1477.3079
X-0.002650 A140.000000 F1498.0217
X-0.002646 A141.000000 F1495.4274
X-0.002642 A142.000000 F1496.1956
X-0.002638 A143.000000 F1495.6496
X-0.002635 A145.000000 F1495.41
X-0.002631 A146.000000 F1495.9096
A146.000000 F408464.1174
X-0.002627 A147.000000 F1477.2844
X-0.002624 A148.000000 F1995.3593
X-0.002621 A149.000000 F1995.3615
X-0.002618 A150.000000 F1995.3595
X-0.002615 A151.000000 F1995.3594
X-0.002612 A152.000000 F1495.8893
A152.000000 F372888.6929
X-0.002608 A153.000000 F1477.5404
X-0.002604 A154.000000 F1499.0252
X-0.002600 A156.000000 F1495.6091
X-0.002596 A157.000000 F1495.1057
A157.000000 F408381.3043
X-0.002592 A158.000000 F1477.5197
X-0.002589 A159.000000 F1496.2609
X-0.002585 A161.000000 F1496.2589
X-0.002581 A162.000000 F1496.2612
X-0.002577 A163.000000 F1496.2594
A163.000000 F476411.4619
X-0.002573 A164.000000 F1476.9683
X-0.002569 A165.000000 F1497.9602
X-0.002566 A166.000000 F1994.1181
X-0.002564 A167.000000 F1994.114
X-0.002561 A168.000000 F1994.1168
X-0.002558 A169.000000 F1994.1149
A169.000000 F476312.5957
X-0.002554 A170.000000 F1476.9493
X-0.002550 A172.000000 F1498.1991
X-0.002547 A173.000000 F1994.2028
X-0.002544 A173.000000 F1994.2032
X-0.002541 A174.000000 F1994.2038
X-0.002538 A175.000000 F1994.2029
X-0.002535 A177.000000 F1495.8049
X-0.002531 A178.000000 F1494.7842
A178.000000 F476346.3346
X-0.002527 A179.000000 F1477.1834
X-0.002524 A180.000000 F1995.2192
X-0.002521 A181.000000 F1995.2193
X-0.002518 A182.000000 F1995.2188
X-0.002515 A183.000000 F1995.2196
X-0.002511 A184.000000 F1495.7828
A184.000000 F372940.7508
X-0.002508 A185.000000 F1477.4378
X-0.002505 A186.000000 F1995.1913
X-0.002502 A187.000000 F1995.1909
X-0.002499 A188.000000 F1995.1905
X-0.002496 A189.000000 F1995.1911
X-0.002496 A189.000000 F476334.035
X-0.002492 A190.000000 F1476.888
X-0.002488 A191.000000 F1498.1353
X-0.002485 A192.000000 F1994.0016
X-0.002482 A193.000000 F1994.0039
X-0.002480 A194.000000 F1994.0024
X-0.002477 A195.000000 F1994.0035
A195.000000 F451431.3876
X-0.002473 A196.000000 F1476.8672
X-0.002469 A197.000000 F1498.1141
X-0.002466 A198.000000 F1993.9754
X-0.002463 A199.000000 F1993.9743
X-0.002460 A200.000000 F1993.9743
X-0.002457 A201.000000 F1993.9736
A201.000000 F408487.0215
X-0.002453 A202.000000 F1477.3763
X-0.002449 A204.000000 F1498.3341
X-0.002446 A205.000000 F1495.218
X-0.002443 A206.000000 F1993.9458
X-0.002440 A207.000000 F1993.9474
X-0.002437 A208.000000 F1993.9445
X-0.002434 A209.000000 F1993.9477
A209.000000 F451538.0223
X-0.002430 A210.000000 F1477.0799
X-0.002426 A211.000000 F1498.0499
X-0.002422 A212.000000 F1495.1989
X-0.002418 A213.000000 F1495.9584
X-0.002414 A215.000000 F1495.6775
X-0.002411 A216.000000 F1494.6548
X-0.002411 A216.000000 F408496.3516
X-0.002407 A217.000000 F1477.338
X-0.002404 A218.000000 F1995.2763
X-0.002401 A219.000000 F1995.2794
X-0.002398 A220.000000 F1995.281
X-0.002395 A221.000000 F1995.2832
X-0.002391 A222.000000 F1495.654
A222.000000 F357375.1629
X-0.002387 A223.000000 F1477.5678
X-0.002384 A224.000000 F1995.0271
X-0.002381 A225.000000 F1995.0199
X-0.002378 A226.000000 F1995.0167
X-0.002375 A227.000000 F1995.0227
A227.000000 F408293.5273
X-0.002371 A228.000000 F1477.0402
X-0.002368 A230.000000 F1498.2711
X-0.002365 A230.000000 F1993.8324
X-0.002362 A231.000000 F1993.8302
X-0.002359 A232.000000 F1993.8365
X-0.002356 A233.000000 F1993.8273
A233.000000 F428495.7739
X-0.002352 A234.000000 F1477.0213
X-0.002348 A236.000000 F1498.2472
X-0.002344 A237.000000 F1495.2876
X-0.002340 A238.000000 F1495.2859
X-0.002336 A239.000000 F1495.289
X-0.002332 A241.000000 F1495.289
A241.000000 F428494.4501
X-0.002328 A242.000000 F1477.2536
X-0.002325 A243.000000 F1498.206
X-0.002321 A244.000000 F1494.833
X-0.002317 A246.000000 F1495.5916
X-0.002313 A247.000000 F1495.5902
X-0.002309 A248.000000 F1495.5706
A248.000000 F372670.7165
X-0.002305 A249.000000 F1477.2356
X-0.002301 A250.000000 F1495.9598
X-0.002297 A252.000000 F1495.9639
X-0.002293 A253.000000 F1495.9612
X-0.002289 A254.000000 F1495.9629
X-0.002289 A254.000000 F408237.6706
X-0.002285 A255.000000 F1477.2128
X-0.002282 A256.000000 F1994.9921
X-0.002279 A257.000000 F1994.993
X-0.002276 A258.000000 F1994.9909
X-0.002274 A259.000000 F1994.9935
X-0.002273 A259.000000 F408250.5728
X-0.002270 A260.000000 F1476.938
X-0.002266 A262.000000 F1498.1618
X-0.002262 A263.000000 F1495.5275
X-0.002258 A264.000000 F1494.7675
X-0.002254 A265.000000 F1495.5267
A265.000000 F408312.1926
X-0.002250 A266.000000 F1477.1707
X-0.002246 A268.000000 F1498.379
X-0.002242 A269.000000 F1494.746
X-0.002239 A270.000000 F1993.6592
X-0.002236 A271.000000 F1993.6607
X-0.002233 A272.000000 F1993.6606
X-0.002230 A273.000000 F1993.6592
A273.000000 F408287.4532
X-0.002226 A274.000000 F1476.8958
X-0.002222 A275.000000 F1498.1187
X-0.002218 A276.000000 F1495.223
X-0.002214 A278.000000 F1495.2229
X-0.002210 A279.000000 F1495.2222
X-0.002206 A280.000000 F1495.2229
A280.000000 F408348.6019
X-0.002202 A281.000000 F1477.13
X-0.002199 A282.000000 F1495.8539
X-0.002195 A284.000000 F1495.854
X-0.002191 A285.000000 F1495.8519
X-0.002187 A286.000000 F1495.8564
A286.000000 F408161.9524
X-0.002183 A287.000000 F1477.36
X-0.002179 A289.000000 F1498.0558
X-0.002175 A290.000000 F1494.6821
X-0.002171 A291.000000 F1495.3072
X-0.002167 A292.000000 F1495.3119
A292.000000 F408126.2113
X-0.002163 A294.000000 F1477.0892
X-0.002159 A295.000000 F1496.593
X-0.002155 A296.000000 F1496.5922
X-0.002151 A297.000000 F1494.4003
A297.000000 F451132.1429
X-0.002147 A298.000000 F1477.3211
X-0.002143 A300.000000 F1498.0109
X-0.002139 A301.000000 F1494.8963
X-0.002135 A302.000000 F1495.1378
X-0.002131 A303.000000 F1494.895
X-0.002127 A305.000000 F1495.3985
A305.000000 F389771.0556
X-0.002123 A306.000000 F1477.3
X-0.002119 A307.000000 F1497.9867
X-0.002115 A308.000000 F1494.875
X-0.002112 A309.000000 F1993.4837
X-0.002109 A310.000000 F1993.4892
X-0.002106 A311.000000 F1993.4837
X-0.002103 A312.000000 F1993.4837
X-0.002103 A312.000000 F389800.3562
X-0.002099 A313.000000 F1477.2795
X-0.002095 A314.000000 F1497.9675
X-0.002091 A316.000000 F1494.8534
X-0.002087 A317.000000 F1495.2244
X-0.002083 A318.000000 F1495.2201
X-0.002079 A319.000000 F1495.3329
A319.000000 F357145.9885
X-0.002075 A321.000000 F1477.2579
X-0.002071 A322.000000 F1497.9473
X-0.002067 A323.000000 F1494.8298
X-0.002063 A324.000000 F1495.0714
X-0.002063 A324.000000 F408144.6681
X-0.002059 A326.000000 F1477.2382
X-0.002055 A327.000000 F1497.9205
X-0.002051 A328.000000 F1494.5515
X-0.002047 A329.000000 F1495.3105
A329.000000 F408091.8394
X-0.002043 A331.000000 F1476.708
X-0.002039 A332.000000 F1496.4856
X-0.002035 A333.000000 F1496.4844
X-0.002032 A334.000000 F1993.3684
X-0.002029 A335.000000 F1993.3697
X-0.002026 A336.000000 F1993.3656
X-0.002023 A337.000000 F1993.3703
X-0.002023 A337.000000 F408147.2653
X-0.002019 A338.000000 F1476.6883
X-0.002015 A339.000000 F1496.4635
X-0.002011 A340.000000 F1496.462
X-0.002008 A341.000000 F1993.3383
X-0.002005 A342.000000 F1993.341
X-0.002002 A343.000000 F1993.3368
X-0.001999 A344.000000 F1993.3432
A344.000000 F408097.1862
X-0.001995 A345.000000 F1476.6657
X-0.001991 A347.000000 F1498.1395
X-0.001987 A348.000000 F1494.9174
X-0.001983 A349.000000 F1494.9179
X-0.001979 A350.000000 F1494.9195
X-0.001975 A351.000000 F1494.9165
A351.000000 F408168.137
X-0.001971 A353.000000 F1476.8996
X-0.001967 A354.000000 F1498.0954
X-0.001963 A355.000000 F1494.4629
X-0.001959 A356.000000 F1495.2208
A356.000000 F389777.5184
X-0.001955 A358.000000 F1476.8755
X-0.001951 A359.000000 F1497.8357
X-0.001947 A0.000000 F1495.0683
X-0.001943 A1.000000 F1495.0684
X-0.001939 A3.000000 F1494.1799
A3.000000 F451145.394
X-0.001935 A4.000000 F1476.8571
X-0.001931 A5.000000 F1498.0504
X-0.001927 A6.000000 F1494.4187
X-0.001923 A7.000000 F1495.1773
X-0.001919 A9.000000 F1494.1579
A9.000000 F451084.0831
X-0.001915 A10.000000 F1477.0889
X-0.001911 A11.000000 F1497.7693
X-0.001906 A12.000000 F1494.3937
X-0.001902 A14.000000 F1494.9174
X-0.001898 A15.000000 F1495.0254
X-0.001894 A16.000000 F1495.0233
A16.000000 F389817.2717
X-0.001890 A17.000000 F1477.0664
X-0.001886 A19.000000 F1497.7464
X-0.001882 A20.000000 F1494.633
X-0.001879 A21.000000 F1993.1613
X-0.001876 A22.000000 F1993.166
X-0.001873 A23.000000 F1993.1623
X-0.001870 A23.000000 F1993.1608
X-0.001870 A23.000000 F389722.9986
X-0.001866 A25.000000 F1476.7914
X-0.001862 A26.000000 F1497.7485
X-0.001859 A27.000000 F1993.1315
X-0.001856 A28.000000 F1993.1342
X-0.001853 A29.000000 F1993.1327
X-0.001850 A30.000000 F1993.1337
A30.000000 F389731.5317
X-0.001846 A31.000000 F1476.7695
X-0.001842 A32.000000 F1497.726
X-0.001838 A33.000000 F1494.9576
X-0.001834 A35.000000 F1494.9559
A35.000000 F389728.4091
X-0.001829 A36.000000 F1476.7483
X-0.001825 A37.000000 F1496.2625
X-0.001821 A38.000000 F1496.2663
X-0.001817 A39.000000 F1495.0649
X-0.001813 A41.000000 F1494.0452
A41.000000 F451029.3419
X-0.001809 A42.000000 F1476.4766
X-0.001805 A43.000000 F1496.2396
X-0.001801 A44.000000 F1496.2428
X-0.001797 A46.000000 F1494.9127
X-0.001793 A47.000000 F1494.9137
X-0.001789 A48.000000 F1494.0264
X-0.001789 A48.000000 F428754.0344
X-0.001785 A49.000000 F1476.9593
X-0.001781 A51.000000 F1497.8959
X-0.001777 A52.000000 F1494.2611
X-0.001772 A53.000000 F1495.0225
X-0.001768 A54.000000 F1494.2612
X-0.001764 A55.000000 F1495.0203
X-0.001764 A55.000000 F451146.0471
X-0.001760 A57.000000 F1476.1564
X-0.001756 A58.000000 F1496.0678
X-0.001752 A59.000000 F1496.0639
X-0.001748 A60.000000 F1494.8694
X-0.001744 A62.000000 F1494.8668
A62.000000 F389837.9342
X-0.001740 A63.000000 F1476.4077
X-0.001736 A64.000000 F1497.8746
X-0.001732 A65.000000 F1494.7172
X-0.001728 A67.000000 F1494.716
X-0.001727 A67.000000 F408031.3078
X-0.001723 A68.000000 F1476.3885
X-0.001720 A69.000000 F1994.233
X-0.001717 A70.000000 F1994.2291
X-0.001714 A71.000000 F1994.2316
X-0.001711 A72.000000 F1994.2298
X-0.001707 A73.000000 F1494.9519
A73.000000 F389677.7039
X-0.001703 A74.000000 F1476.3679
X-0.001700 A75.000000 F1994.2004
X-0.001697 A76.000000 F1994.2019
X-0.001694 A77.000000 F1994.1997
X-0.001691 A78.000000 F1994.1993
X-0.001686 A79.000000 F1494.8018
X-0.001682 A80.000000 F1494.8008
A80.000000 F389597.1116
X-0.001678 A81.000000 F1476.3468
X-0.001675 A82.000000 F1994.1703
X-0.001672 A83.000000 F1994.1713
X-0.001669 A84.000000 F1994.1702
X-0.001666 A85.000000 F1994.1704
X-0.001662 A86.000000 F1494.778
X-0.001658 A88.000000 F1494.7786
A88.000000 F389583.2593
X-0.001654 A89.000000 F1476.3253
X-0.001650 A90.000000 F1497.7829
X-0.001645 A91.000000 F1494.7559
X-0.001641 A92.000000 F1494.756
X-0.001637 A94.000000 F1493.868
X-0.001637 A94.000000 F428625.3471
X-0.001633 A95.000000 F1476.8104
X-0.001629 A96.000000 F1497.7373
X-0.001625 A97.000000 F1494.1063
X-0.001621 A99.000000 F1494.8639
X-0.001617 A100.000000 F1493.8468
A100.000000 F450907.2136
X-0.001612 A101.000000 F1476.5353
X-0.001608 A102.000000 F1497.7157
X-0.001604 A104.000000 F1493.8232
X-0.001600 A105.000000 F1494.6026
A105.000000 F428580.9139
X-0.001596 A106.000000 F1476.5134
X-0.001592 A107.000000 F1496.0152
X-0.001588 A108.000000 F1496.0177
X-0.001584 A110.000000 F1494.8172
X-0.001579 A111.000000 F1494.3202
X-0.001575 A112.000000 F1494.5618
A112.000000 F389569.7656
X-0.001571 A113.000000 F1476.4885
X-0.001568 A114.000000 F1994.0228
X-0.001565 A115.000000 F1994.0199
X-0.001562 A116.000000 F1994.0195
X-0.001559 A117.000000 F1994.0206
X-0.001555 A118.000000 F1494.5373
X-0.001550 A120.000000 F1494.5349
A120.000000 F389627.3413
X-0.001546 A121.000000 F1476.4685
X-0.001542 A122.000000 F1495.9706
X-0.001538 A123.000000 F1495.9738
X-0.001535 A124.000000 F1992.6835
X-0.001532 A125.000000 F1992.6848
X-0.001529 A126.000000 F1992.6842
X-0.001526 A127.000000 F1992.6818
A127.000000 F389532.2651
X-0.001521 A128.000000 F1476.4479
X-0.001517 A129.000000 F1497.6485
X-0.001513 A131.000000 F1494.4923
X-0.001509 A132.000000 F1493.9911
A132.000000 F428432.3903
X-0.001505 A133.000000 F1476.4258
X-0.001501 A134.000000 F1497.3635
X-0.001496 A136.000000 F1494.7258
X-0.001492 A137.000000 F1493.9703
A137.000000 F428338.5826
X-0.001488 A138.000000 F1476.1526
X-0.001484 A139.000000 F1495.1204
X-0.001480 A140.000000 F1495.1215
X-0.001476 A142.000000 F1495.1177
X-0.001472 A143.000000 F1495.1194
A143.000000 F428510.8012
X-0.001467 A144.000000 F1476.3816
X-0.001463 A145.000000 F1495.0984
X-0.001459 A147.000000 F1495.0982
X-0.001455 A148.000000 F1495.0967
X-0.001451 A149.000000 F1495.0957
X-0.001446 A150.000000 F1494.5516
X-0.001442 A152.000000 F1494.552
X-0.001442 A152.000000 F342875.9914
X-0.001438 A153.000000 F1476.8911
X-0.001434 A154.000000 F1497.795
X-0.001430 A155.000000 F1493.8996
X-0.001426 A156.000000 F1494.4249
X-0.001421 A158.000000 F1494.5282
X-0.001417 A159.000000 F1494.5292
A159.000000 F389469.251
X-0.001413 A160.000000 F1476.0874
X-0.001409 A161.000000 F1497.5319
X-0.001405 A163.000000 F1494.6363
X-0.001401 A164.000000 F1493.6199
A164.000000 F428405.6073
X-0.001396 A165.000000 F1476.3157
X-0.001392 A166.000000 F1497.5109
X-0.001388 A168.000000 F1494.6139
X-0.001384 A169.000000 F1493.857
X-0.001380 A170.000000 F1494.6138
A170.000000 F342780.9307
X-0.001375 A171.000000 F1476.5712
X-0.001371 A173.000000 F1496.0489
X-0.001367 A174.000000 F1496.0492
X-0.001363 A175.000000 F1494.5905
X-0.001359 A176.000000 F1493.5733
A176.000000 F428436.7443
X-0.001354 A177.000000 F1476.2721
X-0.001351 A178.000000 F1993.7162
X-0.001348 A179.000000 F1993.716
X-0.001345 A180.000000 F1993.7161
X-0.001342 A181.000000 F1993.7159
X-0.001338 A182.000000 F1494.3084
X-0.001333 A184.000000 F1494.3085
A184.000000 F356919.1346
X-0.001329 A185.000000 F1476.5266
X-0.001325 A186.000000 F1497.7035
X-0.001321 A187.000000 F1494.5451
X-0.001317 A189.000000 F1493.7875
X-0.001312 A190.000000 F1494.2863
X-0.001308 A191.000000 F1494.285
A191.000000 F389389.5597
X-0.001304 A192.000000 F1476.228
X-0.001300 A193.000000 F1495.7201
X-0.001296 A195.000000 F1495.7216
X-0.001291 A196.000000 F1494.5203
X-0.001287 A197.000000 F1493.5046
A197.000000 F428380.7598
X-0.001283 A198.000000 F1476.4609
X-0.001279 A200.000000 F1497.3729
X-0.001274 A201.000000 F1493.7384
X-0.001270 A202.000000 F1494.0038
A202.000000 F428423.0925
X-0.001266 A203.000000 F1476.1812
X-0.001263 A204.000000 F1993.5938
X-0.001260 A205.000000 F1993.5935
X-0.001257 A206.000000 F1993.5947
X-0.001253 A207.000000 F1993.5935
X-0.001249 A208.000000 F1494.4762
A208.000000 F372493.9638
X-0.001245 A209.000000 F1475.9084
X-0.001241 A211.000000 F1497.1096
X-0.001236 A212.000000 F1494.7377
X-0.001232 A213.000000 F1494.4541
X-0.001228 A214.000000 F1493.6931
X-0.001224 A216.000000 F1494.4532
A216.000000 F372755.2185
X-0.001220 A217.000000 F1476.1371
X-0.001216 A218.000000 F1993.6478
X-0.001213 A219.000000 F1993.6425
X-0.001210 A220.000000 F1993.6535
X-0.001207 A221.000000 F1993.6411
X-0.001203 A222.000000 F1494.1689
X-0.001198 A223.000000 F1493.6717
A223.000000 F408143.6787
X-0.001194 A224.000000 F1476.1179
X-0.001190 A225.000000 F1497.3048
X-0.001186 A227.000000 F1494.4042
X-0.001181 A228.000000 F1493.6481
X-0.001177 A229.000000 F1494.4071
A229.000000 F389208.1961
X-0.001173 A230.000000 F1476.0977
X-0.001169 A232.000000 F1495.5813
X-0.001164 A233.000000 F1495.5793
X-0.001160 A234.000000 F1494.3868
X-0.001160 A234.000000 F342702.0545
X-0.001156 A235.000000 F1476.3486
X-0.001153 A236.000000 F1993.6657
X-0.001150 A237.000000 F1993.6755
X-0.001146 A238.000000 F1993.6648
X-0.001143 A239.000000 F1993.6718
X-0.001139 A240.000000 F1494.1033
A240.000000 F342682.4172
X-0.001135 A241.000000 F1476.5779
X-0.001131 A242.000000 F1993.5232
X-0.001128 A243.000000 F1993.5276
X-0.001125 A244.000000 F1993.5227
X-0.001122 A245.000000 F1993.5233
X-0.001118 A246.000000 F1494.3364
A246.000000 F342637.2806
X-0.001113 A248.000000 F1476.3061
X-0.001109 A249.000000 F1494.8582
X-0.001105 A250.000000 F1494.8595
X-0.001101 A251.000000 F1494.8584
X-0.001096 A253.000000 F1494.8579
X-0.001092 A254.000000 F1494.054
X-0.001088 A255.000000 F1494.0539
A255.000000 F342671.3418
X-0.001083 A256.000000 F1476.7891
X-0.001079 A257.000000 F1497.4255
X-0.001075 A259.000000 F1493.2719
X-0.001071 A260.000000 F1494.3131
X-0.001066 A261.000000 F1494.29
A261.000000 F372525.0332
X-0.001062 A262.000000 F1475.9835
X-0.001059 A263.000000 F1993.3147
X-0.001056 A264.000000 F1993.3142
X-0.001052 A265.000000 F1993.3151
X-0.001049 A266.000000 F1993.314
X-0.001045 A267.000000 F1494.2664
A267.000000 F372503.4345
X-0.001041 A269.000000 F1475.9606
X-0.001037 A269.000000 F1993.2823
X-0.001034 A270.000000 F1993.2816
X-0.001031 A271.000000 F1993.2816
X-0.001028 A272.000000 F1993.2823
A272.000000 F408089.4012
X-0.001024 A274.000000 F1475.6831
X-0.001019 A275.000000 F1496.8776
X-0.001015 A276.000000 F1494.5046
X-0.001011 A277.000000 F1494.2188
X-0.001006 A278.000000 F1493.2022
A278.000000 F372492.3656
X-0.001002 A280.000000 F1476.1945
X-0.000998 A281.000000 F1494.8057
X-0.000994 A282.000000 F1494.8061
X-0.000989 A283.000000 F1494.8046
X-0.000985 A285.000000 F1494.8071
X-0.000981 A286.000000 F1493.9374
X-0.000976 A287.000000 F1493.4379
A287.000000 F407863.4807
X-0.000972 A288.000000 F1475.895
X-0.000968 A290.000000 F1495.5011
X-0.000963 A291.000000 F1495.4984
X-0.000959 A292.000000 F1494.1736
X-0.000955 A293.000000 F1493.1549
X-0.000955 A293.000000 F408075.6456
X-0.000951 A294.000000 F1476.1213
X-0.000946 A296.000000 F1495.3493
X-0.000942 A297.000000 F1495.346
X-0.000938 A298.000000 F1494.1498
X-0.000933 A299.000000 F1493.132
X-0.000933 A299.000000 F428089.5979
X-0.000929 A301.000000 F1475.8479
X-0.000926 A302.000000 F1993.0156
X-0.000922 A302.000000 F1993.0113
X-0.000919 A303.000000 F1993.0064
X-0.000916 A304.000000 F1993.0143
A304.000000 F407972.5942
X-0.000912 A306.000000 F1475.8219
X-0.000907 A307.000000 F1496.7605
X-0.000904 A308.000000 F1991.8202
X-0.000901 A309.000000 F1991.8198
X-0.000898 A310.000000 F1991.8208
X-0.000894 A310.000000 F1991.8195
A310.000000 F407982.8773
X-0.000890 A312.000000 F1475.8038
X-0.000886 A313.000000 F1496.7129
X-0.000881 A314.000000 F1493.6046
X-0.000877 A315.000000 F1494.1032
X-0.000873 A317.000000 F1494.0769
X-0.000869 A318.000000 F1493.5805
X-0.000864 A319.000000 F1493.8176
X-0.000864 A319.000000 F342613.2101
X-0.000860 A320.000000 F1476.0606
X-0.000855 A322.000000 F1495.5129
X-0.000851 A323.000000 F1495.512
X-0.000847 A324.000000 F1494.0553
X-0.000842 A325.000000 F1493.5548
X-0.000838 A326.000000 F1493.798
X-0.000838 A326.000000 F372332.531
X-0.000834 A328.000000 F1476.01
X-0.000829 A329.000000 F1495.228
X-0.000825 A330.000000 F1495.2309
X-0.000821 A331.000000 F1494.0296
A331.000000 F342595.1423
X-0.000816 A333.000000 F1476.0139
X-0.000812 A334.000000 F1495.4635
X-0.000808 A335.000000 F1495.4684
X-0.000803 A336.000000 F1494.0047
X-0.000799 A338.000000 F1492.9904
A338.000000 F408042.1824
X-0.000795 A339.000000 F1475.9613
X-0.000791 A340.000000 F1992.8254
X-0.000788 A341.000000 F1992.8216
X-0.000785 A342.000000 F1992.8195
X-0.000782 A342.000000 F1992.8211
A342.000000 F372390.0994
X-0.000777 A344.000000 F1475.9675
X-0.000773 A345.000000 F1497.1147
X-0.000769 A346.000000 F1493.2277
X-0.000764 A347.000000 F1494.244
X-0.000760 A349.000000 F1493.9583
X-0.000756 A350.000000 F1492.9441
X-0.000751 A351.000000 F1493.7214
A351.000000 F407952.8254
X-0.000747 A352.000000 F1475.6656
X-0.000742 A354.000000 F1495.2639
X-0.000738 A355.000000 F1495.264
X-0.000734 A356.000000 F1493.935
X-0.000729 A357.000000 F1493.1799
X-0.000725 A358.000000 F1493.9352
A358.000000 F372358.8826
X-0.000721 A0.000000 F1475.6435
X-0.000717 A1.000000 F1992.9568
X-0.000714 A2.000000 F1992.9568
X-0.000711 A2.000000 F1992.9577
X-0.000708 A3.000000 F1992.9561
X-0.000703 A5.000000 F1493.6543
A5.000000 F372326.5559
X-0.000699 A6.000000 F1475.6205
X-0.000695 A7.000000 F1992.8091
X-0.000692 A8.000000 F1992.8099
X-0.000689 A9.000000 F1992.8083
X-0.000686 A10.000000 F1992.8086
A10.000000 F407832.6917
X-0.000681 A11.000000 F1475.5985
X-0.000678 A12.000000 F1992.7762
X-0.000675 A13.000000 F1992.7772
X-0.000671 A14.000000 F1992.7778
X-0.000668 A14.000000 F1992.778
A14.000000 F356988.3193
X-0.000664 A16.000000 F1476.1026
X-0.000659 A17.000000 F1496.7373
X-0.000655 A18.000000 F1493.3659
X-0.000651 A19.000000 F1493.7358
X-0.000646 A21.000000 F1493.7346
X-0.000642 A22.000000 F1493.8388
X-0.000642 A22.000000 F329467.8054
X-0.000637 A23.000000 F1476.0803
X-0.000633 A24.000000 F1494.363
X-0.000629 A26.000000 F1494.3612
X-0.000624 A27.000000 F1494.3613
X-0.000620 A28.000000 F1494.3635
X-0.000615 A29.000000 F1493.8146
X-0.000611 A30.000000 F1492.8015
A30.000000 F407597.1613
X-0.000607 A32.000000 F1475.5302
X-0.000602 A33.000000 F1495.2508
X-0.000598 A34.000000 F1495.247
X-0.000593 A35.000000 F1493.5358
X-0.000589 A37.000000 F1493.0325
A37.000000 F389239.4885
X-0.000585 A38.000000 F1475.7605
X-0.000580 A39.000000 F1495.0959
X-0.000576 A40.000000 F1495.0961
X-0.000571 A42.000000 F1493.7664
A42.000000 F329435.7063
X-0.000567 A43.000000 F1475.7608
X-0.000563 A44.000000 F1494.2892
X-0.000558 A45.000000 F1494.2892
X-0.000554 A47.000000 F1494.2877
X-0.000549 A48.000000 F1494.2906
A48.000000 F407691.269
X-0.000545 A49.000000 F1475.2042
X-0.000540 A50.000000 F1496.3808
X-0.000536 A51.000000 F1493.7423
X-0.000532 A53.000000 F1493.745
X-0.000527 A54.000000 F1493.4603
A54.000000 F342582.3247
X-0.000523 A55.000000 F1475.7129
X-0.000517 A57.000000 F1195.2671
X-0.000512 A58.000000 F1195.2677
X-0.000506 A60.000000 F1195.2677
X-0.000501 A61.000000 F1195.2687
X-0.000496 A63.000000 F1493.6955
X-0.000496 A63.000000 F356832.0984
X-0.000492 A64.000000 F1475.4119
X-0.000487 A65.000000 F1496.5758
X-0.000483 A66.000000 F1493.4313
X-0.000479 A67.000000 F1493.6867
X-0.000474 A69.000000 F1493.1631
X-0.000474 A69.000000 F372222.3463
X-0.000470 A70.000000 F1475.6498
X-0.000465 A71.000000 F1496.5414
X-0.000461 A72.000000 F1493.4106
X-0.000456 A74.000000 F1493.4032
X-0.000452 A75.000000 F1493.3982
A75.000000 F372382.673
X-0.000447 A76.000000 F1475.3709
X-0.000443 A77.000000 F1496.5236
X-0.000439 A79.000000 F1493.3846
X-0.000434 A80.000000 F1493.3792
A80.000000 F372279.0834
X-0.000430 A81.000000 F1475.356
X-0.000425 A82.000000 F1496.5032
X-0.000421 A83.000000 F1493.3654
X-0.000416 A85.000000 F1493.3624
X-0.000412 A86.000000 F1493.3554
A86.000000 F372254.1965
X-0.000407 A87.000000 F1475.5859
X-0.000403 A88.000000 F1496.4796
X-0.000399 A90.000000 F1493.3433
X-0.000394 A91.000000 F1493.3384
X-0.000390 A92.000000 F1493.3336
X-0.000385 A93.000000 F1493.3287
X-0.000381 A95.000000 F1493.3235
A95.000000 F356895.519
X-0.000376 A96.000000 F1475.5562
X-0.000372 A97.000000 F1496.4459
X-0.000367 A98.000000 F1493.3094
X-0.000363 A99.000000 F1493.3066
X-0.000358 A101.000000 F1493.3002
A101.000000 F356949.6688
X-0.000354 A102.000000 F1475.5327
X-0.000350 A103.000000 F1496.4214
X-0.000345 A104.000000 F1493.2868
X-0.000341 A106.000000 F1493.2831
X-0.000336 A107.000000 F1493.2751
A107.000000 F372287.2839
X-0.000332 A108.000000 F1475.2604
X-0.000327 A109.000000 F1496.6588
X-0.000323 A111.000000 F1493.0044
X-0.000318 A112.000000 F1493.2588
X-0.000318 A112.000000 F372348.5111
X-0.000314 A113.000000 F1475.4909
X-0.000309 A114.000000 F1496.3808
X-0.000305 A115.000000 F1493.2468
X-0.000300 A117.000000 F1493.2381
X-0.000296 A118.000000 F1493.2342
A118.000000 F356847.2805
X-0.000291 A119.000000 F1475.4718
X-0.000287 A120.000000 F1496.3566
X-0.000282 A122.000000 F1493.2216
X-0.000278 A123.000000 F1493.2189
X-0.000273 A124.000000 F1493.2119
X-0.000269 A125.000000 F1493.2058
A125.000000 F356917.4146
X-0.000264 A127.000000 F1475.441
X-0.000260 A128.000000 F1496.3294
X-0.000255 A129.000000 F1493.1966
X-0.000251 A130.000000 F1493.1856
X-0.000246 A131.000000 F1493.1816
X-0.000242 A133.000000 F1493.1804
A133.000000 F372162.0354
X-0.000238 A134.000000 F1475.4182
X-0.000233 A135.000000 F1496.3016
X-0.000228 A136.000000 F1493.1647
X-0.000224 A138.000000 F1493.157
X-0.000219 A139.000000 F1492.9007
A139.000000 F372408.7101
X-0.000215 A140.000000 F1475.3895
X-0.000210 A141.000000 F1496.2782
X-0.000206 A143.000000 F1493.1388
X-0.000201 A144.000000 F1493.1371
X-0.000201 A144.000000 F356994.3605
X-0.000197 A145.000000 F1475.3731
X-0.000192 A146.000000 F1496.2594
X-0.000188 A148.000000 F1493.125
X-0.000183 A149.000000 F1493.1182
X-0.000179 A150.000000 F1493.1098
A150.000000 F372171.724
X-0.000174 A151.000000 F1475.1014
X-0.000170 A152.000000 F1496.495
X-0.000165 A154.000000 F1492.8398
X-0.000161 A155.000000 F1493.3521
X-0.000156 A156.000000 F1493.0908
X-0.000152 A157.000000 F1492.8266
A157.000000 F372289.7462
X-0.000147 A159.000000 F1475.3231
X-0.000143 A160.000000 F1496.2075
X-0.000138 A161.000000 F1493.0721
X-0.000134 A162.000000 F1493.0642
X-0.000129 A164.000000 F1493.061
X-0.000125 A165.000000 F1493.0566
X-0.000120 A166.000000 F1493.0509
X-0.000120 A166.000000 F356845.7914
X-0.000116 A167.000000 F1475.2924
X-0.000111 A168.000000 F1496.1748
X-0.000107 A170.000000 F1493.0377
X-0.000102 A171.000000 F1493.0317
X-0.000098 A172.000000 F1493.0293
X-0.000098 A172.000000 F372137.8647
X-0.000093 A173.000000 F1475.0177
X-0.000089 A175.000000 F1496.409
X-0.000084 A176.000000 F1493.0126
X-0.000079 A177.000000 F1492.7516
A177.000000 F372120.3356
X-0.000075 A178.000000 F1475.2522
X-0.000070 A180.000000 F1496.1313
X-0.000066 A181.000000 F1492.995
X-0.000061 A182.000000 F1492.9894
X-0.000061 A182.000000 F356776.4584
X-0.000057 A183.000000 F1475.2332
X-0.000052 A184.000000 F1496.1119
X-0.000048 A186.000000 F1492.9747
X-0.000043 A187.000000 F1492.9729
X-0.000039 A188.000000 F1492.9654
X-0.000034 A189.000000 F1492.9617
A189.000000 F356817.62
X-0.000029 A191.000000 F1475.2042
X-0.000025 A192.000000 F1496.0834
X-0.000020 A193.000000 F1492.9489
X-0.000016 A194.000000 F1492.943
X-0.000011 A196.000000 F1493.1919
X-0.000007 A197.000000 F1492.6759
X-0.000002 A198.000000 F1492.9277
X-0.000002 A198.000000 F356736.9195
X0.000002 A199.000000 F1475.1749
X0.000007 A200.000000 F1496.3094
X0.000012 A202.000000 F1492.9126
X0.000016 A203.000000 F1492.9074
X0.000021 A204.000000 F1492.6495
A204.000000 F372043.0272
X0.000025 A205.000000 F1475.1507
X0.000030 A207.000000 F1496.0243
X0.000034 A208.000000 F1492.8907
X0.000039 A209.000000 F1492.8835
X0.000039 A209.000000 F356822.4976
X0.000044 A210.000000 F1475.1318
X0.000048 A212.000000 F1496.0027
X0.000053 A213.000000 F1492.8727
X0.000057 A214.000000 F1492.8677
X0.000062 A215.000000 F1492.8604
A215.000000 F356553.2265
X0.000066 A216.000000 F1475.1117
X0.000071 A218.000000 F1496.2395
X0.000076 A219.000000 F1492.8472
X0.000080 A220.000000 F1492.842
X0.000085 A221.000000 F1492.5796
A221.000000 F371987.3701
X0.000089 A223.000000 F1475.0861
X0.000094 A224.000000 F1495.9581
X0.000098 A225.000000 F1492.8202
X0.000103 A226.000000 F1492.8162
X0.000108 A228.000000 F1492.8129
X0.000112 A229.000000 F1492.8105
X0.000112 A229.000000 F356500.9828
X0.000117 A230.000000 F1475.0602
X0.000122 A231.000000 F1335.7648
X0.000127 A233.000000 F1335.76
X0.000132 A234.000000 F1335.7651
X0.000137 A236.000000 F1335.7614
X0.000142 A237.000000 F1335.7632
X0.000148 A238.000000 F1335.7642
X0.000153 A240.000000 F1335.7605
X0.000158 A241.000000 F1335.7639
X0.000163 A242.000000 F1335.7641
X0.000168 A244.000000 F1335.762
X0.000173 A245.000000 F1335.7622
X0.000178 A247.000000 F1335.7633
X0.000183 A248.000000 F1335.763
X0.000189 A249.000000 F1335.7638
X0.000194 A251.000000 F1335.7617
X0.000199 A252.000000 F1335.7625
X0.000204 A253.000000 F1335.7635
X0.000209 A255.000000 F1335.7623
X0.000214 A256.000000 F1335.7629
X0.000219 A257.000000 F1335.7628
X0.000224 A259.000000 F1335.7627
X0.000230 A260.000000 F1335.7628
X0.000235 A262.000000 F1335.7629
X0.000240 A263.000000 F1335.7631
X0.000245 A264.000000 F1335.763
X0.000250 A266.000000 F1335.7625
X0.000255 A267.000000 F1335.7629
X0.000260 A268.000000 F1335.7629
X0.000265 A270.000000 F1335.7628
X0.000271 A271.000000 F1335.7629
X0.000276 A273.000000 F1335.7627
X0.000281 A274.000000 F1335.7629
X0.000286 A275.000000 F1335.7627
X0.000291 A277.000000 F1335.7627
X0.000296 A278.000000 F1335.7633
X0.000301 A279.000000 F1335.7622
X0.000306 A281.000000 F1335.7629
X0.000312 A282.000000 F1335.7629
X0.000317 A284.000000 F1335.7631
X0.000322 A285.000000 F1335.7627
X0.000327 A286.000000 F1335.7639
X0.000332 A288.000000 F1335.7606
X0.000337 A289.000000 F1335.7639
X0.000342 A290.000000 F1335.7626
X0.000347 A292.000000 F1335.7625
X0.000353 A293.000000 F1335.7637
X0.000358 A295.000000 F1335.7631
X0.000363 A296.000000 F1335.7618
X0.000368 A297.000000 F1335.7629
X0.000373 A299.000000 F1335.7633
X0.000378 A300.000000 F1335.7631
X0.000383 A301.000000 F1335.7616
X0.000388 A303.000000 F1335.7637
X0.000394 A304.000000 F1335.7646
X0.000399 A306.000000 F1335.7616
X0.000404 A307.000000 F1335.7606
X0.000409 A308.000000 F1335.7635
X0.000414 A310.000000 F1335.7636
X0.000419 A311.000000 F1335.761
X0.000424 A312.000000 F1335.766
X0.000429 A314.000000 F1335.761
X0.000435 A315.000000 F1335.7621
X0.000440 A317.000000 F1335.7642
X0.000445 A318.000000 F1335.7626
X0.000450 A319.000000 F1335.763
X0.000455 A321.000000 F1335.7635
X0.000460 A322.000000 F1335.7617
X0.000465 A323.000000 F1335.762
X0.000471 A325.000000 F1335.7647
X0.000476 A326.000000 F1335.7616
X0.000481 A328.000000 F1335.7642
X0.000486 A329.000000 F1335.7616
X0.000491 A330.000000 F1335.7626
X0.000496 A332.000000 F1335.7626
X0.000501 A333.000000 F1335.7639
X0.000506 A334.000000 F1335.7625
X0.000511 A336.000000 F1335.7637
X0.000517 A337.000000 F1335.7613
X0.000522 A338.000000 F1335.7626
X0.000527 A340.000000 F1335.7626
X0.000532 A341.000000 F1335.7636
X0.000537 A343.000000 F1335.7637
X0.000542 A344.000000 F1335.7623
X0.000547 A345.000000 F1335.762
X0.000553 A347.000000 F1335.763
X0.000558 A348.000000 F1335.7635
X0.000563 A349.000000 F1335.7625
X0.000568 A351.000000 F1335.7626
X0.000573 A352.000000 F1335.7631
X0.000578 A354.000000 F1335.7629
X0.000583 A355.000000 F1335.7631
X0.000588 A356.000000 F1335.7625
X0.000594 A358.000000 F1335.763
X0.000599 A359.000000 F1335.7627
X0.000604 A0.000000 F1335.763
X0.000609 A2.000000 F1335.7627
X0.000614 A3.000000 F1335.7631
X0.000619 A5.000000 F1335.7624
X0.000624 A6.000000 F1335.7633
X0.000629 A7.000000 F1335.7625
X0.000635 A9.000000 F1335.7635
X0.000640 A10.000000 F1335.7625
X0.000645 A11.000000 F1335.7621
X0.000650 A13.000000 F1335.7636
X0.000655 A14.000000 F1335.7627
X0.000660 A16.000000 F1335.763
X0.000665 A17.000000 F1335.763
X0.000670 A18.000000 F1335.7628
X0.000676 A20.000000 F1335.7615
X0.000681 A21.000000 F1335.7633
X0.000686 A22.000000 F1335.7636
X0.000691 A24.000000 F1335.7621
X0.000696 A25.000000 F1335.7627
X0.000701 A27.000000 F1335.7636
X0.000706 A28.000000 F1335.7627
X0.000711 A29.000000 F1335.7622
X0.000717 A31.000000 F1335.765
X0.000722 A32.000000 F1335.7623
X0.000727 A33.000000 F1335.7623
X0.000732 A35.000000 F1335.7599
X0.000737 A36.000000 F1335.7663
X0.000742 A38.000000 F1335.7614
X0.000747 A39.000000 F1335.7642
X0.000752 A40.000000 F1335.7606
X0.000758 A42.000000 F1335.7634
X0.000763 A43.000000 F1335.7614
X0.000768 A44.000000 F1335.7636
X0.000773 A46.000000 F1335.764
G0 Z0.003661
G49
M9
M30
%
